;FLAVOR:Marlin
;TIME:771
;Filament used: 0.266995m
;Layer height: 0.2
;MINX:93.877
;MINY:87.522
;MINZ:0.3
;MAXX:126.125
;MAXY:119.768
;MAXZ:12.7
;Generated with Creality Slicer 4.8.2-191
M140 S60
M105
M190 S60
M104 S220
M105
M109 S220
M82 ;absolute extrusion mode

G28 ;Home

G92 E0 ;Reset Extruder
G1 Z2.0 F3000 ;Move Z Axis up
G1 X10.1 Y20 Z0.28 F5000.0 ;Move to start position
G1 X10.1 Y200.0 Z0.28 F1500.0 E15 ;Draw the first line
G1 X10.4 Y200.0 Z0.28 F5000.0 ;Move to side a little
G1 X10.4 Y20 Z0.28 F1500.0 E30 ;Draw the second line
G92 E0 ;Reset Extruder
G1 Z2.0 F3000 ;Move Z Axis up

G92 E0
G92 E0
G1 F3600 E-5
;LAYER_COUNT:63
;LAYER:0
M107
G0 F6000 X98.37 Y92.479 Z0.3
;TYPE:SKIRT
G1 F3600 E0
G1 F1200 X99.086 Y91.781 E0.04989
G1 X99.405 Y91.497 E0.07119
G1 X99.644 Y91.29 E0.08697
G1 X99.769 Y91.185 E0.09511
G1 X100.552 Y90.585 E0.14433
G1 X100.965 Y90.297 E0.16945
G1 X101.298 Y90.074 E0.18944
G1 X101.388 Y90.016 E0.19478
G1 X102.156 Y89.564 E0.23924
G1 X102.567 Y89.344 E0.2625
G1 X102.899 Y89.174 E0.28111
G1 X103.031 Y89.109 E0.28845
G1 X103.879 Y88.734 E0.33471
G1 X104.308 Y88.566 E0.35769
G1 X104.688 Y88.425 E0.37792
G1 X104.831 Y88.375 E0.38547
G1 X105.684 Y88.115 E0.42996
G1 X106.117 Y88.002 E0.45229
G1 X106.486 Y87.913 E0.47123
G1 X106.633 Y87.88 E0.47874
G1 X107.563 Y87.713 E0.52588
G1 X108.042 Y87.648 E0.55
G1 X108.365 Y87.609 E0.56623
G1 X108.507 Y87.594 E0.57335
G1 X109.164 Y87.544 E0.60623
G1 X109.428 Y87.532 E0.61941
G1 X110.102 Y87.522 E0.65304
G1 X110.417 Y87.527 E0.66876
G1 X111.361 Y87.583 E0.71594
G1 X111.801 Y87.628 E0.738
G1 X112.144 Y87.669 E0.75524
G1 X112.323 Y87.693 E0.76425
G1 X113.25 Y87.858 E0.81122
G1 X113.677 Y87.953 E0.83305
G1 X114.07 Y88.047 E0.85321
G1 X114.246 Y88.093 E0.86228
G1 X115.125 Y88.363 E0.90816
G1 X115.533 Y88.507 E0.92975
G1 X115.865 Y88.63 E0.94741
G1 X116.019 Y88.69 E0.95565
G1 X116.868 Y89.063 E1.00192
G1 X117.278 Y89.264 E1.0247
G1 X117.647 Y89.453 E1.04538
G1 X117.779 Y89.524 E1.05286
G1 X118.527 Y89.966 E1.09621
G1 X118.904 Y90.209 E1.11858
G1 X119.268 Y90.454 E1.14047
G1 X119.389 Y90.539 E1.14785
G1 X120.099 Y91.082 E1.19245
G1 X120.479 Y91.398 E1.2171
G1 X120.774 Y91.652 E1.23652
G1 X120.877 Y91.744 E1.24341
G1 X121.543 Y92.392 E1.28977
G1 X121.819 Y92.684 E1.30982
G1 X122.082 Y92.972 E1.32928
G1 X122.207 Y93.114 E1.33872
G1 X122.764 Y93.801 E1.38284
G1 X123.047 Y94.18 E1.40644
G1 X123.301 Y94.533 E1.42813
G1 X123.861 Y95.413 E1.48017
G1 X124.072 Y95.782 E1.50138
G1 X124.289 Y96.177 E1.52387
G1 X124.737 Y97.11 E1.5755
G1 X124.924 Y97.552 E1.59944
G1 X125.063 Y97.894 E1.61786
G1 X125.406 Y98.893 E1.67056
G1 X125.532 Y99.326 E1.69306
G1 X125.649 Y99.76 E1.71548
G1 X125.85 Y100.7 E1.76344
G1 X125.933 Y101.193 E1.78838
G1 X125.985 Y101.533 E1.80554
G1 X126.003 Y101.665 E1.81219
G1 X126.092 Y102.648 E1.86143
G1 X126.112 Y103.085 E1.88326
G1 X126.122 Y103.387 E1.89833
G1 X126.125 Y103.551 E1.90651
G1 X126.099 Y104.53 E1.95537
G1 X126.068 Y104.967 E1.97723
G1 X126.041 Y105.284 E1.9931
G1 X126.024 Y105.454 E2.00163
G1 X125.877 Y106.457 E2.0522
G1 X125.788 Y106.915 E2.07548
G1 X125.72 Y107.24 E2.09204
G1 X125.685 Y107.395 E2.09997
G1 X125.43 Y108.328 E2.14823
G1 X125.306 Y108.715 E2.1685
G1 X125.223 Y108.966 E2.18169
G1 X125.164 Y109.136 E2.19067
G1 X124.773 Y110.109 E2.24298
G1 X124.577 Y110.537 E2.26647
G1 X124.401 Y110.906 E2.28686
G1 X123.918 Y111.79 E2.33712
G1 X123.677 Y112.187 E2.36029
G1 X123.427 Y112.581 E2.38357
G1 X123.351 Y112.695 E2.39041
G1 X122.869 Y113.361 E2.43142
G1 X122.581 Y113.73 E2.45478
G1 X122.345 Y114.022 E2.47351
G1 X122.232 Y114.157 E2.48229
G1 X121.606 Y114.844 E2.52866
G1 X121.356 Y115.096 E2.54637
G1 X121.139 Y115.309 E2.56154
G1 X121.009 Y115.433 E2.5705
G1 X120.242 Y116.1 E2.62121
G1 X119.768 Y116.475 E2.65137
G1 X119.369 Y116.776 E2.6763
G1 X118.66 Y117.251 E2.71888
G1 X118.307 Y117.468 E2.73955
G1 X118.017 Y117.64 E2.75637
G1 X117.86 Y117.73 E2.7654
G1 X116.986 Y118.181 E2.81447
G1 X116.549 Y118.382 E2.83847
G1 X116.137 Y118.562 E2.8609
G1 X115.219 Y118.906 E2.90981
G1 X114.8 Y119.042 E2.93178
G1 X114.4 Y119.163 E2.95263
G1 X114.241 Y119.208 E2.96088
G1 X113.388 Y119.413 E3.00465
G1 X112.965 Y119.497 E3.02616
G1 X112.609 Y119.562 E3.04422
G1 X112.445 Y119.589 E3.05251
G1 X111.518 Y119.701 E3.09909
G1 X111.046 Y119.738 E3.12271
G1 X110.66 Y119.762 E3.14201
G1 X110.521 Y119.768 E3.14895
G1 X109.582 Y119.768 E3.1958
G1 X109.133 Y119.749 E3.21822
G1 X108.749 Y119.726 E3.23741
G1 X108.594 Y119.714 E3.24516
G1 X107.675 Y119.604 E3.29134
G1 X107.196 Y119.526 E3.31555
G1 X106.78 Y119.451 E3.33664
G1 X105.803 Y119.218 E3.38675
G1 X105.371 Y119.094 E3.40917
G1 X105.051 Y118.997 E3.42586
G1 X104.898 Y118.948 E3.43387
G1 X103.982 Y118.609 E3.4826
G1 X103.588 Y118.443 E3.50393
G1 X103.307 Y118.32 E3.51923
G1 X103.153 Y118.25 E3.52767
G1 X102.252 Y117.789 E3.57817
G1 X101.835 Y117.551 E3.60212
G1 X101.575 Y117.398 E3.61717
G1 X101.445 Y117.319 E3.62476
G1 X100.628 Y116.771 E3.67384
G1 X100.304 Y116.532 E3.69393
G1 X100.032 Y116.325 E3.71098
G1 X99.91 Y116.229 E3.71873
G1 X99.183 Y115.603 E3.76659
G1 X98.774 Y115.219 E3.79458
G1 X98.453 Y114.906 E3.81695
G1 X97.809 Y114.204 E3.86447
G1 X97.562 Y113.91 E3.88363
G1 X97.364 Y113.668 E3.89923
G1 X97.253 Y113.528 E3.90814
G1 X96.68 Y112.735 E3.95695
G1 X96.406 Y112.318 E3.98185
G1 X96.174 Y111.949 E4.00359
G1 X96.106 Y111.836 E4.01017
G1 X95.687 Y111.073 E4.0536
G1 X95.489 Y110.676 E4.07574
G1 X95.307 Y110.293 E4.09689
G1 X95.242 Y110.149 E4.10477
G1 X94.911 Y109.329 E4.14889
G1 X94.75 Y108.879 E4.17273
G1 X94.648 Y108.582 E4.1884
G1 X94.604 Y108.447 E4.19549
G1 X94.337 Y107.478 E4.24563
G1 X94.236 Y107.034 E4.26835
G1 X94.154 Y106.644 E4.28823
G1 X93.998 Y105.628 E4.33951
G1 X93.946 Y105.137 E4.36415
G1 X93.913 Y104.763 E4.38288
G1 X93.904 Y104.637 E4.38918
G1 X93.877 Y103.719 E4.435
G1 X93.883 Y103.227 E4.45955
G1 X93.894 Y102.848 E4.47846
G1 X93.899 Y102.741 E4.48381
G1 X93.982 Y101.811 E4.53039
G1 X94.043 Y101.35 E4.55359
G1 X94.105 Y100.935 E4.57452
G1 X94.317 Y99.91 E4.62674
G1 X94.447 Y99.404 E4.65281
G1 X94.568 Y98.97 E4.67529
G1 X94.596 Y98.877 E4.68013
G1 X94.858 Y98.11 E4.72057
G1 X95.011 Y97.711 E4.74189
G1 X95.168 Y97.324 E4.76272
G1 X95.236 Y97.165 E4.77135
G1 X95.624 Y96.352 E4.81629
G1 X95.848 Y95.928 E4.84022
G1 X96.008 Y95.635 E4.85687
G1 X96.075 Y95.517 E4.86364
G1 X96.604 Y94.677 E4.91317
G1 X96.867 Y94.298 E4.93618
G1 X97.136 Y93.926 E4.95909
G1 X97.735 Y93.185 E5.00662
G1 X98.069 Y92.807 E5.03179
G1 X98.37 Y92.479 E5.054
G0 F6000 X98.662 Y92.753
G1 F1200 X99.352 Y92.08 E5.10209
G1 X99.671 Y91.796 E5.12339
G1 X99.901 Y91.597 E5.13857
G1 X100.026 Y91.492 E5.14671
G1 X100.781 Y90.913 E5.19418
G1 X101.194 Y90.625 E5.2193
G1 X101.515 Y90.41 E5.23858
G1 X101.605 Y90.352 E5.24392
G1 X102.345 Y89.917 E5.28674
G1 X102.756 Y89.697 E5.31
G1 X103.075 Y89.532 E5.32792
G1 X103.207 Y89.467 E5.33526
G1 X104.025 Y89.107 E5.37985
G1 X104.454 Y88.939 E5.40283
G1 X104.82 Y88.803 E5.42231
G1 X104.963 Y88.753 E5.42987
G1 X105.785 Y88.503 E5.47273
G1 X106.218 Y88.39 E5.49506
G1 X106.573 Y88.303 E5.51329
G1 X106.72 Y88.27 E5.52081
G1 X107.617 Y88.109 E5.56628
G1 X108.096 Y88.044 E5.59039
G1 X108.549 Y87.992 E5.61314
G1 X109.182 Y87.944 E5.64481
G1 X109.446 Y87.932 E5.658
G1 X110.095 Y87.922 E5.69038
G1 X110.41 Y87.927 E5.7061
G1 X111.32 Y87.981 E5.75158
G1 X111.76 Y88.026 E5.77364
G1 X112.091 Y88.065 E5.79027
G1 X112.27 Y88.089 E5.79928
G1 X113.163 Y88.248 E5.84454
G1 X113.59 Y88.343 E5.86636
G1 X113.968 Y88.434 E5.88576
G1 X114.144 Y88.48 E5.89483
G1 X114.992 Y88.74 E5.93908
G1 X115.4 Y88.884 E5.96067
G1 X115.72 Y89.003 E5.9777
G1 X115.874 Y89.063 E5.98595
G1 X116.692 Y89.422 E6.03052
G1 X117.102 Y89.623 E6.0533
G1 X117.457 Y89.806 E6.07322
G1 X117.589 Y89.877 E6.0807
G1 X118.311 Y90.302 E6.1225
G1 X118.688 Y90.545 E6.14487
G1 X119.038 Y90.781 E6.16593
G1 X119.159 Y90.866 E6.17331
G1 X119.844 Y91.39 E6.21634
G1 X120.224 Y91.706 E6.241
G1 X120.507 Y91.95 E6.25964
G1 X120.61 Y92.042 E6.26653
G1 X121.252 Y92.667 E6.31123
G1 X121.528 Y92.959 E6.33128
G1 X121.781 Y93.236 E6.34999
G1 X121.906 Y93.378 E6.35943
G1 X122.443 Y94.04 E6.40196
G1 X122.726 Y94.419 E6.42555
G1 X122.895 Y94.651 E6.43987
G1 X122.974 Y94.763 E6.44671
G1 X123.514 Y95.611 E6.49687
G1 X123.725 Y95.98 E6.51808
G1 X123.937 Y96.367 E6.54009
G1 X124.368 Y97.266 E6.58983
G1 X124.555 Y97.708 E6.61377
G1 X124.691 Y98.043 E6.63181
G1 X125.022 Y99.004 E6.68252
G1 X125.148 Y99.437 E6.70502
G1 X125.262 Y99.86 E6.72688
G1 X125.456 Y100.766 E6.7731
G1 X125.539 Y101.259 E6.79804
G1 X125.589 Y101.587 E6.8146
G1 X125.607 Y101.719 E6.82124
G1 X125.693 Y102.666 E6.86868
G1 X125.713 Y103.103 E6.89051
G1 X125.725 Y103.558 E6.91322
G1 X125.7 Y104.502 E6.96033
G1 X125.669 Y104.939 E6.98219
G1 X125.643 Y105.244 E6.99746
G1 X125.626 Y105.414 E7.00598
G1 X125.484 Y106.381 E7.05474
G1 X125.395 Y106.839 E7.07802
G1 X125.33 Y107.152 E7.09397
G1 X125.295 Y107.307 E7.1019
G1 X125.049 Y108.206 E7.1484
G1 X124.925 Y108.593 E7.16867
G1 X124.845 Y108.834 E7.18134
G1 X124.786 Y109.004 E7.19032
G1 X124.41 Y109.942 E7.24073
G1 X124.214 Y110.37 E7.26422
G1 X124.041 Y110.731 E7.28419
G1 X123.576 Y111.583 E7.33262
G1 X123.335 Y111.98 E7.35579
G1 X123.094 Y112.359 E7.37819
G1 X123.018 Y112.473 E7.38503
G1 X122.554 Y113.115 E7.42455
G1 X122.266 Y113.484 E7.4479
G1 X122.038 Y113.766 E7.46599
G1 X121.925 Y113.901 E7.47478
G1 X121.322 Y114.562 E7.51941
G1 X121.072 Y114.814 E7.53712
G1 X120.863 Y115.019 E7.55173
G1 X120.733 Y115.143 E7.56069
G1 X119.994 Y115.786 E7.60956
G1 X119.52 Y116.161 E7.63972
G1 X119.134 Y116.453 E7.66386
G1 X118.45 Y116.91 E7.7049
G1 X118.097 Y117.127 E7.72558
G1 X117.818 Y117.293 E7.74177
G1 X117.661 Y117.383 E7.7508
G1 X116.818 Y117.817 E7.79811
G1 X116.381 Y118.018 E7.8221
G1 X116.109 Y118.139 E7.83696
G1 X115.98 Y118.194 E7.84395
G1 X115.096 Y118.525 E7.89105
G1 X114.677 Y118.661 E7.91302
G1 X114.291 Y118.778 E7.93315
G1 X114.132 Y118.823 E7.94139
G1 X113.31 Y119.021 E7.98357
G1 X112.887 Y119.105 E8.00509
G1 X112.544 Y119.167 E8.02248
G1 X112.38 Y119.194 E8.03077
G1 X111.486 Y119.303 E8.0757
G1 X111.014 Y119.34 E8.09932
G1 X110.643 Y119.362 E8.11787
G1 X110.504 Y119.368 E8.12481
G1 X109.599 Y119.369 E8.16996
G1 X109.15 Y119.35 E8.19238
G1 X108.78 Y119.327 E8.21087
G1 X108.625 Y119.315 E8.21863
G1 X107.739 Y119.209 E8.26315
G1 X107.26 Y119.131 E8.28736
G1 X106.855 Y119.058 E8.30789
G1 X105.913 Y118.834 E8.3562
G1 X105.481 Y118.71 E8.37862
G1 X105.173 Y118.616 E8.39469
G1 X105.02 Y118.567 E8.4027
G1 X104.137 Y118.24 E8.44968
G1 X103.743 Y118.074 E8.47101
G1 X103.473 Y117.956 E8.48571
G1 X103.319 Y117.886 E8.49415
G1 X102.451 Y117.442 E8.54279
G1 X102.034 Y117.204 E8.56674
G1 X101.783 Y117.057 E8.58126
G1 X101.653 Y116.978 E8.58884
G1 X100.866 Y116.449 E8.63615
G1 X100.542 Y116.21 E8.65624
G1 X100.279 Y116.01 E8.67272
G1 X100.157 Y115.914 E8.68047
G1 X99.457 Y115.312 E8.72653
G1 X99.048 Y114.928 E8.75452
G1 X98.736 Y114.623 E8.77629
G1 X98.115 Y113.946 E8.82212
G1 X97.868 Y113.652 E8.84128
G1 X97.678 Y113.42 E8.85624
G1 X97.567 Y113.28 E8.86515
G1 X97.014 Y112.515 E8.91225
G1 X96.74 Y112.098 E8.93714
G1 X96.517 Y111.742 E8.9581
G1 X96.449 Y111.629 E8.96468
G1 X96.045 Y110.895 E9.00648
G1 X95.847 Y110.498 E9.02861
G1 X95.672 Y110.128 E9.04903
G1 X95.607 Y109.984 E9.05691
G1 X95.288 Y109.194 E9.09942
G1 X95.127 Y108.744 E9.12326
G1 X95.029 Y108.458 E9.13834
G1 X94.985 Y108.323 E9.14543
G1 X94.727 Y107.389 E9.19377
G1 X94.626 Y106.945 E9.21649
G1 X94.546 Y106.565 E9.23586
G1 X94.396 Y105.586 E9.28527
G1 X94.344 Y105.095 E9.30991
G1 X94.312 Y104.734 E9.32799
G1 X94.303 Y104.608 E9.33429
G1 X94.277 Y103.724 E9.37841
G1 X94.283 Y103.232 E9.40296
G1 X94.299 Y102.759 E9.42657
G1 X94.379 Y101.864 E9.4714
G1 X94.44 Y101.403 E9.4946
G1 X94.5 Y100.997 E9.51508
G1 X94.704 Y100.009 E9.56541
G1 X94.834 Y99.503 E9.59147
G1 X94.951 Y99.085 E9.61313
G1 X94.979 Y98.992 E9.61797
G1 X95.232 Y98.253 E9.65694
G1 X95.385 Y97.854 E9.67826
G1 X95.536 Y97.481 E9.69834
G1 X95.604 Y97.322 E9.70697
G1 X95.978 Y96.539 E9.75026
G1 X96.202 Y96.115 E9.77418
G1 X96.356 Y95.832 E9.79026
G1 X96.423 Y95.714 E9.79703
G1 X96.932 Y94.905 E9.84471
G1 X97.195 Y94.526 E9.86773
G1 X97.457 Y94.164 E9.89002
G1 X98.035 Y93.45 E9.93585
G1 X98.369 Y93.072 E9.96102
G1 X98.662 Y92.753 E9.98263
G0 F6000 X98.954 Y93.026
G1 F1200 X99.618 Y92.379 E10.02888
G1 X99.937 Y92.095 E10.05019
G1 X100.158 Y91.903 E10.06479
G1 X100.283 Y91.798 E10.07294
G1 X101.01 Y91.241 E10.11863
G1 X101.423 Y90.953 E10.14375
G1 X101.732 Y90.746 E10.1623
G1 X101.822 Y90.688 E10.16765
G1 X102.533 Y90.269 E10.20882
G1 X102.944 Y90.049 E10.23208
G1 X103.252 Y89.891 E10.24935
G1 X103.384 Y89.826 E10.25669
G1 X104.171 Y89.479 E10.2996
G1 X104.6 Y89.311 E10.32258
G1 X104.952 Y89.181 E10.3413
G1 X105.095 Y89.131 E10.34886
G1 X105.886 Y88.89 E10.39012
G1 X106.319 Y88.777 E10.41244
G1 X106.661 Y88.694 E10.43
G1 X106.808 Y88.661 E10.43752
G1 X107.67 Y88.506 E10.48121
G1 X108.149 Y88.441 E10.50533
G1 X108.449 Y88.404 E10.52041
G1 X108.591 Y88.389 E10.52753
G1 X109.2 Y88.344 E10.558
G1 X109.464 Y88.332 E10.57118
G1 X110.089 Y88.322 E10.60237
G1 X110.404 Y88.327 E10.61809
G1 X111.28 Y88.379 E10.66187
G1 X111.72 Y88.424 E10.68393
G1 X112.037 Y88.461 E10.69986
G1 X112.216 Y88.485 E10.70887
G1 X113.076 Y88.638 E10.75245
G1 X113.503 Y88.733 E10.77427
G1 X113.867 Y88.821 E10.79295
G1 X114.043 Y88.867 E10.80203
G1 X114.859 Y89.117 E10.84461
G1 X115.267 Y89.261 E10.86619
G1 X115.575 Y89.376 E10.88259
G1 X115.729 Y89.436 E10.89084
G1 X116.516 Y89.781 E10.93371
G1 X116.926 Y89.982 E10.95649
G1 X117.268 Y90.158 E10.97568
G1 X117.4 Y90.229 E10.98316
G1 X118.094 Y90.639 E11.02337
G1 X118.471 Y90.882 E11.04575
G1 X118.808 Y91.109 E11.06602
G1 X118.929 Y91.194 E11.0734
G1 X119.588 Y91.697 E11.11476
G1 X119.968 Y92.013 E11.13942
G1 X120.241 Y92.249 E11.15742
G1 X120.344 Y92.341 E11.16431
G1 X120.962 Y92.941 E11.20728
G1 X121.238 Y93.233 E11.22733
G1 X121.481 Y93.5 E11.24534
G1 X121.606 Y93.642 E11.25478
G1 X122.123 Y94.279 E11.29571
G1 X122.406 Y94.658 E11.31931
G1 X122.647 Y94.994 E11.33994
G1 X123.167 Y95.81 E11.38821
G1 X123.378 Y96.179 E11.40942
G1 X123.585 Y96.557 E11.43092
G1 X124 Y97.422 E11.47878
G1 X124.269 Y98.063 E11.51346
G1 X124.32 Y98.191 E11.52034
G1 X124.638 Y99.116 E11.56914
G1 X124.764 Y99.549 E11.59164
G1 X124.875 Y99.961 E11.61292
G1 X125.061 Y100.833 E11.65741
G1 X125.144 Y101.326 E11.68235
G1 X125.192 Y101.641 E11.69825
G1 X125.21 Y101.773 E11.70489
G1 X125.293 Y102.685 E11.75058
G1 X125.313 Y103.122 E11.7724
G1 X125.322 Y103.401 E11.78633
G1 X125.325 Y103.565 E11.79451
G1 X125.301 Y104.474 E11.83988
G1 X125.27 Y104.911 E11.86174
G1 X125.245 Y105.204 E11.87641
G1 X125.228 Y105.374 E11.88493
G1 X125.092 Y106.305 E11.93187
G1 X125.003 Y106.763 E11.95515
G1 X124.904 Y107.219 E11.97843
G1 X124.669 Y108.084 E12.02315
G1 X124.545 Y108.471 E12.04342
G1 X124.408 Y108.873 E12.06461
G1 X124.046 Y109.776 E12.11315
G1 X123.85 Y110.204 E12.13663
G1 X123.682 Y110.555 E12.15605
G1 X123.234 Y111.375 E12.20266
G1 X122.993 Y111.772 E12.22583
G1 X122.761 Y112.137 E12.24741
G1 X122.685 Y112.251 E12.25425
G1 X122.239 Y112.869 E12.29227
G1 X121.951 Y113.238 E12.31562
G1 X121.732 Y113.509 E12.33301
G1 X121.619 Y113.644 E12.34179
G1 X121.038 Y114.281 E12.3848
G1 X120.788 Y114.533 E12.40251
G1 X120.587 Y114.73 E12.41655
G1 X120.457 Y114.854 E12.42552
G1 X119.746 Y115.472 E12.47252
G1 X119.272 Y115.847 E12.50267
G1 X118.898 Y116.129 E12.52604
G1 X118.241 Y116.569 E12.56549
G1 X117.888 Y116.786 E12.58616
G1 X117.619 Y116.946 E12.60178
G1 X117.462 Y117.036 E12.6108
G1 X116.651 Y117.454 E12.65632
G1 X116.214 Y117.655 E12.68032
G1 X115.823 Y117.826 E12.70161
G1 X114.972 Y118.145 E12.74695
G1 X114.553 Y118.281 E12.76893
G1 X114.182 Y118.394 E12.78828
G1 X114.023 Y118.439 E12.79652
G1 X113.232 Y118.629 E12.83711
G1 X112.809 Y118.713 E12.85862
G1 X112.479 Y118.773 E12.87536
G1 X112.315 Y118.8 E12.88365
G1 X111.455 Y118.904 E12.92687
G1 X110.983 Y118.941 E12.95049
G1 X110.626 Y118.963 E12.96833
G1 X110.487 Y118.969 E12.97527
G1 X109.616 Y118.969 E13.01873
