;FLAVOR:Marlin
;TIME:958
;Filament used: 0.514797m
;Layer height: 0.2
;MINX:91.827
;MINY:82.454
;MINZ:0.3
;MAXX:128.122
;MAXY:136.995
;MAXZ:11.3
;Generated with Creality Slicer 4.8.2-191
M140 S60
M105
M190 S60
M104 S220
M105
M109 S220
M82 ;absolute extrusion mode

G28 ;Home

G92 E0 ;Reset Extruder
G1 Z2.0 F3000 ;Move Z Axis up
G1 X10.1 Y20 Z0.28 F5000.0 ;Move to start position
G1 X10.1 Y200.0 Z0.28 F1500.0 E15 ;Draw the first line
G1 X10.4 Y200.0 Z0.28 F5000.0 ;Move to side a little
G1 X10.4 Y20 Z0.28 F1500.0 E30 ;Draw the second line
G92 E0 ;Reset Extruder
G1 Z2.0 F3000 ;Move Z Axis up

G92 E0
G92 E0
G1 F3600 E-5
;LAYER_COUNT:56
;LAYER:0
M107
G0 F6000 X96.557 Y88.393 Z0.3
;TYPE:SKIRT
G1 F3600 E0
G1 F1200 X96.859 Y88.072 E0.02199
G1 X97.214 Y87.709 E0.04732
G1 X97.681 Y87.258 E0.07971
G1 X97.834 Y87.119 E0.09002
G1 X98.193 Y86.807 E0.11375
G1 X98.587 Y86.479 E0.13933
G1 X99.113 Y86.067 E0.17266
G1 X99.29 Y85.937 E0.18362
G1 X99.637 Y85.693 E0.20478
G1 X100.036 Y85.423 E0.22882
G1 X100.57 Y85.084 E0.26037
G1 X100.768 Y84.966 E0.27187
G1 X101.228 Y84.706 E0.29823
G1 X101.688 Y84.461 E0.32424
G1 X102.263 Y84.176 E0.35625
G1 X102.45 Y84.09 E0.36652
G1 X102.842 Y83.919 E0.38786
G1 X103.299 Y83.73 E0.41253
G1 X103.869 Y83.513 E0.44296
G1 X104.089 Y83.436 E0.45459
G1 X104.589 Y83.274 E0.48081
G1 X105.05 Y83.137 E0.5048
G1 X105.651 Y82.977 E0.53583
G1 X105.913 Y82.915 E0.54927
G1 X106.404 Y82.81 E0.57431
G1 X106.875 Y82.721 E0.59823
G1 X107.513 Y82.62 E0.63046
G1 X107.715 Y82.594 E0.64062
G1 X108.152 Y82.547 E0.66254
G1 X108.628 Y82.505 E0.68638
G1 X109.214 Y82.469 E0.71567
G1 X109.474 Y82.46 E0.72865
G1 X110.015 Y82.454 E0.75565
G1 X110.496 Y82.461 E0.77965
G1 X111.104 Y82.487 E0.81001
G1 X111.347 Y82.504 E0.82216
G1 X111.857 Y82.551 E0.84771
G1 X112.353 Y82.609 E0.87263
G1 X112.971 Y82.7 E0.90379
G1 X113.171 Y82.735 E0.91392
G1 X113.647 Y82.829 E0.93813
G1 X114.136 Y82.937 E0.96311
G1 X114.767 Y83.096 E0.99558
G1 X114.989 Y83.159 E1.00709
G1 X115.458 Y83.303 E1.03157
G1 X115.936 Y83.462 E1.0567
G1 X116.489 Y83.663 E1.08605
G1 X116.695 Y83.744 E1.0971
G1 X117.154 Y83.936 E1.12192
G1 X117.62 Y84.144 E1.14738
G1 X118.222 Y84.436 E1.18076
G1 X118.408 Y84.533 E1.19122
G1 X118.813 Y84.754 E1.21424
G1 X119.247 Y85.004 E1.23923
G1 X119.743 Y85.308 E1.26825
G1 X119.948 Y85.441 E1.28044
G1 X120.398 Y85.749 E1.30765
G1 X120.786 Y86.029 E1.33152
G1 X121.274 Y86.403 E1.3622
G1 X121.448 Y86.544 E1.37337
G1 X121.818 Y86.857 E1.39755
G1 X122.204 Y87.199 E1.42328
G1 X122.661 Y87.627 E1.45451
G1 X122.808 Y87.773 E1.46485
G1 X123.132 Y88.109 E1.48814
G1 X123.464 Y88.468 E1.51253
G1 X123.902 Y88.971 E1.54581
G1 X124.046 Y89.147 E1.55715
G1 X124.342 Y89.527 E1.58119
G1 X124.65 Y89.939 E1.60685
G1 X124.977 Y90.399 E1.63501
G1 X125.095 Y90.575 E1.64558
G1 X125.392 Y91.045 E1.67332
G1 X125.636 Y91.452 E1.69699
G1 X125.9 Y91.917 E1.72367
G1 X126.014 Y92.13 E1.73572
G1 X126.259 Y92.617 E1.76292
G1 X126.479 Y93.082 E1.78858
G1 X126.72 Y93.629 E1.8184
G1 X126.8 Y93.825 E1.82897
G1 X126.989 Y94.321 E1.85545
G1 X127.151 Y94.78 E1.87973
G1 X127.348 Y95.397 E1.91204
G1 X127.42 Y95.647 E1.92502
G1 X127.541 Y96.102 E1.94851
G1 X127.649 Y96.548 E1.97141
G1 X127.765 Y97.087 E1.99891
G1 X127.809 Y97.319 E2.01069
G1 X127.898 Y97.862 E2.03815
G1 X127.967 Y98.361 E2.06328
G1 X128.035 Y98.976 E2.09415
G1 X128.052 Y99.185 E2.10461
G1 X128.081 Y99.686 E2.12965
G1 X128.099 Y100.192 E2.15491
G1 X128.094 Y101.104 E2.20041
G1 X128.027 Y102.516 E2.27093
G1 X128.026 Y102.626 E2.27642
G1 X127.998 Y103.114 E2.30081
G1 X127.926 Y105.599 E2.42483
G1 X127.924 Y108.117 E2.55046
G1 X127.994 Y110.653 E2.67703
G1 X128.087 Y112.287 E2.75868
G1 X128.097 Y112.494 E2.76902
G1 X128.122 Y113.15 E2.80177
G1 X128.118 Y114.087 E2.84852
G1 X128.064 Y115.215 E2.90486
G1 X128.012 Y116.065 E2.94735
G1 X127.932 Y118.54 E3.07089
G1 X127.923 Y121.033 E3.19527
G1 X128.022 Y124.248 E3.35574
G1 X128.021 Y124.347 E3.36068
G1 X128.067 Y125.558 E3.42114
G1 X128.063 Y126.496 E3.46794
G1 X127.979 Y127.43 E3.51472
G1 X127.815 Y128.353 E3.56149
G1 X127.574 Y129.26 E3.60831
G1 X127.256 Y130.142 E3.65509
G1 X126.864 Y130.994 E3.70188
G1 X126.401 Y131.81 E3.74868
G1 X125.87 Y132.583 E3.79547
G1 X125.276 Y133.308 E3.84223
G1 X124.622 Y133.98 E3.88901
G1 X123.912 Y134.594 E3.93584
G1 X123.153 Y135.145 E3.98264
G1 X122.35 Y135.629 E4.02941
G1 X121.509 Y136.044 E4.0762
G1 X120.635 Y136.385 E4.12301
G1 X119.736 Y136.65 E4.16977
G1 X118.817 Y136.838 E4.21657
G1 X117.885 Y136.947 E4.26338
G1 X117.285 Y136.975 E4.29335
G1 X116.343 Y136.993 E4.34035
G1 X116.133 Y136.995 E4.35083
G1 X115.093 Y136.994 E4.40271
G1 X114.4 Y136.984 E4.43729
G1 X114.099 Y136.975 E4.45232
G1 X113.872 Y136.965 E4.46365
G1 X111.204 Y136.89 E4.59681
G1 X108.723 Y136.89 E4.72059
G1 X106.764 Y136.953 E4.81837
G1 X104.606 Y136.993 E4.92606
G1 X104.402 Y136.995 E4.93623
G1 X103.368 Y136.994 E4.98782
G1 X102.68 Y136.985 E5.02215
G1 X101.744 Y136.933 E5.06892
G1 X100.815 Y136.801 E5.11573
G1 X99.901 Y136.591 E5.16252
G1 X99.008 Y136.303 E5.20933
G1 X98.143 Y135.941 E5.25611
G1 X97.313 Y135.506 E5.30286
G1 X96.522 Y135.002 E5.34966
G1 X95.777 Y134.432 E5.39646
G1 X95.083 Y133.801 E5.44325
G1 X94.445 Y133.113 E5.49006
G1 X93.869 Y132.373 E5.53685
G1 X93.357 Y131.587 E5.58365
G1 X92.914 Y130.761 E5.63041
G1 X92.544 Y129.899 E5.67721
G1 X92.248 Y129.009 E5.724
G1 X92.029 Y128.097 E5.7708
G1 X91.888 Y127.17 E5.81758
G1 X91.827 Y126.234 E5.86437
G1 X91.83 Y125.633 E5.89436
G1 X91.857 Y124.791 E5.93639
G1 X91.866 Y124.574 E5.94722
G1 X91.968 Y122.599 E6.04589
G1 X92.027 Y120.08 E6.17159
G1 X92.015 Y117.585 E6.29607
G1 X91.882 Y114.126 E6.46877
G1 X91.88 Y113.353 E6.50733
G1 X91.918 Y112.162 E6.56678
G1 X91.927 Y111.946 E6.57757
G1 X91.999 Y110.545 E6.64756
G1 X92.058 Y108.02 E6.77356
G1 X92.046 Y105.528 E6.89789
G1 X91.908 Y101.948 E7.07663
G1 X91.871 Y101.308 E7.10861
G1 X91.859 Y100.325 E7.15766
G1 X91.88 Y99.671 E7.19031
G1 X91.897 Y99.318 E7.20794
G1 X91.908 Y99.147 E7.21649
G1 X91.968 Y98.507 E7.24856
G1 X91.995 Y98.288 E7.25956
G1 X92.062 Y97.826 E7.28285
G1 X92.145 Y97.328 E7.30804
G1 X92.265 Y96.713 E7.3393
G1 X92.307 Y96.527 E7.34882
G1 X92.436 Y96.013 E7.37526
G1 X92.577 Y95.504 E7.40161
G1 X92.747 Y94.949 E7.43057
G1 X92.826 Y94.713 E7.44298
G1 X93.002 Y94.226 E7.46882
G1 X93.177 Y93.775 E7.49295
G1 X93.409 Y93.221 E7.52292
G1 X93.499 Y93.022 E7.53381
G1 X93.715 Y92.573 E7.55867
G1 X93.939 Y92.132 E7.58335
G1 X94.269 Y91.529 E7.61764
G1 X94.391 Y91.322 E7.62963
G1 X94.62 Y90.951 E7.65138
G1 X94.886 Y90.538 E7.67589
G1 X95.272 Y89.978 E7.70982
G1 X95.397 Y89.808 E7.72035
G1 X95.653 Y89.474 E7.74134
G1 X95.969 Y89.077 E7.76666
G1 X96.409 Y88.557 E7.80064
G1 X96.557 Y88.393 E7.81166
G0 F6000 X96.854 Y88.661
G1 F1200 X97.145 Y88.352 E7.83284
G1 X97.5 Y87.989 E7.85817
G1 X97.95 Y87.554 E7.8894
G1 X98.103 Y87.415 E7.89971
G1 X98.449 Y87.114 E7.92259
G1 X98.843 Y86.786 E7.94817
G1 X99.35 Y86.39 E7.98026
G1 X99.527 Y86.26 E7.99122
G1 X99.861 Y86.024 E8.01162
G1 X100.26 Y85.754 E8.03566
G1 X100.774 Y85.427 E8.06605
G1 X100.972 Y85.309 E8.07755
G1 X101.416 Y85.059 E8.10297
G1 X101.876 Y84.814 E8.12897
G1 X102.43 Y84.54 E8.15981
G1 X102.617 Y84.454 E8.17008
G1 X102.995 Y84.289 E8.19065
G1 X103.452 Y84.1 E8.21532
G1 X104.001 Y83.89 E8.24465
G1 X104.221 Y83.813 E8.25628
G1 X104.703 Y83.657 E8.28155
G1 X105.164 Y83.52 E8.30555
G1 X105.743 Y83.366 E8.33544
G1 X106.005 Y83.304 E8.34887
G1 X106.478 Y83.203 E8.373
G1 X106.949 Y83.114 E8.39691
G1 X107.564 Y83.017 E8.42798
G1 X107.766 Y82.991 E8.43814
G1 X108.187 Y82.945 E8.45927
G1 X108.663 Y82.903 E8.48311
G1 X109.228 Y82.868 E8.51135
G1 X109.488 Y82.859 E8.52433
G1 X110.009 Y82.854 E8.55032
G1 X110.49 Y82.861 E8.57432
G1 X111.076 Y82.886 E8.60358
G1 X111.319 Y82.903 E8.61574
G1 X111.81 Y82.949 E8.64034
G1 X112.306 Y83.007 E8.66525
G1 X112.902 Y83.094 E8.6953
G1 X113.102 Y83.129 E8.70543
G1 X113.561 Y83.219 E8.72877
G1 X114.05 Y83.327 E8.75375
G1 X114.658 Y83.481 E8.78504
G1 X114.88 Y83.544 E8.79656
G1 X115.332 Y83.683 E8.82015
G1 X115.81 Y83.842 E8.84528
G1 X116.343 Y84.035 E8.87356
G1 X116.549 Y84.116 E8.88461
G1 X116.99 Y84.301 E8.90847
G1 X117.456 Y84.509 E8.93393
G1 X118.037 Y84.79 E8.96612
G1 X118.223 Y84.887 E8.97659
G1 X118.613 Y85.101 E8.99878
G1 X119.047 Y85.351 E9.02377
G1 X119.525 Y85.644 E9.05174
G1 X119.73 Y85.777 E9.06393
G1 X120.164 Y86.073 E9.09014
G1 X120.552 Y86.353 E9.11401
G1 X121.023 Y86.714 E9.14362
G1 X121.197 Y86.855 E9.15479
G1 X121.552 Y87.156 E9.17801
G1 X121.938 Y87.498 E9.20374
G1 X122.379 Y87.911 E9.23389
G1 X122.526 Y88.057 E9.24422
G1 X122.838 Y88.381 E9.26666
G1 X123.17 Y88.74 E9.29106
G1 X123.592 Y89.225 E9.32313
G1 X123.736 Y89.401 E9.33448
G1 X124.022 Y89.766 E9.35761
G1 X124.33 Y90.178 E9.38328
G1 X124.644 Y90.622 E9.41041
G1 X124.762 Y90.798 E9.42098
G1 X125.049 Y91.251 E9.44773
G1 X125.293 Y91.658 E9.47141
G1 X125.548 Y92.106 E9.49713
G1 X125.662 Y92.319 E9.50918
G1 X125.898 Y92.788 E9.53537
G1 X126.118 Y93.253 E9.56104
G1 X126.35 Y93.78 E9.58976
G1 X126.43 Y93.976 E9.60032
G1 X126.612 Y94.454 E9.62584
G1 X126.774 Y94.913 E9.65013
G1 X126.964 Y95.507 E9.68124
G1 X127.036 Y95.757 E9.69422
G1 X127.152 Y96.196 E9.71687
G1 X127.26 Y96.642 E9.73977
G1 X127.372 Y97.162 E9.76631
G1 X127.416 Y97.394 E9.77809
G1 X127.502 Y97.917 E9.80453
G1 X127.571 Y98.416 E9.82966
G1 X127.636 Y99.009 E9.85942
G1 X127.653 Y99.218 E9.86988
G1 X127.681 Y99.7 E9.89397
G1 X127.699 Y100.206 E9.91923
G1 X127.694 Y101.085 E9.96309
G1 X127.633 Y102.379 E10.02772
G1 X127.627 Y102.603 E10.0389
G1 X127.6 Y103.08 E10.06273
G1 X127.526 Y105.622 E10.18961
G1 X127.524 Y108.117 E10.31408
G1 X127.594 Y110.653 E10.44065
G1 X127.688 Y112.31 E10.52345
G1 X127.722 Y113.165 E10.56614
G1 X127.718 Y114.068 E10.61119
G1 X127.664 Y115.191 E10.66729
G1 X127.615 Y115.994 E10.70742
G1 X127.532 Y118.561 E10.83556
G1 X127.523 Y121.043 E10.95939
G1 X127.622 Y124.26 E11.11996
G1 X127.621 Y124.359 E11.1249
G1 X127.667 Y125.573 E11.18551
G1 X127.662 Y126.494 E11.23146
G1 X127.578 Y127.411 E11.2774
G1 X127.414 Y128.316 E11.32328
G1 X127.172 Y129.205 E11.36925
G1 X126.853 Y130.069 E11.4152
G1 X126.462 Y130.902 E11.46111
G1 X125.999 Y131.698 E11.50705
G1 X125.469 Y132.45 E11.55295
G1 X124.875 Y133.154 E11.5989
G1 X124.223 Y133.804 E11.64484
G1 X123.517 Y134.395 E11.69077
G1 X122.762 Y134.922 E11.73671
G1 X121.965 Y135.382 E11.78262
G1 X121.13 Y135.771 E11.82857
G1 X120.265 Y136.086 E11.8745
G1 X119.376 Y136.324 E11.92042
G1 X118.469 Y136.485 E11.96637
G1 X117.278 Y136.575 E12.02596
G1 X116.336 Y136.593 E12.07297
G1 X116.133 Y136.595 E12.0831
G1 X115.099 Y136.594 E12.13468
G1 X114.406 Y136.584 E12.16926
G1 X114.115 Y136.576 E12.18378
G1 X113.825 Y136.564 E12.19826
G1 X111.215 Y136.49 E12.32853
G1 X108.71 Y136.49 E12.4535
G1 X106.756 Y136.553 E12.55104
G1 X104.598 Y136.593 E12.65872
G1 X104.402 Y136.595 E12.6685
G1 X103.373 Y136.594 E12.71984
G1 X102.685 Y136.585 E12.75417
G1 X101.766 Y136.533 E12.80009
G1 X100.855 Y136.402 E12.84601
G1 X99.959 Y136.191 E12.89193
G1 X99.084 Y135.904 E12.93787
G1 X98.237 Y135.542 E12.98383
G1 X97.425 Y135.108 E13.02976
G1 X96.654 Y134.605 E13.07569
G1 X95.93 Y134.038 E13.12157
G1 X95.257 Y133.409 E13.16752
G1 X94.641 Y132.724 E13.21349
G1 X94.088 Y131.989 E13.25937
G1 X93.6 Y131.208 E13.30532
G1 X93.181 Y130.388 E13.35126
G1 X92.836 Y129.535 E13.39717
G1 X92.565 Y128.655 E13.4431
G1 X92.373 Y127.754 E13.48906
G1 X92.259 Y126.841 E13.53497
G1 X92.229 Y125.646 E13.59461
G1 X92.256 Y124.804 E13.63664
G1 X92.265 Y124.595 E13.64707
G1 X92.369 Y122.594 E13.74704
G1 X92.427 Y120.088 E13.8721
G1 X92.415 Y117.568 E13.99782
G1 X92.282 Y114.111 E14.17042
G1 X92.279 Y113.366 E14.20759
G1 X92.317 Y112.175 E14.26704
G1 X92.326 Y111.967 E14.27742
G1 X92.4 Y110.54 E14.34871
G1 X92.458 Y108.028 E14.47407
G1 X92.446 Y105.511 E14.59964
G1 X92.307 Y101.922 E14.77883
G1 X92.27 Y101.286 E14.81062
G1 X92.258 Y100.338 E14.85792
G1 X92.279 Y99.684 E14.89056
G1 X92.296 Y99.344 E14.90755
G1 X92.307 Y99.173 E14.9161
G1 X92.365 Y98.556 E14.94701
G1 X92.392 Y98.337 E14.95802
G1 X92.456 Y97.891 E14.9805
G1 X92.539 Y97.393 E15.00569
G1 X92.655 Y96.801 E15.03579
G1 X92.697 Y96.615 E15.0453
G1 X92.822 Y96.12 E15.07077
G1 X92.963 Y95.611 E15.09712
G1 X93.126 Y95.076 E15.12502
G1 X93.205 Y94.84 E15.13744
G1 X93.375 Y94.37 E15.16237
G1 X93.55 Y93.919 E15.18651
G1 X93.774 Y93.386 E15.21535
G1 X93.864 Y93.187 E15.22625
G1 X94.071 Y92.755 E15.25015
G1 X94.295 Y92.314 E15.27483
G1 X94.614 Y91.732 E15.30794
G1 X94.736 Y91.525 E15.31993
G1 X94.956 Y91.167 E15.34089
G1 X95.222 Y90.754 E15.3654
G1 X95.594 Y90.215 E15.39807
G1 X95.719 Y90.045 E15.4086
G1 X95.966 Y89.723 E15.42885
G1 X96.282 Y89.326 E15.45416
G1 X96.706 Y88.825 E15.4869
G1 X96.854 Y88.661 E15.49793
G0 F6000 X97.151 Y88.929
G1 F1200 X97.431 Y88.631 E15.51833
G1 X97.786 Y88.268 E15.54366
G1 X98.219 Y87.85 E15.57368
G1 X98.372 Y87.711 E15.584
G1 X98.705 Y87.422 E15.60599
G1 X99.099 Y87.094 E15.63157
G1 X99.587 Y86.712 E15.66249
G1 X99.764 Y86.582 E15.67345
G1 X100.086 Y86.355 E15.6931
G1 X100.485 Y86.085 E15.71714
G1 X100.979 Y85.771 E15.74634
G1 X101.177 Y85.653 E15.75784
G1 X101.604 Y85.412 E15.7823
G1 X102.064 Y85.167 E15.8083
G1 X102.597 Y84.903 E15.83798
G1 X102.784 Y84.817 E15.84825
G1 X103.148 Y84.658 E15.86806
G1 X103.605 Y84.469 E15.89274
G1 X104.133 Y84.268 E15.92092
G1 X104.353 Y84.191 E15.93255
G1 X104.817 Y84.041 E15.95688
G1 X105.278 Y83.904 E15.98087
G1 X105.835 Y83.755 E16.00964
G1 X106.097 Y83.693 E16.02307
G1 X106.552 Y83.596 E16.04628
G1 X107.023 Y83.507 E16.07019
G1 X107.615 Y83.413 E16.1001
G1 X107.817 Y83.387 E16.11026
G1 X108.222 Y83.343 E16.13059
G1 X108.698 Y83.301 E16.15443
G1 X109.242 Y83.268 E16.18162
G1 X109.502 Y83.259 E16.19459
G1 X110.003 Y83.254 E16.21959
G1 X110.484 Y83.261 E16.24359
G1 X111.048 Y83.285 E16.27175
G1 X111.291 Y83.302 E16.28391
G1 X111.764 Y83.346 E16.30761
G1 X112.26 Y83.404 E16.33252
G1 X112.833 Y83.488 E16.36141
G1 X113.033 Y83.523 E16.37154
G1 X113.475 Y83.61 E16.39402
G1 X113.964 Y83.718 E16.419
G1 X114.549 Y83.865 E16.4491
G1 X114.771 Y83.928 E16.46061
G1 X115.205 Y84.062 E16.48327
G1 X115.683 Y84.221 E16.5084
G1 X116.197 Y84.407 E16.53567
G1 X116.403 Y84.488 E16.54672
G1 X116.827 Y84.667 E16.56968
G1 X117.293 Y84.875 E16.59514
G1 X117.853 Y85.145 E16.62615
G1 X118.039 Y85.242 E16.63662
G1 X118.413 Y85.448 E16.65792
G1 X118.847 Y85.698 E16.68291
G1 X119.308 Y85.979 E16.70984
G1 X119.513 Y86.112 E16.72204
G1 X119.93 Y86.398 E16.74726
G1 X120.318 Y86.678 E16.77113
G1 X120.771 Y87.024 E16.79957
G1 X120.945 Y87.165 E16.81075
G1 X121.287 Y87.456 E16.83315
G1 X121.673 Y87.798 E16.85888
G1 X122.097 Y88.195 E16.88786
G1 X122.244 Y88.341 E16.89819
G1 X122.545 Y88.653 E16.91982
G1 X122.877 Y89.012 E16.94422
G1 X123.282 Y89.478 E16.97502
G1 X123.426 Y89.654 E16.98636
G1 X123.702 Y90.006 E17.00868
G1 X124.01 Y90.418 E17.03434
G1 X124.312 Y90.845 E17.06044
G1 X124.43 Y91.021 E17.07101
G1 X124.706 Y91.456 E17.09671
G1 X124.95 Y91.863 E17.12038
G1 X125.195 Y92.295 E17.14516
G1 X125.309 Y92.508 E17.15722
G1 X125.536 Y92.959 E17.18241
G1 X125.756 Y93.424 E17.20807
G1 X125.98 Y93.931 E17.23572
G1 X126.06 Y94.127 E17.24628
G1 X126.235 Y94.587 E17.27084
G1 X126.397 Y95.046 E17.29512
G1 X126.58 Y95.618 E17.32508
G1 X126.652 Y95.868 E17.33806
G1 X126.763 Y96.29 E17.35983
G1 X126.871 Y96.736 E17.38273
G1 X126.979 Y97.236 E17.40825
G1 X127.023 Y97.468 E17.42003
G1 X127.106 Y97.972 E17.44551
G1 X127.175 Y98.471 E17.47064
G1 X127.237 Y99.041 E17.49925
G1 X127.254 Y99.25 E17.50971
G1 X127.282 Y99.714 E17.5329
G1 X127.3 Y100.22 E17.55816
G1 X127.295 Y101.066 E17.60037
G1 X127.227 Y102.478 E17.6709
G1 X127.227 Y102.58 E17.67599
G1 X127.2 Y103.044 E17.69917
G1 X127.126 Y105.611 E17.8273
G1 X127.124 Y108.146 E17.95377
G1 X127.194 Y110.688 E18.08064
G1 X127.298 Y112.525 E18.17243
G1 X127.323 Y113.181 E18.20518
G1 X127.319 Y114.049 E18.24849
G1 X127.265 Y115.166 E18.30428
G1 X127.215 Y115.991 E18.34552
G1 X127.132 Y118.546 E18.47305
G1 X127.123 Y121.054 E18.59818
G1 X127.222 Y124.272 E18.7588
G1 X127.221 Y124.353 E18.76284
