;FLAVOR:Marlin
;TIME:9576
;Filament used: 6.5952m
;Layer height: 0.2
;MINX:32.482
;MINY:27.755
;MINZ:0.3
;MAXX:188.308
;MAXY:173.769
;MAXZ:25.9
;Generated with Creality Slicer 4.8.2-191
M140 S60
M105
M190 S60
M104 S220
M105
M109 S220
M82 ;absolute extrusion mode

G28 ;Home

G92 E0 ;Reset Extruder
G1 Z2.0 F3000 ;Move Z Axis up
G1 X10.1 Y20 Z0.28 F5000.0 ;Move to start position
G1 X10.1 Y200.0 Z0.28 F1500.0 E15 ;Draw the first line
G1 X10.4 Y200.0 Z0.28 F5000.0 ;Move to side a little
G1 X10.4 Y20 Z0.28 F1500.0 E30 ;Draw the second line
G92 E0 ;Reset Extruder
G1 Z2.0 F3000 ;Move Z Axis up

G92 E0
G92 E0
G1 F3600 E-5
;LAYER_COUNT:129
;LAYER:0
M107
G0 F6000 X55.732 Y78.32 Z0.3
;TYPE:SKIRT
G1 F3600 E0
G1 F1200 X56.293 Y77.935 E0.03395
G1 X56.79 Y77.614 E0.06346
G1 X57.226 Y77.351 E0.08887
G1 X57.463 Y77.214 E0.10252
G1 X60.304 Y75.606 E0.26539
G1 X60.799 Y75.335 E0.29354
G1 X61.397 Y75.031 E0.32701
G1 X62.351 Y74.582 E0.37962
G1 X64.141 Y73.778 E0.47751
G1 X65.083 Y73.371 E0.52871
G1 X65.446 Y73.22 E0.54832
G1 X65.786 Y73.087 E0.56654
G1 X66.103 Y72.969 E0.58341
G1 X66.435 Y72.851 E0.60099
G1 X67.528 Y72.485 E0.6585
G1 X70.024 Y71.688 E0.78922
G1 X70.916 Y71.416 E0.83574
G1 X71.569 Y71.239 E0.8695
G1 X71.964 Y71.147 E0.88973
G1 X72.33 Y71.067 E0.90842
G1 X75.417 Y70.422 E1.06576
G1 X76.159 Y70.278 E1.10347
G1 X76.737 Y70.182 E1.1327
G1 X76.938 Y70.154 E1.14282
G1 X77.319 Y70.108 E1.16197
G1 X80.783 Y69.749 E1.33572
G1 X81.459 Y69.689 E1.36957
G1 X81.933 Y69.656 E1.39328
G1 X82.232 Y69.641 E1.40822
G1 X82.697 Y69.625 E1.43143
G1 X83.761 Y69.601 E1.48453
G1 X85.002 Y69.588 E1.54644
G1 X87.238 Y69.59 E1.658
G1 X89.76 Y69.52 E1.78387
G1 X92.289 Y69.379 E1.91024
G1 X94.781 Y69.169 E2.035
G1 X97.259 Y68.889 E2.15942
G1 X99.791 Y68.531 E2.287
G1 X102.255 Y68.11 E2.41171
G1 X104.709 Y67.621 E2.53655
G1 X107.153 Y67.059 E2.66166
G1 X109.624 Y66.418 E2.78902
G1 X112.032 Y65.72 E2.9141
G1 X114.432 Y64.951 E3.03983
G1 X116.816 Y64.111 E3.16594
G1 X119.092 Y63.236 E3.28759
G1 X121.483 Y62.239 E3.41683
G1 X123.783 Y61.202 E3.5427
G1 X126.025 Y60.115 E3.66701
G1 X128.283 Y58.938 E3.79405
G1 X130.466 Y57.722 E3.91872
G1 X132.642 Y56.427 E4.04505
G1 X134.736 Y55.1 E4.16873
G1 X136.852 Y53.674 E4.29603
G1 X138.883 Y52.219 E4.42068
G1 X140.899 Y50.686 E4.54703
G1 X142.863 Y49.105 E4.67282
G1 X144.758 Y47.489 E4.79707
G1 X146.636 Y45.792 E4.92335
G1 X148.451 Y44.056 E5.04865
G1 X150.232 Y42.255 E5.17502
G1 X151.94 Y40.426 E5.29987
G1 X153.82 Y38.289 E5.44187
G1 X154.115 Y37.944 E5.46451
G1 X154.754 Y37.258 E5.51129
G1 X155.45 Y36.628 E5.55812
G1 X156.196 Y36.061 E5.60487
G1 X156.988 Y35.559 E5.65165
G1 X157.709 Y35.179 E5.69231
G1 X157.84 Y35.116 E5.69956
G1 X158.164 Y34.966 E5.71738
G1 X158.622 Y34.765 E5.74233
G1 X172.523 Y28.818 E6.49665
G1 X173.108 Y28.577 E6.52822
G1 X173.99 Y28.257 E6.57503
G1 X174.895 Y28.014 E6.62178
G1 X175.818 Y27.848 E6.66857
G1 X176.752 Y27.762 E6.71536
G1 X177.69 Y27.755 E6.76216
G1 X178.625 Y27.828 E6.80895
G1 X179.55 Y27.981 E6.85572
G1 X180.459 Y28.212 E6.90252
G1 X181.345 Y28.52 E6.94931
G1 X182.202 Y28.902 E6.99613
G1 X183.023 Y29.355 E7.04291
G1 X183.802 Y29.877 E7.08969
G1 X184.534 Y30.463 E7.13647
G1 X185.214 Y31.11 E7.1833
G1 X185.836 Y31.812 E7.23009
G1 X186.395 Y32.564 E7.27684
G1 X186.889 Y33.362 E7.32366
G1 X187.313 Y34.198 E7.37043
G1 X187.664 Y35.068 E7.41723
G1 X187.94 Y35.964 E7.46401
G1 X188.138 Y36.881 E7.51081
G1 X188.258 Y37.811 E7.55759
G1 X188.291 Y38.345 E7.58428
G1 X188.301 Y38.707 E7.60235
G1 X188.308 Y39.297 E7.63179
G1 X188.307 Y92.469 E10.28455
G1 X188.297 Y93.197 E10.32087
G1 X188.244 Y94.133 E10.36765
G1 X188.112 Y95.062 E10.41446
G1 X187.901 Y95.976 E10.46126
G1 X187.613 Y96.868 E10.50802
G1 X187.249 Y97.733 E10.55484
G1 X186.814 Y98.564 E10.60164
G1 X186.309 Y99.354 E10.64842
G1 X185.739 Y100.099 E10.69522
G1 X185.108 Y100.792 E10.74197
G1 X184.42 Y101.429 E10.78875
G1 X183.68 Y102.006 E10.83557
G1 X182.893 Y102.517 E10.88238
G1 X182.066 Y102.959 E10.92916
G1 X180.981 Y103.411 E10.9878
G1 X179.673 Y103.875 E11.05704
G1 X179.33 Y103.991 E11.07511
G1 X176.95 Y104.874 E11.20176
G1 X174.636 Y105.809 E11.32627
G1 X172.335 Y106.815 E11.45156
G1 X170.044 Y107.894 E11.5779
G1 X167.814 Y109.023 E11.7026
G1 X165.601 Y110.223 E11.8282
G1 X163.425 Y111.485 E11.95369
G1 X161.264 Y112.818 E12.08037
G1 X159.17 Y114.194 E12.20537
G1 X157.099 Y115.642 E12.33145
G1 X155.095 Y117.13 E12.45597
G1 X153.112 Y118.689 E12.58182
G1 X151.169 Y120.309 E12.70803
G1 X149.284 Y121.973 E12.83347
G1 X147.451 Y123.684 E12.95857
G1 X145.654 Y125.462 E13.08469
G1 X143.919 Y127.277 E13.20996
G1 X142.232 Y129.145 E13.33553
G1 X140.584 Y131.078 E13.46226
G1 X139.03 Y133.008 E13.58588
G1 X137.492 Y135.033 E13.71275
G1 X136.03 Y137.074 E13.838
G1 X134.625 Y139.158 E13.96339
G1 X133.282 Y141.278 E14.0886
G1 X132.004 Y143.428 E14.21338
G1 X130.508 Y146.127 E14.36734
G1 X129.845 Y147.372 E14.43771
G1 X129.438 Y148.113 E14.47989
G1 X129.151 Y148.605 E14.5083
G1 X129.003 Y148.844 E14.52233
G1 X128.778 Y149.193 E14.54304
G1 X126.863 Y152.038 E14.71414
G1 X126.478 Y152.594 E14.74788
G1 X126.124 Y153.077 E14.77776
G1 X125.961 Y153.287 E14.79102
G1 X125.721 Y153.584 E14.81007
G1 X123.56 Y156.176 E14.97843
G1 X123.06 Y156.759 E15.01675
G1 X122.629 Y157.233 E15.04871
G1 X122.302 Y157.568 E15.07207
G1 X122.07 Y157.798 E15.08837
G1 X119.788 Y160.021 E15.24731
G1 X119.247 Y160.534 E15.2845
G1 X118.765 Y160.965 E15.31676
G1 X118.6 Y161.104 E15.32752
G1 X118.146 Y161.472 E15.35668
G1 X115.64 Y163.455 E15.51611
G1 X115.069 Y163.894 E15.55205
G1 X114.594 Y164.239 E15.58134
G1 X114.399 Y164.373 E15.59314
G1 X114.139 Y164.546 E15.60872
G1 X113.882 Y164.712 E15.62398
G1 X111.319 Y166.344 E15.77558
G1 X110.543 Y166.821 E15.82102
G1 X110.092 Y167.082 E15.84702
G1 X109.877 Y167.2 E15.85925
G1 X109.594 Y167.351 E15.87525
G1 X109.281 Y167.51 E15.89277
G1 X106.445 Y168.925 E16.05089
G1 X105.772 Y169.249 E16.08816
G1 X105.173 Y169.516 E16.12088
G1 X104.772 Y169.678 E16.14245
G1 X104.478 Y169.791 E16.15817
G1 X101.469 Y170.925 E16.31859
G1 X100.799 Y171.168 E16.35415
G1 X100.18 Y171.372 E16.38667
G1 X99.743 Y171.499 E16.40937
G1 X99.437 Y171.583 E16.4252
G1 X96.292 Y172.41 E16.58744
G1 X95.565 Y172.589 E16.62479
G1 X94.996 Y172.713 E16.65385
G1 X94.557 Y172.794 E16.67612
G1 X94.197 Y172.854 E16.69433
G1 X91.224 Y173.316 E16.84443
G1 X90.317 Y173.445 E16.89014
G1 X89.704 Y173.515 E16.92092
G1 X89.232 Y173.552 E16.94454
G1 X88.865 Y173.573 E16.96288
G1 X85.708 Y173.735 E17.12059
G1 X84.968 Y173.763 E17.15753
G1 X84.336 Y173.769 E17.18907
G1 X83.854 Y173.757 E17.21312
G1 X83.579 Y173.745 E17.22685
G1 X80.345 Y173.577 E17.38841
G1 X79.622 Y173.53 E17.42456
G1 X79.002 Y173.472 E17.45563
G1 X78.74 Y173.44 E17.4688
G1 X78.314 Y173.381 E17.49025
G1 X75.012 Y172.866 E17.65698
G1 X74.321 Y172.749 E17.69195
G1 X73.669 Y172.618 E17.72513
G1 X73.402 Y172.556 E17.7388
G1 X73.093 Y172.479 E17.75469
G1 X69.74 Y171.597 E17.92766
G1 X69.116 Y171.423 E17.95998
G1 X68.522 Y171.239 E17.991
G1 X68.258 Y171.149 E18.00492
G1 X67.797 Y170.983 E18.02936
G1 X64.7 Y169.814 E18.19451
G1 X64.086 Y169.572 E18.22744
G1 X63.471 Y169.307 E18.26085
G1 X63.085 Y169.127 E18.2821
G1 X62.816 Y168.997 E18.297
G1 X59.921 Y167.549 E18.4585
G1 X59.267 Y167.211 E18.49522
G1 X58.72 Y166.908 E18.52642
G1 X58.281 Y166.646 E18.55193
G1 X58.049 Y166.501 E18.56558
G1 X55.448 Y164.845 E18.71941
G1 X54.709 Y164.361 E18.76348
G1 X54.168 Y163.983 E18.79641
G1 X53.797 Y163.704 E18.81957
G1 X53.579 Y163.534 E18.83336
G1 X51.039 Y161.522 E18.99502
G1 X50.482 Y161.068 E19.03087
G1 X50.022 Y160.672 E19.06115
G1 X49.864 Y160.528 E19.07182
G1 X49.667 Y160.344 E19.08527
G1 X49.364 Y160.053 E19.10622
G1 X47.116 Y157.861 E19.26287
G1 X46.63 Y157.374 E19.2972
G1 X46.208 Y156.927 E19.32786
G1 X46.026 Y156.723 E19.3415
G1 X45.84 Y156.509 E19.35565
G1 X45.611 Y156.239 E19.37331
G1 X43.721 Y153.974 E19.52049
G1 X43.144 Y153.264 E19.56613
G1 X42.739 Y152.733 E19.59945
G1 X42.598 Y152.536 E19.61154
G1 X42.419 Y152.278 E19.6272
G1 X40.502 Y149.429 E19.79852
G1 X40.102 Y148.815 E19.83508
G1 X39.797 Y148.318 E19.86417
G1 X39.701 Y148.152 E19.87374
G1 X39.549 Y147.88 E19.88928
G1 X39.389 Y147.584 E19.90607
G1 X37.875 Y144.739 E20.06686
G1 X37.557 Y144.119 E20.10162
G1 X37.293 Y143.567 E20.13215
G1 X37.185 Y143.324 E20.14541
G1 X36.99 Y142.864 E20.17034
G1 X35.761 Y139.838 E20.33328
G1 X35.512 Y139.201 E20.3674
G1 X35.297 Y138.601 E20.3992
G1 X35.149 Y138.139 E20.42341
G1 X35.053 Y137.821 E20.43998
G1 X34.199 Y134.89 E20.59229
G1 X33.96 Y134.023 E20.63715
G1 X33.822 Y133.464 E20.66588
G1 X33.773 Y133.24 E20.67732
G1 X33.713 Y132.947 E20.69224
G1 X33.649 Y132.61 E20.70935
G1 X33.099 Y129.593 E20.86235
G1 X32.96 Y128.766 E20.90419
G1 X32.878 Y128.18 E20.93371
G1 X32.852 Y127.948 E20.94536
G1 X32.803 Y127.414 E20.97211
G1 X32.551 Y124.145 E21.13569
G1 X32.506 Y123.439 E21.17098
G1 X32.484 Y122.821 E21.20183
G1 X32.482 Y122.554 E21.21515
G1 X32.486 Y122.194 E21.23312
G1 X32.574 Y118.74 E21.40549
G1 X32.603 Y118.038 E21.44055
G1 X32.645 Y117.431 E21.4709
G1 X32.694 Y116.957 E21.49468
G1 X32.73 Y116.66 E21.5096
G1 X33.148 Y113.441 E21.67155
G1 X33.248 Y112.746 E21.70658
G1 X33.353 Y112.139 E21.73731
G1 X33.403 Y111.891 E21.74993
G1 X33.479 Y111.544 E21.76765
G1 X34.277 Y108.158 E21.94121
G1 X34.434 Y107.534 E21.97331
G1 X34.599 Y106.95 E22.00359
G1 X34.697 Y106.635 E22.02005
G1 X34.809 Y106.293 E22.038
G1 X35.883 Y103.202 E22.20126
G1 X36.169 Y102.418 E22.24289
G1 X36.398 Y101.842 E22.27381
G1 X36.594 Y101.393 E22.29826
G1 X36.737 Y101.083 E22.31529
G1 X38.078 Y98.221 E22.47297
G1 X38.409 Y97.54 E22.51075
G1 X38.704 Y96.976 E22.5425
G1 X38.92 Y96.593 E22.56444
G1 X39.061 Y96.353 E22.57833
G1 X40.655 Y93.698 E22.73282
G1 X41.118 Y92.949 E22.77675
G1 X41.51 Y92.358 E22.81214
G1 X41.73 Y92.049 E22.83106
G1 X41.894 Y91.826 E22.84487
G1 X43.888 Y89.17 E23.01057
G1 X44.299 Y88.638 E23.04411
G1 X44.704 Y88.144 E23.07598
G1 X44.891 Y87.929 E23.09019
G1 X45.116 Y87.678 E23.10701
G1 X47.314 Y85.302 E23.26849
G1 X47.92 Y84.665 E23.31235
G1 X48.339 Y84.248 E23.34185
G1 X48.528 Y84.07 E23.3548
G1 X48.725 Y83.889 E23.36815
G1 X48.972 Y83.669 E23.38465
G1 X51.393 Y81.542 E23.54543
G1 X51.92 Y81.093 E23.57997
G1 X52.368 Y80.731 E23.6087
G1 X52.594 Y80.558 E23.6229
G1 X52.905 Y80.329 E23.64217
G1 X55.732 Y78.32 E23.8152
G0 F6000 X55.958 Y78.65
G1 F1200 X56.519 Y78.265 E23.84914
G1 X56.998 Y77.955 E23.87761
G1 X57.221 Y77.819 E23.89064
G1 X57.572 Y77.613 E23.91094
G1 X60.496 Y75.957 E24.07859
G1 X60.991 Y75.686 E24.10675
G1 X61.567 Y75.393 E24.13899
G1 X62.521 Y74.944 E24.19159
G1 X64.305 Y74.143 E24.28916
G1 X64.449 Y74.079 E24.29702
G1 X65.407 Y73.668 E24.34903
G1 X65.597 Y73.59 E24.35927
G1 X65.925 Y73.462 E24.37684
G1 X66.242 Y73.344 E24.39371
G1 X66.562 Y73.231 E24.41064
G1 X67.65 Y72.866 E24.4679
G1 X70.283 Y72.026 E24.60578
G1 X71.032 Y71.798 E24.64484
G1 X71.661 Y71.628 E24.67735
G1 X72.049 Y71.537 E24.69723
G1 X72.412 Y71.458 E24.71577
G1 X75.343 Y70.845 E24.86516
G1 X76.236 Y70.671 E24.91055
G1 X76.793 Y70.578 E24.93872
G1 X76.994 Y70.55 E24.94885
G1 X77.36 Y70.506 E24.96724
G1 X80.66 Y70.163 E25.13276
G1 X81.495 Y70.088 E25.17459
G1 X81.767 Y70.067 E25.1882
G1 X81.958 Y70.055 E25.19775
G1 X82.246 Y70.041 E25.21213
G1 X82.707 Y70.025 E25.23515
G1 X83.766 Y70.001 E25.28799
G1 X85.002 Y69.988 E25.34966
G1 X87.249 Y69.99 E25.46176
G1 X89.793 Y69.92 E25.58873
G1 X92.273 Y69.781 E25.71265
G1 X94.827 Y69.566 E25.84052
G1 X97.323 Y69.284 E25.96584
G1 X99.843 Y68.927 E26.09282
G1 X102.329 Y68.503 E26.21864
G1 X104.812 Y68.008 E26.34495
G1 X107.263 Y67.445 E26.47042
G1 X109.698 Y66.813 E26.59593
G1 X112.16 Y66.099 E26.72382
G1 X114.55 Y65.333 E26.84903
G1 X116.944 Y64.489 E26.97567
G1 X119.284 Y63.59 E27.10073
G1 X121.636 Y62.61 E27.22785
G1 X123.944 Y61.569 E27.35417
G1 X126.206 Y60.472 E27.47959
G1 X128.456 Y59.299 E27.60619
G1 X130.66 Y58.072 E27.73204
G1 X132.839 Y56.774 E27.85857
G1 X134.976 Y55.421 E27.98476
G1 X137.079 Y54.003 E28.1113
G1 X139.129 Y52.534 E28.23712
G1 X141.152 Y50.996 E28.36391
G1 X143.09 Y49.437 E28.488
G1 X145.04 Y47.774 E28.61586
G1 X146.897 Y46.095 E28.74076
G1 X148.747 Y44.326 E28.86846
G1 X150.509 Y42.545 E28.99345
G1 X152.234 Y40.698 E29.11953
G1 X154.141 Y38.529 E29.26362
G1 X154.419 Y38.204 E29.28496
G1 X155.047 Y37.531 E29.33088
G1 X155.731 Y36.915 E29.37681
G1 X156.466 Y36.36 E29.42276
G1 X157.247 Y35.872 E29.4687
G1 X157.882 Y35.539 E29.50447
G1 X158.013 Y35.476 E29.51173
G1 X158.326 Y35.332 E29.52892
G1 X158.779 Y35.133 E29.5536
G1 X172.675 Y29.188 E30.30766
G1 X173.26 Y28.947 E30.33922
G1 X174.126 Y28.634 E30.38516
G1 X175.016 Y28.397 E30.43111
G1 X175.922 Y28.238 E30.477
G1 X176.84 Y28.158 E30.52297
G1 X177.76 Y28.158 E30.56887
G1 X178.677 Y28.238 E30.6148
G1 X179.584 Y28.397 E30.66074
G1 X180.474 Y28.635 E30.7067
G1 X181.339 Y28.949 E30.75261
G1 X182.174 Y29.336 E30.79853
G1 X182.973 Y29.795 E30.8445
G1 X183.728 Y30.321 E30.8904
G1 X184.435 Y30.911 E30.93634
G1 X185.088 Y31.56 E30.98228
G1 X185.683 Y32.263 E31.02823
G1 X186.214 Y33.015 E31.07415
G1 X186.678 Y33.81 E31.12008
G1 X187.071 Y34.643 E31.16603
G1 X187.39 Y35.506 E31.21193
G1 X187.633 Y36.394 E31.25786
G1 X187.799 Y37.3 E31.30382
G1 X187.891 Y38.359 E31.35685
G1 X187.901 Y38.712 E31.37447
G1 X187.908 Y39.297 E31.40365
G1 X187.907 Y92.464 E34.05617
G1 X187.897 Y93.192 E34.09249
G1 X187.844 Y94.111 E34.13842
G1 X187.712 Y95.022 E34.18434
G1 X187.501 Y95.918 E34.23026
G1 X187.214 Y96.793 E34.27621
G1 X186.851 Y97.639 E34.32214
G1 X186.417 Y98.451 E34.36807
G1 X185.913 Y99.221 E34.41398
G1 X185.345 Y99.946 E34.45993
G1 X184.716 Y100.618 E34.50585
G1 X184.031 Y101.233 E34.55178
G1 X183.295 Y101.786 E34.59771
G1 X182.514 Y102.274 E34.64365
G1 X181.694 Y102.692 E34.68957
G1 X180.847 Y103.034 E34.73514
G1 X179.545 Y103.496 E34.80407
G1 X179.2 Y103.613 E34.82224
G1 X176.798 Y104.504 E34.95006
G1 X174.491 Y105.436 E35.07419
G1 X172.167 Y106.452 E35.20073
G1 X169.886 Y107.526 E35.32652
G1 X167.621 Y108.673 E35.45318
G1 X165.388 Y109.884 E35.57992
G1 X163.209 Y111.148 E35.70559
G1 X161.056 Y112.476 E35.8318
G1 X158.952 Y113.859 E35.95741
G1 X156.877 Y115.309 E36.0837
G1 X154.855 Y116.81 E36.20934
G1 X152.854 Y118.383 E36.33632
G1 X150.914 Y120.001 E36.46235
G1 X149.009 Y121.682 E36.58911
G1 X147.162 Y123.408 E36.71523
G1 X145.383 Y125.166 E36.84001
G1 X143.616 Y127.016 E36.96764
G1 X141.947 Y128.863 E37.09183
G1 X140.27 Y130.831 E37.22083
G1 X138.716 Y132.761 E37.34445
G1 X137.164 Y134.803 E37.47241
G1 X135.701 Y136.847 E37.59782
G1 X134.288 Y138.943 E37.72393
G1 X132.934 Y141.08 E37.85014
G1 X131.661 Y143.221 E37.97441
G1 X130.163 Y145.924 E38.12859
G1 X129.425 Y147.308 E38.20684
G1 X129.088 Y147.921 E38.24174
G1 X128.811 Y148.395 E38.26913
G1 X128.663 Y148.634 E38.28316
G1 X128.446 Y148.97 E38.30311
G1 X126.534 Y151.81 E38.47392
G1 X126.149 Y152.366 E38.50766
G1 X125.808 Y152.831 E38.53643
G1 X125.645 Y153.041 E38.54969
G1 X125.414 Y153.328 E38.56807
G1 X123.256 Y155.916 E38.73618
G1 X122.756 Y156.499 E38.7745
G1 X122.341 Y156.955 E38.80526
G1 X122.02 Y157.284 E38.82819
G1 X121.791 Y157.512 E38.84432
G1 X119.513 Y159.731 E39.00297
G1 X118.972 Y160.244 E39.04017
G1 X118.507 Y160.659 E39.07126
G1 X118.156 Y160.952 E39.09408
G1 X115.514 Y163.045 E39.26223
G1 X114.825 Y163.576 E39.30563
G1 X114.367 Y163.909 E39.33388
G1 X114.172 Y164.043 E39.34569
G1 X113.922 Y164.21 E39.36069
G1 X111.104 Y166.006 E39.5274
G1 X110.945 Y166.106 E39.53677
G1 X110.334 Y166.48 E39.57251
G1 X109.9 Y166.731 E39.59753
G1 X109.685 Y166.849 E39.60976
G1 X109.411 Y166.994 E39.62523
G1 X109.102 Y167.152 E39.64254
G1 X106.271 Y168.565 E39.8004
G1 X105.598 Y168.889 E39.83766
G1 X105.021 Y169.146 E39.86918
G1 X104.628 Y169.305 E39.89033
G1 X104.336 Y169.417 E39.90593
G1 X101.333 Y170.549 E40.06604
G1 X100.663 Y170.792 E40.1016
G1 X100.066 Y170.988 E40.13295
G1 X99.637 Y171.114 E40.15525
G1 X99.335 Y171.196 E40.17087
G1 X96.196 Y172.022 E40.3328
G1 X95.469 Y172.201 E40.37016
G1 X94.921 Y172.32 E40.39813
G1 X94.491 Y172.4 E40.41995
G1 X94.136 Y172.458 E40.4379
