;FLAVOR:Marlin
;TIME:3635
;Filament used: 1.51681m
;Layer height: 0.2
;MINX:57.623
;MINY:66.294
;MINZ:0.3
;MAXX:126.158
;MAXY:127.548
;MAXZ:27.9
;Generated with Creality Slicer 4.8.2-191
M140 S60
M105
M190 S60
M104 S220
M105
M109 S220
M82 ;absolute extrusion mode

G28 ;Home

G92 E0 ;Reset Extruder
G1 Z2.0 F3000 ;Move Z Axis up
G1 X10.1 Y20 Z0.28 F5000.0 ;Move to start position
G1 X10.1 Y200.0 Z0.28 F1500.0 E15 ;Draw the first line
G1 X10.4 Y200.0 Z0.28 F5000.0 ;Move to side a little
G1 X10.4 Y20 Z0.28 F1500.0 E30 ;Draw the second line
G92 E0 ;Reset Extruder
G1 Z2.0 F3000 ;Move Z Axis up

G92 E0
G92 E0
G1 F3600 E-5
;LAYER_COUNT:139
;LAYER:0
M107
G0 F6000 X66.138 Y73.116 Z0.3
;TYPE:SKIRT
G1 F3600 E0
G1 F1200 X66.433 Y72.851 E0.01978
G1 X66.851 Y72.489 E0.04737
G1 X67.104 Y72.276 E0.06387
G1 X67.32 Y72.1 E0.07777
G1 X67.544 Y71.922 E0.09205
G1 X67.905 Y71.645 E0.11475
G1 X68.537 Y71.17 E0.15419
G1 X69.044 Y70.81 E0.18521
G1 X69.17 Y70.726 E0.19277
G1 X69.44 Y70.552 E0.20879
G1 X69.987 Y70.21 E0.24098
G1 X70.815 Y69.713 E0.28916
G1 X71.521 Y69.324 E0.32937
G1 X72.295 Y68.935 E0.37259
G1 X72.61 Y68.783 E0.39004
G1 X73.074 Y68.568 E0.41555
G1 X73.361 Y68.441 E0.43121
G1 X73.601 Y68.338 E0.44424
G1 X74.201 Y68.101 E0.47643
G1 X74.5 Y67.993 E0.49229
G1 X74.944 Y67.826 E0.51595
G1 X75.258 Y67.713 E0.5326
G1 X75.846 Y67.512 E0.5636
G1 X76.412 Y67.336 E0.59317
G1 X76.596 Y67.284 E0.60271
G1 X76.945 Y67.191 E0.62073
G1 X77.539 Y67.044 E0.65126
G1 X78.338 Y66.86 E0.69217
G1 X78.589 Y66.805 E0.70499
G1 X78.78 Y66.766 E0.71471
G1 X79.173 Y66.694 E0.73465
G1 X79.599 Y66.623 E0.75619
G1 X79.927 Y66.573 E0.77275
G1 X80.327 Y66.52 E0.79288
G1 X81.078 Y66.429 E0.83062
G1 X82.018 Y66.356 E0.87766
G1 X82.847 Y66.327 E0.91904
G1 X83.175 Y66.311 E0.93542
G1 X83.56 Y66.299 E0.95464
G1 X83.916 Y66.294 E0.9724
G1 X84.516 Y66.302 E1.00234
G1 X84.993 Y66.324 E1.02616
G1 X85.397 Y66.351 E1.04636
G1 X85.87 Y66.387 E1.07003
G1 X86.521 Y66.445 E1.10264
G1 X86.915 Y66.487 E1.12241
G1 X87.235 Y66.529 E1.13851
G1 X87.587 Y66.58 E1.15625
G1 X87.902 Y66.63 E1.17216
G1 X88.48 Y66.733 E1.20145
G1 X88.929 Y66.82 E1.22427
G1 X89.341 Y66.908 E1.24529
G1 X89.974 Y67.056 E1.27772
G1 X90.318 Y67.142 E1.29541
G1 X90.553 Y67.205 E1.30755
G1 X90.809 Y67.277 E1.32082
G1 X91.276 Y67.415 E1.34511
G1 X92.004 Y67.64 E1.38313
G1 X92.589 Y67.839 E1.41396
G1 X92.78 Y67.91 E1.42412
G1 X93.094 Y68.033 E1.44095
G1 X93.84 Y68.338 E1.48116
G1 X94.535 Y68.635 E1.51886
G1 X95.294 Y68.994 E1.56075
G1 X95.987 Y69.355 E1.59974
G1 X96.272 Y69.509 E1.6159
G1 X96.637 Y69.713 E1.63676
G1 X96.932 Y69.884 E1.65377
G1 X97.465 Y70.204 E1.68479
G1 X97.776 Y70.398 E1.70307
G1 X97.943 Y70.506 E1.71299
G1 X98.182 Y70.665 E1.72732
G1 X98.581 Y70.939 E1.75146
G1 X99.214 Y71.382 E1.79001
G1 X99.715 Y71.754 E1.82114
G1 X100.072 Y72.04 E1.84396
G1 X100.344 Y72.267 E1.86164
G1 X100.747 Y72.61 E1.88804
G1 X101.22 Y73.023 E1.91937
G1 X101.584 Y73.353 E1.94388
G1 X101.854 Y73.609 E1.96244
G1 X102.086 Y73.837 E1.97867
G1 X102.501 Y74.261 E2.00827
G1 X102.655 Y74.422 E2.01939
G1 X102.944 Y74.732 E2.04053
G1 X103.215 Y75.034 E2.06077
G1 X103.582 Y75.458 E2.08875
G1 X103.839 Y75.766 E2.10876
G1 X104.371 Y76.428 E2.15113
G1 X104.616 Y76.745 E2.17112
G1 X104.985 Y77.24 E2.20192
G1 X105.319 Y77.712 E2.23077
G1 X105.419 Y77.862 E2.23977
G1 X105.572 Y78.099 E2.25384
G1 X105.807 Y78.473 E2.27588
G1 X106.059 Y78.885 E2.29997
G1 X106.249 Y79.204 E2.3185
G1 X106.434 Y79.528 E2.33711
G1 X107.282 Y81.069 E2.42486
G1 X108.623 Y83.427 E2.5602
G1 X109.895 Y85.523 E2.68252
G1 X111.268 Y87.65 E2.80882
G1 X112.696 Y89.728 E2.93461
G1 X114.195 Y91.785 E3.06159
G1 X115.709 Y93.742 E3.18504
G1 X117.325 Y95.713 E3.3122
G1 X118.946 Y97.58 E3.43555
G1 X121.354 Y100.175 E3.61217
G1 X121.68 Y100.513 E3.6356
G1 X122.039 Y100.904 E3.66208
G1 X122.298 Y101.2 E3.6817
G1 X122.694 Y101.679 E3.71271
G1 X122.772 Y101.779 E3.71904
G1 X123.082 Y102.196 E3.74496
G1 X123.306 Y102.513 E3.76432
G1 X123.621 Y102.984 E3.79259
G1 X123.7 Y103.109 E3.79997
G1 X123.987 Y103.59 E3.82791
G1 X124.175 Y103.924 E3.84704
G1 X124.474 Y104.495 E3.87919
G1 X124.556 Y104.663 E3.88852
G1 X124.778 Y105.147 E3.91509
G1 X124.915 Y105.466 E3.93241
G1 X125.108 Y105.945 E3.95817
G1 X125.162 Y106.089 E3.96584
G1 X125.35 Y106.633 E3.99456
G1 X125.468 Y107.006 E4.01408
G1 X125.659 Y107.687 E4.04936
G1 X125.699 Y107.849 E4.05769
G1 X125.796 Y108.276 E4.07953
G1 X125.868 Y108.627 E4.09741
G1 X125.981 Y109.281 E4.13052
G1 X126.005 Y109.449 E4.13899
G1 X126.065 Y109.948 E4.16406
G1 X126.101 Y110.321 E4.18276
G1 X126.144 Y110.961 E4.21476
G1 X126.15 Y111.119 E4.22265
G1 X126.158 Y111.621 E4.2477
G1 X126.155 Y112.009 E4.26705
G1 X126.134 Y112.601 E4.29661
G1 X126.125 Y112.747 E4.3039
G1 X126.073 Y113.333 E4.33326
G1 X126.03 Y113.705 E4.35194
G1 X125.955 Y114.241 E4.37894
G1 X125.924 Y114.428 E4.3884
G1 X125.817 Y114.983 E4.4166
G1 X125.748 Y115.298 E4.43268
G1 X125.615 Y115.838 E4.46043
G1 X125.564 Y116.025 E4.4701
G1 X125.4 Y116.573 E4.49864
G1 X125.288 Y116.913 E4.5165
G1 X125.095 Y117.451 E4.54501
G1 X125.036 Y117.603 E4.55315
G1 X124.796 Y118.172 E4.58396
G1 X124.682 Y118.423 E4.59771
G1 X124.4 Y119 E4.62975
G1 X124.183 Y119.412 E4.65298
G1 X123.556 Y120.457 E4.71378
G1 X123.146 Y121.062 E4.75024
G1 X122.557 Y121.852 E4.79941
G1 X122.472 Y121.956 E4.80611
G1 X122.149 Y122.334 E4.83091
G1 X121.986 Y122.516 E4.8431
G1 X121.468 Y123.056 E4.88043
G1 X121.08 Y123.434 E4.90746
G1 X120.705 Y123.783 E4.93302
G1 X120.634 Y123.846 E4.93775
G1 X120.156 Y124.247 E4.96888
G1 X119.898 Y124.451 E4.98529
G1 X119.509 Y124.744 E5.00959
G1 X119.319 Y124.881 E5.02127
G1 X118.668 Y125.316 E5.06033
G1 X118.435 Y125.46 E5.074
G1 X118.027 Y125.701 E5.09764
G1 X117.902 Y125.771 E5.10479
G1 X117.027 Y126.21 E5.15363
G1 X116.601 Y126.401 E5.17692
G1 X115.73 Y126.748 E5.2237
G1 X114.499 Y127.099 E5.28756
G1 X114.208 Y127.164 E5.30243
G1 X113.794 Y127.249 E5.32352
G1 X113.674 Y127.271 E5.32961
G1 X112.793 Y127.396 E5.374
G1 X112.059 Y127.47 E5.4108
G1 X111.559 Y127.508 E5.43582
G1 X111.144 Y127.526 E5.45655
G1 X110.355 Y127.546 E5.49592
G1 X109.872 Y127.548 E5.52002
G1 X109.278 Y127.537 E5.54966
G1 X108.829 Y127.52 E5.57208
G1 X108.543 Y127.503 E5.58637
G1 X108.266 Y127.483 E5.60022
G1 X107.83 Y127.446 E5.62205
G1 X107.533 Y127.416 E5.63695
G1 X107.239 Y127.383 E5.65171
G1 X106.685 Y127.307 E5.67961
G1 X106.368 Y127.255 E5.69563
G1 X105.812 Y127.149 E5.72387
G1 X105.697 Y127.124 E5.72974
G1 X104.418 Y126.764 E5.79603
G1 X103.964 Y126.606 E5.82001
G1 X102.71 Y126.08 E5.88786
G1 X102.171 Y125.814 E5.91784
G1 X99.788 Y124.678 E6.04955
G1 X97.497 Y123.665 E6.17452
G1 X95.155 Y122.707 E6.30076
G1 X92.817 Y121.828 E6.42538
G1 X90.414 Y121 E6.55218
G1 X88.046 Y120.258 E6.67599
G1 X85.621 Y119.574 E6.80169
G1 X83.138 Y118.949 E6.92943
G1 X80.678 Y118.404 E7.05514
G1 X79.574 Y118.189 E7.11125
G1 X78.448 Y117.964 E7.16854
G1 X78.126 Y117.894 E7.18498
G1 X77.529 Y117.756 E7.21555
G1 X77.157 Y117.664 E7.23467
G1 X76.896 Y117.594 E7.24815
G1 X76.646 Y117.524 E7.2611
G1 X76.18 Y117.386 E7.28535
G1 X75.482 Y117.171 E7.32178
G1 X74.886 Y116.968 E7.3532
G1 X74.687 Y116.894 E7.36379
G1 X74.384 Y116.776 E7.38001
G1 X73.619 Y116.464 E7.42123
G1 X72.91 Y116.161 E7.4597
G1 X72.146 Y115.799 E7.50187
G1 X71.498 Y115.461 E7.53834
G1 X71.233 Y115.318 E7.55336
G1 X70.592 Y114.961 E7.58996
G1 X70.209 Y114.738 E7.61208
G1 X69.73 Y114.431 E7.64046
G1 X69.297 Y114.137 E7.66657
G1 X68.967 Y113.921 E7.68625
G1 X68.68 Y113.726 E7.70356
G1 X68.23 Y113.41 E7.73099
G1 X67.731 Y113.038 E7.76204
G1 X67.408 Y112.778 E7.78273
G1 X67.028 Y112.461 E7.80742
G1 X66.671 Y112.156 E7.83085
G1 X66.098 Y111.654 E7.86885
G1 X65.506 Y111.095 E7.90947
G1 X64.953 Y110.533 E7.94881
G1 X64.749 Y110.32 E7.96352
G1 X64.39 Y109.935 E7.98979
G1 X64.146 Y109.665 E8.00794
G1 X63.927 Y109.414 E8.02456
G1 X63.713 Y109.16 E8.04113
G1 X63.53 Y108.937 E8.05552
G1 X63.351 Y108.714 E8.06979
G1 X62.923 Y108.161 E8.10468
G1 X62.508 Y107.608 E8.13917
G1 X62.131 Y107.073 E8.17182
G1 X61.88 Y106.689 E8.19471
G1 X61.645 Y106.315 E8.21675
G1 X61.425 Y105.955 E8.2378
G1 X61.036 Y105.303 E8.27567
G1 X60.659 Y104.617 E8.31473
G1 X60.27 Y103.845 E8.35785
G1 X60.114 Y103.522 E8.37575
G1 X59.897 Y103.054 E8.40149
G1 X59.768 Y102.765 E8.41728
G1 X59.662 Y102.518 E8.43069
G1 X59.542 Y102.229 E8.4463
G1 X59.426 Y101.936 E8.46202
G1 X59.303 Y101.61 E8.4794
G1 X59.112 Y101.079 E8.50756
G1 X58.831 Y100.252 E8.55113
G1 X58.656 Y99.687 E8.58064
G1 X58.589 Y99.447 E8.59307
G1 X58.509 Y99.142 E8.6088
G1 X58.331 Y98.42 E8.6459
G1 X58.193 Y97.817 E8.67676
G1 X58.131 Y97.529 E8.69146
G1 X58.082 Y97.285 E8.70388
G1 X58.017 Y96.927 E8.72203
G1 X57.972 Y96.657 E8.73569
G1 X57.933 Y96.405 E8.74841
G1 X57.876 Y96.006 E8.76852
G1 X57.843 Y95.754 E8.7812
G1 X57.776 Y95.193 E8.80938
G1 X57.74 Y94.844 E8.82689
G1 X57.704 Y94.431 E8.84757
G1 X57.673 Y93.964 E8.87092
G1 X57.643 Y93.262 E8.90598
G1 X57.635 Y92.951 E8.9215
G1 X57.623 Y92.232 E8.95737
G1 X57.631 Y91.59 E8.98941
G1 X57.653 Y91.117 E9.01303
G1 X57.678 Y90.743 E9.03173
G1 X57.717 Y90.251 E9.05635
G1 X57.786 Y89.497 E9.09413
G1 X57.854 Y88.919 E9.12316
G1 X57.909 Y88.54 E9.14227
G1 X57.959 Y88.228 E9.15803
G1 X58.062 Y87.65 E9.18732
G1 X58.149 Y87.201 E9.21014
G1 X58.237 Y86.789 E9.23116
G1 X58.385 Y86.156 E9.26359
G1 X58.48 Y85.78 E9.28294
G1 X58.599 Y85.348 E9.3053
G1 X58.744 Y84.851 E9.33112
G1 X58.959 Y84.153 E9.36756
G1 X59.163 Y83.555 E9.39908
G1 X59.323 Y83.134 E9.42155
G1 X59.495 Y82.704 E9.44466
G1 X59.674 Y82.271 E9.46804
G1 X59.954 Y81.618 E9.50348
G1 X60.291 Y80.904 E9.54287
G1 X60.678 Y80.155 E9.58493
G1 X60.826 Y79.878 E9.6006
G1 X61.127 Y79.334 E9.63162
G1 X61.358 Y78.937 E9.65453
G1 X61.411 Y78.85 E9.65962
G1 X61.699 Y78.402 E9.68619
G1 X61.993 Y77.969 E9.7123
G1 X62.209 Y77.639 E9.73198
G1 X62.397 Y77.362 E9.74868
G1 X62.713 Y76.911 E9.77615
G1 X63.092 Y76.402 E9.80781
G1 X63.345 Y76.087 E9.82797
G1 X63.693 Y75.67 E9.85507
G1 X63.966 Y75.352 E9.87598
G1 X64.239 Y75.04 E9.89666
G1 X64.487 Y74.766 E9.9151
G1 X64.84 Y74.389 E9.94086
G1 X65.137 Y74.084 E9.9621
G1 X65.654 Y73.573 E9.99837
G1 X65.891 Y73.346 E10.01474
G1 X66.138 Y73.116 E10.03158
G0 F6000 X66.41 Y73.408
G1 F1200 X66.695 Y73.153 E10.05066
G1 X67.113 Y72.791 E10.07825
G1 X67.356 Y72.587 E10.09408
G1 X67.572 Y72.411 E10.10798
G1 X67.789 Y72.239 E10.12179
G1 X68.145 Y71.964 E10.14423
G1 X68.777 Y71.489 E10.18368
G1 X69.266 Y71.143 E10.21356
G1 X69.392 Y71.059 E10.22112
G1 X69.653 Y70.891 E10.2366
G1 X70.2 Y70.549 E10.26879
G1 X70.378 Y70.44 E10.2792
G1 X71.02 Y70.056 E10.31652
G1 X71.701 Y69.682 E10.35528
G1 X72.475 Y69.293 E10.3985
G1 X72.779 Y69.146 E10.41535
G1 X73.243 Y68.931 E10.44086
G1 X73.519 Y68.808 E10.45594
G1 X73.759 Y68.705 E10.46897
G1 X74.337 Y68.477 E10.49997
G1 X74.627 Y68.372 E10.51535
G1 X75.085 Y68.2 E10.53976
G1 X75.387 Y68.092 E10.55576
G1 X75.975 Y67.891 E10.58677
G1 X76.521 Y67.721 E10.6153
G1 X76.705 Y67.669 E10.62483
G1 X77.042 Y67.579 E10.64224
G1 X77.636 Y67.432 E10.67277
G1 X78.428 Y67.25 E10.71331
G1 X78.86 Y67.158 E10.73534
G1 X79.238 Y67.088 E10.75452
G1 X79.664 Y67.017 E10.77607
G1 X79.981 Y66.969 E10.79207
G1 X80.375 Y66.917 E10.81189
G1 X81.126 Y66.826 E10.84963
G1 X82.031 Y66.755 E10.89492
G1 X82.955 Y66.723 E10.94105
G1 X83.195 Y66.711 E10.95304
G1 X83.565 Y66.699 E10.97151
G1 X83.921 Y66.694 E10.98927
G1 X84.499 Y66.702 E11.01811
G1 X84.967 Y66.724 E11.04148
G1 X85.367 Y66.75 E11.06148
G1 X85.835 Y66.786 E11.0849
G1 X86.486 Y66.844 E11.11751
G1 X86.869 Y66.884 E11.13672
G1 X87.178 Y66.925 E11.15227
G1 X87.53 Y66.976 E11.17001
G1 X87.833 Y67.024 E11.18532
G1 X88.211 Y67.09 E11.20446
G1 X88.853 Y67.213 E11.23708
G1 X89.25 Y67.297 E11.25732
G1 X89.883 Y67.445 E11.28975
G1 X90.215 Y67.529 E11.30684
G1 X90.45 Y67.592 E11.31898
G1 X90.696 Y67.661 E11.33172
G1 X91.158 Y67.798 E11.35576
G1 X91.886 Y68.023 E11.39378
G1 X92.449 Y68.214 E11.42344
G1 X92.64 Y68.285 E11.43361
G1 X92.943 Y68.403 E11.44983
G1 X93.513 Y68.635 E11.48053
G1 X94.377 Y69.003 E11.52738
G1 X95.109 Y69.349 E11.56778
G1 X95.802 Y69.71 E11.60676
G1 X96.076 Y69.858 E11.6223
G1 X96.441 Y70.062 E11.64316
G1 X96.726 Y70.227 E11.65959
G1 X97.259 Y70.547 E11.6906
G1 X97.559 Y70.734 E11.70824
G1 X97.726 Y70.842 E11.71816
G1 X97.956 Y70.995 E11.73194
G1 X98.352 Y71.266 E11.75588
G1 X98.985 Y71.709 E11.79443
G1 X99.467 Y72.068 E11.82441
G1 X99.817 Y72.348 E11.84678
G1 X100.085 Y72.572 E11.8642
G1 X100.484 Y72.911 E11.89032
G1 X100.957 Y73.324 E11.92165
G1 X101.313 Y73.647 E11.94563
G1 X101.574 Y73.895 E11.9636
G1 X101.806 Y74.123 E11.97982
G1 X101.981 Y74.299 E11.99221
G1 X102.214 Y74.539 E12.00889
G1 X102.651 Y75.005 E12.04077
G1 X102.913 Y75.296 E12.0603
G1 X103.28 Y75.72 E12.08828
G1 X103.528 Y76.017 E12.10758
G1 X104.06 Y76.679 E12.14995
G1 X104.296 Y76.984 E12.16919
G1 X104.665 Y77.479 E12.2
G1 X104.986 Y77.934 E12.22778
G1 X105.086 Y78.084 E12.23677
G1 X105.234 Y78.313 E12.25037
G1 X105.466 Y78.682 E12.27212
G1 X105.715 Y79.09 E12.29597
G1 X105.905 Y79.409 E12.31449
G1 X106.084 Y79.721 E12.33244
G1 X106.968 Y81.327 E12.42389
G1 X108.252 Y83.585 E12.55349
G1 X109.577 Y85.768 E12.68089
G1 X110.948 Y87.892 E12.80701
G1 X112.375 Y89.968 E12.93269
G1 X113.854 Y91.998 E13.058
G1 X115.416 Y94.017 E13.18535
G1 X117.014 Y95.966 E13.3111
G1 X118.633 Y97.83 E13.43427
G1 X121.057 Y100.442 E13.61205
G1 X121.392 Y100.79 E13.63615
G1 X121.738 Y101.168 E13.66172
G1 X121.997 Y101.464 E13.68134
G1 X122.378 Y101.925 E13.71118
G1 X122.456 Y102.025 E13.71751
G1 X122.755 Y102.427 E13.7425
G1 X122.979 Y102.744 E13.76187
G1 X123.282 Y103.198 E13.7891
G1 X123.361 Y103.323 E13.79648
G1 X123.638 Y103.787 E13.82344
G1 X123.826 Y104.121 E13.84256
G1 X124.115 Y104.67 E13.87351
G1 X124.197 Y104.838 E13.88284
G1 X124.411 Y105.305 E13.90847
G1 X124.548 Y105.624 E13.92579
G1 X124.733 Y106.085 E13.95057
G1 X124.787 Y106.229 E13.95824
G1 X124.968 Y106.754 E13.98595
G1 X125.086 Y107.127 E14.00546
G1 X125.271 Y107.783 E14.03947
G1 X125.311 Y107.945 E14.04779
G1 X125.404 Y108.356 E14.06882
G1 X125.476 Y108.707 E14.08669
G1 X125.585 Y109.338 E14.11864
G1 X125.609 Y109.506 E14.12711
G1 X125.667 Y109.987 E14.15128
G1 X125.703 Y110.36 E14.16997
G1 X125.744 Y110.976 E14.20077
G1 X125.75 Y111.134 E14.20866
G1 X125.758 Y111.618 E14.23281
G1 X125.755 Y112.006 E14.25217
G1 X125.735 Y112.576 E14.28062
G1 X125.726 Y112.722 E14.28792
G1 X125.676 Y113.287 E14.31622
G1 X125.633 Y113.659 E14.3349
G1 X125.56 Y114.176 E14.36095
G1 X125.529 Y114.363 E14.37041
G1 X125.426 Y114.897 E14.39754
G1 X125.357 Y115.212 E14.41363
G1 X125.229 Y115.733 E14.4404
G1 X125.178 Y115.92 E14.45007
G1 X125.02 Y116.447 E14.47751
G1 X124.908 Y116.787 E14.49537
G1 X124.722 Y117.307 E14.52293
G1 X124.663 Y117.459 E14.53106
G1 X124.432 Y118.006 E14.56068
G1 X124.318 Y118.257 E14.57444
G1 X124.046 Y118.814 E14.60536
G1 X123.829 Y119.226 E14.62859
G1 X123.225 Y120.233 E14.68718
G1 X122.815 Y120.838 E14.72364
G1 X122.247 Y121.599 E14.77102
G1 X122.162 Y121.703 E14.77772
G1 X121.851 Y122.067 E14.8016
G1 X121.688 Y122.249 E14.81379
G1 X121.189 Y122.77 E14.84978
G1 X120.801 Y123.148 E14.87681
G1 X120.439 Y123.484 E14.90145
G1 X120.368 Y123.547 E14.90618
G1 X119.907 Y123.933 E14.93618
G1 X119.649 Y124.137 E14.95259
G1 X119.275 Y124.42 E14.97599
G1 X119.085 Y124.557 E14.98768
G1 X118.458 Y124.976 E15.0253
G1 X118.225 Y125.12 E15.03896
G1 X117.831 Y125.352 E15.06178
G1 X117.706 Y125.422 E15.06892
G1 X116.864 Y125.845 E15.11593
G1 X116.438 Y126.036 E15.13923
G1 X115.582 Y126.376 E15.18518
G1 X114.412 Y126.709 E15.24587
G1 X114.121 Y126.774 E15.26074
G1 X113.721 Y126.855 E15.2811
G1 X113.601 Y126.877 E15.28719
G1 X112.753 Y126.998 E15.32993
G1 X112.019 Y127.072 E15.36673
G1 X111.538 Y127.109 E15.3908
G1 X111.134 Y127.127 E15.41097
G1 X110.345 Y127.147 E15.45035
G1 X109.88 Y127.148 E15.47355
G1 X109.286 Y127.137 E15.50319
G1 X108.853 Y127.12 E15.52481
G1 X108.567 Y127.103 E15.5391
G1 X108.3 Y127.084 E15.55246
G1 X107.864 Y127.047 E15.57429
G1 X107.578 Y127.019 E15.58862
G1 X107.284 Y126.986 E15.60338
G1 X106.75 Y126.912 E15.63028
