;FLAVOR:Marlin
;TIME:5796
;Filament used: 3.30584m
;Layer height: 0.2
;MINX:60.173
;MINY:96.458
;MINZ:0.3
;MAXX:160.494
;MAXY:123.542
;MAXZ:74.5
;Generated with Creality Slicer 4.8.2-191
M140 S60
M105
M190 S60
M104 S220
M105
M109 S220
M82 ;absolute extrusion mode

G28 ;Home

G92 E0 ;Reset Extruder
G1 Z2.0 F3000 ;Move Z Axis up
G1 X10.1 Y20 Z0.28 F5000.0 ;Move to start position
G1 X10.1 Y200.0 Z0.28 F1500.0 E15 ;Draw the first line
G1 X10.4 Y200.0 Z0.28 F5000.0 ;Move to side a little
G1 X10.4 Y20 Z0.28 F1500.0 E30 ;Draw the second line
G92 E0 ;Reset Extruder
G1 Z2.0 F3000 ;Move Z Axis up

G92 E0
G92 E0
G1 F3600 E-5
;LAYER_COUNT:372
;LAYER:0
M107
G0 F6000 X77.745 Y101.305 Z0.3
;TYPE:SKIRT
G1 F3600 E0
G1 F1200 X78.507 Y100.758 E0.0468
G1 X79.312 Y100.277 E0.09358
G1 X80.155 Y99.867 E0.14035
G1 X81.031 Y99.53 E0.18718
G1 X81.931 Y99.269 E0.23393
G1 X83.2 Y99.037 E0.29829
G1 X84.096 Y98.928 E0.34332
G1 X89.409 Y98.352 E0.60994
G1 X90.323 Y98.26 E0.65577
G1 X96.098 Y97.72 E0.94514
G1 X96.816 Y97.658 E0.9811
G1 X102.663 Y97.197 E1.27371
G1 X103.492 Y97.138 E1.31517
G1 X109.277 Y96.779 E1.60434
G1 X110.126 Y96.733 E1.64676
G1 X112.731 Y96.615 E1.77686
G1 X113.492 Y96.586 E1.81485
G1 X115.956 Y96.51 E1.93784
G1 X117.027 Y96.487 E1.99129
G1 X119.295 Y96.46 E2.10444
G1 X120.506 Y96.458 E2.16486
G1 X122.456 Y96.479 E2.26215
G1 X124.252 Y96.525 E2.35179
G1 X124.43 Y96.531 E2.36067
G1 X126.234 Y96.609 E2.45076
G1 X127.948 Y96.711 E2.53642
G1 X128.271 Y96.735 E2.55258
G1 X129.64 Y96.857 E2.62115
G1 X129.995 Y96.895 E2.63896
G1 X131.825 Y97.118 E2.73094
G1 X132.18 Y97.167 E2.74881
G1 X132.844 Y97.27 E2.78234
G1 X133.162 Y97.324 E2.79843
G1 X134.06 Y97.492 E2.84401
G1 X134.386 Y97.558 E2.8606
G1 X135.074 Y97.705 E2.8957
G1 X135.455 Y97.793 E2.91521
G1 X135.69 Y97.852 E2.9273
G1 X136.077 Y97.957 E2.9473
G1 X136.363 Y98.04 E2.96216
G1 X136.727 Y98.152 E2.98116
G1 X137.562 Y98.426 E3.02501
G1 X137.935 Y98.556 E3.04471
G1 X138.601 Y98.822 E3.08049
G1 X139.067 Y99.026 E3.10587
G1 X139.91 Y99.439 E3.1527
G1 X140.504 Y99.786 E3.18703
G1 X140.735 Y99.931 E3.20063
G1 X141.1 Y100.169 E3.22237
G1 X141.857 Y100.722 E3.26914
G1 X142.362 Y101.151 E3.3022
G1 X142.615 Y101.379 E3.31919
G1 X143.284 Y102.036 E3.36597
G1 X143.895 Y102.747 E3.41274
G1 X144.5 Y103.595 E3.46471
G1 X144.679 Y103.873 E3.48121
G1 X145.152 Y104.682 E3.52796
G1 X145.555 Y105.529 E3.57476
G1 X145.885 Y106.407 E3.62155
G1 X146.138 Y107.31 E3.66834
G1 X146.304 Y108.167 E3.71189
G1 X146.335 Y108.37 E3.72214
G1 X146.437 Y109.303 E3.76896
G1 X146.459 Y110.24 E3.81572
G1 X146.401 Y111.176 E3.86251
G1 X146.264 Y112.104 E3.90931
G1 X145.994 Y113.201 E3.96567
G1 X145.932 Y113.407 E3.9764
G1 X145.624 Y114.293 E4.0232
G1 X145.241 Y115.149 E4.06999
G1 X144.752 Y116.027 E4.12012
G1 X144.7 Y116.111 E4.12505
G1 X143.945 Y117.181 E4.19039
G1 X143.795 Y117.369 E4.20239
G1 X143.18 Y118.077 E4.24917
G1 X142.372 Y118.847 E4.30486
G1 X142.286 Y118.921 E4.31052
G1 X141.852 Y119.275 E4.33846
G1 X141.607 Y119.465 E4.35393
G1 X140.575 Y120.176 E4.41645
G1 X140.463 Y120.244 E4.42299
G1 X139.517 Y120.756 E4.47665
G1 X139.134 Y120.94 E4.49785
G1 X138.214 Y121.332 E4.54774
G1 X137.624 Y121.552 E4.57916
G1 X136.905 Y121.792 E4.61698
G1 X136.098 Y122.031 E4.65897
G1 X135.753 Y122.127 E4.67683
G1 X135.527 Y122.186 E4.68848
G1 X135.163 Y122.275 E4.70718
G1 X134.843 Y122.347 E4.72354
G1 X134.592 Y122.4 E4.73634
G1 X133.869 Y122.544 E4.77312
G1 X133.189 Y122.671 E4.80763
G1 X132.865 Y122.727 E4.82404
G1 X132.275 Y122.819 E4.85383
G1 X131.919 Y122.868 E4.87176
G1 X129.945 Y123.11 E4.97098
G1 X129.573 Y123.149 E4.98964
G1 X128.125 Y123.276 E5.06216
G1 X127.823 Y123.297 E5.07726
G1 X126.229 Y123.391 E5.15692
G1 X124.423 Y123.469 E5.24711
G1 X122.629 Y123.518 E5.33665
G1 X120.502 Y123.542 E5.44277
G1 X119.181 Y123.54 E5.50867
G1 X116.866 Y123.51 E5.62418
G1 X115.955 Y123.49 E5.66964
G1 X113.418 Y123.412 E5.79627
G1 X112.599 Y123.379 E5.83716
G1 X110.062 Y123.263 E5.96387
G1 X109.128 Y123.212 E6.01053
G1 X103.588 Y122.869 E6.28746
G1 X102.538 Y122.796 E6.33997
G1 X96.775 Y122.338 E6.62839
G1 X96.041 Y122.274 E6.66515
G1 X90.216 Y121.73 E6.95702
G1 X89.324 Y121.639 E7.00176
G1 X84.05 Y121.066 E7.26643
G1 X83.207 Y120.963 E7.3088
G1 X82.282 Y120.81 E7.35557
G1 X81.373 Y120.578 E7.40238
G1 X80.487 Y120.27 E7.44917
G1 X79.631 Y119.887 E7.49596
G1 X78.81 Y119.433 E7.54276
G1 X78.032 Y118.91 E7.58953
G1 X77.3 Y118.323 E7.63635
G1 X76.621 Y117.676 E7.68314
G1 X76 Y116.973 E7.72993
G1 X75.441 Y116.22 E7.77672
G1 X74.948 Y115.422 E7.82352
G1 X74.525 Y114.585 E7.87031
G1 X74.174 Y113.715 E7.91711
G1 X73.899 Y112.819 E7.96387
G1 X73.702 Y111.902 E8.01066
G1 X73.583 Y110.972 E8.05744
G1 X73.55 Y110.411 E8.08548
G1 X73.547 Y110.321 E8.08997
G1 X73.556 Y109.384 E8.13672
G1 X73.644 Y108.45 E8.18352
G1 X73.812 Y107.527 E8.23033
G1 X74.058 Y106.622 E8.27712
G1 X74.38 Y105.741 E8.32391
G1 X74.776 Y104.891 E8.3707
G1 X75.243 Y104.078 E8.41747
G1 X75.777 Y103.307 E8.46426
G1 X76.375 Y102.585 E8.51104
G1 X77.033 Y101.916 E8.55785
G1 X77.745 Y101.305 E8.60466
G0 F6000 X78.139 Y101.506
G1 F1200 X78.897 Y100.983 E8.6506
G1 X79.696 Y100.527 E8.6965
G1 X80.533 Y100.142 E8.74246
G1 X81.399 Y99.831 E8.78837
G1 X82.29 Y99.597 E8.83433
G1 X83.249 Y99.434 E8.88286
G1 X84.139 Y99.326 E8.92759
G1 X89.449 Y98.75 E9.19406
G1 X90.361 Y98.658 E9.23979
G1 X96.132 Y98.119 E9.52896
G1 X96.848 Y98.057 E9.56482
G1 X102.691 Y97.596 E9.85723
G1 X103.517 Y97.537 E9.89854
G1 X109.299 Y97.179 E10.18756
G1 X110.144 Y97.133 E10.22978
G1 X112.746 Y97.014 E10.35973
G1 X113.505 Y96.986 E10.39762
G1 X115.965 Y96.91 E10.52041
G1 X117.032 Y96.887 E10.57366
G1 X119.295 Y96.86 E10.68657
G1 X120.506 Y96.858 E10.74698
G1 X122.451 Y96.879 E10.84403
G1 X124.242 Y96.925 E10.93341
G1 X126.032 Y97 E11.02279
G1 X126.211 Y97.009 E11.03173
G1 X127.925 Y97.111 E11.1174
G1 X128.236 Y97.134 E11.13295
G1 X129.605 Y97.256 E11.20152
G1 X129.946 Y97.292 E11.21863
G1 X131.776 Y97.515 E11.31061
G1 X132.119 Y97.562 E11.32788
G1 X132.783 Y97.665 E11.3614
G1 X133.089 Y97.717 E11.37689
G1 X133.982 Y97.884 E11.42221
G1 X134.303 Y97.949 E11.43855
G1 X134.991 Y98.096 E11.47365
G1 X135.357 Y98.181 E11.4924
G1 X135.592 Y98.24 E11.50448
G1 X135.965 Y98.341 E11.52376
G1 X136.251 Y98.424 E11.53862
G1 X136.602 Y98.532 E11.55694
G1 X137.437 Y98.806 E11.60079
G1 X137.799 Y98.932 E11.61991
G1 X138.441 Y99.189 E11.65441
G1 X138.907 Y99.393 E11.67979
G1 X139.733 Y99.798 E11.72568
G1 X140.291 Y100.125 E11.75795
G1 X140.522 Y100.27 E11.77156
G1 X140.878 Y100.502 E11.79276
G1 X141.621 Y101.046 E11.8387
G1 X142.094 Y101.448 E11.86967
G1 X142.347 Y101.676 E11.88666
G1 X143.004 Y102.321 E11.93259
G1 X143.602 Y103.021 E11.97853
G1 X144.163 Y103.811 E12.02687
G1 X144.342 Y104.089 E12.04336
G1 X144.807 Y104.884 E12.08931
G1 X145.2 Y105.717 E12.13526
G1 X145.52 Y106.58 E12.18118
G1 X145.764 Y107.468 E12.22713
G1 X145.909 Y108.228 E12.26573
G1 X145.94 Y108.431 E12.27597
G1 X146.039 Y109.346 E12.32189
G1 X146.058 Y110.267 E12.36785
G1 X145.998 Y111.185 E12.41374
G1 X145.858 Y112.095 E12.45968
G1 X145.611 Y113.086 E12.51063
G1 X145.549 Y113.292 E12.52136
G1 X145.246 Y114.161 E12.56728
G1 X144.868 Y115.001 E12.61323
G1 X144.412 Y115.816 E12.65983
G1 X144.36 Y115.9 E12.66476
G1 X143.633 Y116.932 E12.72773
G1 X143.483 Y117.12 E12.73973
G1 X142.878 Y117.814 E12.78567
G1 X142.111 Y118.544 E12.83849
G1 X142.025 Y118.618 E12.84415
G1 X141.607 Y118.959 E12.87107
G1 X141.362 Y119.149 E12.88654
G1 X140.367 Y119.834 E12.9468
G1 X140.255 Y119.902 E12.95334
G1 X139.344 Y120.396 E13.00504
G1 X138.961 Y120.58 E13.02624
G1 X138.074 Y120.957 E13.07432
G1 X137.484 Y121.177 E13.10574
G1 X136.791 Y121.409 E13.1422
G1 X135.984 Y121.648 E13.18419
G1 X135.652 Y121.74 E13.20138
G1 X135.426 Y121.799 E13.21303
G1 X135.075 Y121.884 E13.23105
G1 X134.514 Y122.008 E13.25971
G1 X133.796 Y122.151 E13.29624
G1 X133.116 Y122.278 E13.33075
G1 X132.803 Y122.331 E13.34659
G1 X132.213 Y122.423 E13.37638
G1 X131.87 Y122.471 E13.39366
G1 X129.896 Y122.713 E13.49288
G1 X129.538 Y122.751 E13.51084
G1 X128.096 Y122.877 E13.58305
G1 X127.799 Y122.898 E13.59791
G1 X126.205 Y122.992 E13.67757
G1 X124.406 Y123.069 E13.76741
G1 X122.618 Y123.118 E13.85664
G1 X120.627 Y123.141 E13.95598
G1 X119.315 Y123.141 E14.02144
G1 X116.874 Y123.11 E14.14323
G1 X115.967 Y123.09 E14.18849
G1 X113.433 Y123.012 E14.31497
G1 X112.617 Y122.98 E14.35571
G1 X110.084 Y122.863 E14.48222
G1 X109.153 Y122.813 E14.52873
G1 X103.53 Y122.464 E14.80981
G1 X102.57 Y122.397 E14.85782
G1 X96.81 Y121.94 E15.14609
G1 X96.079 Y121.876 E15.1827
G1 X90.256 Y121.332 E15.47447
G1 X89.367 Y121.241 E15.51906
G1 X83.949 Y120.651 E15.79096
G1 X83.255 Y120.566 E15.82584
G1 X82.347 Y120.415 E15.87177
G1 X81.456 Y120.185 E15.91767
G1 X80.587 Y119.879 E15.96364
G1 X79.749 Y119.499 E16.00954
G1 X78.947 Y119.047 E16.05547
G1 X78.187 Y118.527 E16.10142
G1 X77.475 Y117.944 E16.14733
G1 X76.816 Y117.3 E16.1933
G1 X76.216 Y116.602 E16.23922
G1 X75.678 Y115.855 E16.28514
G1 X75.207 Y115.064 E16.33107
G1 X74.807 Y114.235 E16.377
G1 X74.48 Y113.374 E16.42295
G1 X74.229 Y112.488 E16.46889
G1 X74.056 Y111.584 E16.51481
G1 X73.95 Y110.398 E16.57421
G1 X73.947 Y110.308 E16.5787
G1 X73.956 Y109.388 E16.62461
G1 X74.045 Y108.471 E16.67057
G1 X74.214 Y107.566 E16.7165
G1 X74.46 Y106.679 E16.76242
G1 X74.782 Y105.817 E16.80833
G1 X75.178 Y104.985 E16.8543
G1 X75.645 Y104.192 E16.90022
G1 X76.178 Y103.441 E16.94616
G1 X76.775 Y102.74 E16.9921
G1 X77.43 Y102.094 E17.038
G1 X78.139 Y101.506 E17.08395
G0 F6000 X78.533 Y101.712
G1 F1200 X79.286 Y101.213 E17.12902
G1 X80.079 Y100.783 E17.17402
G1 X80.908 Y100.424 E17.21909
G1 X81.765 Y100.14 E17.26414
G1 X82.645 Y99.933 E17.30924
G1 X83.298 Y99.831 E17.34221
G1 X84.182 Y99.723 E17.38664
G1 X89.49 Y99.148 E17.65301
G1 X90.398 Y99.056 E17.69854
G1 X96.167 Y98.517 E17.98761
G1 X96.879 Y98.456 E18.02326
G1 X102.719 Y97.995 E18.31553
G1 X103.542 Y97.937 E18.35669
G1 X109.32 Y97.578 E18.64551
G1 X110.163 Y97.533 E18.68763
G1 X112.761 Y97.414 E18.81738
G1 X113.517 Y97.386 E18.85512
G1 X115.974 Y97.309 E18.97776
G1 X117.037 Y97.287 E19.03081
G1 X119.296 Y97.26 E19.14352
G1 X120.507 Y97.258 E19.20393
G1 X122.447 Y97.279 E19.30073
G1 X124.231 Y97.325 E19.38976
G1 X124.396 Y97.33 E19.39799
G1 X126.015 Y97.399 E19.47884
G1 X127.901 Y97.51 E19.5731
G1 X128.2 Y97.532 E19.58805
G1 X129.569 Y97.654 E19.65662
G1 X129.898 Y97.689 E19.67313
G1 X131.728 Y97.912 E19.7651
G1 X132.058 Y97.958 E19.78173
G1 X132.722 Y98.061 E19.81525
G1 X133.016 Y98.111 E19.83013
G1 X133.903 Y98.276 E19.87514
G1 X134.219 Y98.34 E19.89123
G1 X134.907 Y98.487 E19.92633
G1 X135.26 Y98.569 E19.94441
G1 X135.495 Y98.628 E19.95649
G1 X135.854 Y98.725 E19.97505
G1 X136.14 Y98.808 E19.9899
G1 X136.477 Y98.912 E20.0075
G1 X137.312 Y99.186 E20.05134
G1 X137.662 Y99.308 E20.06984
G1 X138.28 Y99.555 E20.10304
G1 X138.746 Y99.759 E20.12842
G1 X139.557 Y100.158 E20.17351
G1 X140.079 Y100.464 E20.2037
G1 X140.31 Y100.609 E20.2173
G1 X140.656 Y100.835 E20.23792
G1 X141.384 Y101.369 E20.28297
G1 X141.826 Y101.745 E20.31192
G1 X142.079 Y101.973 E20.32891
G1 X142.723 Y102.607 E20.374
G1 X143.308 Y103.295 E20.41905
G1 X143.827 Y104.028 E20.46386
G1 X144.006 Y104.306 E20.48035
G1 X144.461 Y105.086 E20.52541
G1 X144.845 Y105.904 E20.57049
G1 X145.155 Y106.752 E20.61553
G1 X145.389 Y107.624 E20.66058
G1 X145.513 Y108.288 E20.69428
G1 X145.544 Y108.491 E20.70452
G1 X145.641 Y109.389 E20.74958
G1 X145.658 Y110.292 E20.79464
G1 X145.595 Y111.193 E20.8397
G1 X145.452 Y112.085 E20.88477
G1 X145.228 Y112.971 E20.93037
G1 X145.166 Y113.177 E20.9411
G1 X144.868 Y114.029 E20.98613
G1 X144.495 Y114.852 E21.03121
G1 X144.072 Y115.606 E21.07434
G1 X144.02 Y115.69 E21.07927
G1 X143.32 Y116.683 E21.13989
G1 X143.17 Y116.871 E21.15189
G1 X142.576 Y117.551 E21.19693
G1 X141.85 Y118.241 E21.2469
G1 X141.764 Y118.315 E21.25256
G1 X141.362 Y118.643 E21.27845
G1 X141.117 Y118.833 E21.29391
G1 X140.16 Y119.492 E21.35188
G1 X140.048 Y119.56 E21.35842
G1 X139.171 Y120.035 E21.40818
G1 X138.788 Y120.219 E21.42938
G1 X137.935 Y120.582 E21.47563
G1 X137.345 Y120.802 E21.50704
G1 X136.677 Y121.025 E21.54218
G1 X135.87 Y121.264 E21.58417
G1 X135.55 Y121.353 E21.60074
G1 X135.324 Y121.412 E21.61239
G1 X134.987 Y121.494 E21.6297
G1 X134.435 Y121.616 E21.6579
G1 X133.723 Y121.758 E21.69412
G1 X133.043 Y121.885 E21.72863
G1 X132.742 Y121.936 E21.74386
G1 X132.152 Y122.028 E21.77365
G1 X131.821 Y122.074 E21.79033
G1 X129.847 Y122.316 E21.88955
G1 X129.503 Y122.352 E21.9068
G1 X128.067 Y122.478 E21.97872
G1 X127.775 Y122.498 E21.99332
G1 X126.014 Y122.601 E22.08133
G1 X124.389 Y122.67 E22.16247
G1 X122.608 Y122.718 E22.25136
G1 X120.623 Y122.741 E22.3504
G1 X119.315 Y122.741 E22.41566
G1 X116.883 Y122.71 E22.537
G1 X115.979 Y122.69 E22.58211
G1 X113.449 Y122.612 E22.70839
G1 X112.635 Y122.58 E22.74903
G1 X110.105 Y122.464 E22.87539
G1 X109.178 Y122.414 E22.92171
G1 X103.558 Y122.065 E23.20263
G1 X102.601 Y121.998 E23.25049
G1 X96.844 Y121.541 E23.53861
G1 X96.116 Y121.478 E23.57507
G1 X90.297 Y120.934 E23.86664
G1 X89.41 Y120.843 E23.91113
G1 X83.998 Y120.254 E24.18273
G1 X83.304 Y120.169 E24.21761
G1 X82.413 Y120.02 E24.26268
G1 X81.539 Y119.792 E24.30774
G1 X80.689 Y119.488 E24.35278
G1 X79.869 Y119.11 E24.39783
G1 X79.085 Y118.661 E24.4429
G1 X78.344 Y118.145 E24.48795
G1 X77.652 Y117.565 E24.533
G1 X77.014 Y116.926 E24.57805
G1 X76.435 Y116.233 E24.6231
G1 X75.92 Y115.491 E24.66816
G1 X75.472 Y114.707 E24.71321
G1 X75.095 Y113.886 E24.75828
G1 X74.792 Y113.035 E24.80335
G1 X74.566 Y112.161 E24.84839
G1 X74.418 Y111.27 E24.89345
G1 X74.35 Y110.385 E24.93773
G1 X74.347 Y110.295 E24.94223
G1 X74.357 Y109.392 E24.98728
G1 X74.446 Y108.493 E25.03235
G1 X74.615 Y107.606 E25.0774
G1 X74.862 Y106.737 E25.12247
G1 X75.184 Y105.894 E25.16749
G1 X75.58 Y105.082 E25.21256
G1 X76.046 Y104.308 E25.25764
G1 X76.579 Y103.579 E25.30269
G1 X77.174 Y102.9 E25.34773
G1 X77.827 Y102.276 E25.39279
G1 X78.533 Y101.712 E25.43788
G1 F3600 E20.43788
;MESH:Canard V2.STL
G0 F6000 X87.648 Y108.94
G0 X87.763 Y110
G0 X89.597 Y110
;TYPE:WALL-INNER
G1 F3600 E25.43788
G1 F1200 X90.973 Y109.85 E25.50693
G1 X91.007 Y109.846 E25.50864
G1 X91.495 Y109.801 E25.53309
G1 X97.421 Y109.247 E25.83003
G1 X103.849 Y108.739 E26.15172
G1 X110.276 Y108.34 E26.47298
G1 X113.498 Y108.192 E26.6339
G1 X116.697 Y108.092 E26.79358
G1 X119.926 Y108.052 E26.95468
G1 X123.126 Y108.087 E27.11434
G1 X126.352 Y108.224 E27.27543
G1 X127.931 Y108.342 E27.35443
G1 X129.524 Y108.506 E27.43432
G1 X131.084 Y108.726 E27.51292
G1 X132.623 Y109.034 E27.59123
G1 X133.388 Y109.245 E27.63082
G1 X134.079 Y109.487 E27.66735
G1 X134.376 Y109.624 E27.68366
G1 X134.609 Y109.775 E27.69752
G1 X134.667 Y109.813 E27.70097
G1 X134.845 Y110.002 E27.71393
G1 X134.778 Y110.089 E27.71941
G1 X134.724 Y110.132 E27.72285
G1 X134.518 Y110.295 E27.73596
G1 X134.39 Y110.37 E27.74336
G1 X134.079 Y110.513 E27.76043
G1 X133.388 Y110.755 E27.79696
G1 X132.62 Y110.967 E27.83671
G1 X131.098 Y111.27 E27.91413
G1 X129.53 Y111.495 E27.99316
G1 X127.931 Y111.658 E28.07335
G1 X126.352 Y111.776 E28.15235
G1 X123.126 Y111.913 E28.31344
G1 X119.913 Y111.948 E28.47374
G1 X116.715 Y111.907 E28.63331
G1 X113.498 Y111.808 E28.79388
G1 X110.276 Y111.661 E28.95479
G1 X103.887 Y111.266 E29.27415
G1 X97.421 Y110.754 E29.59775
G1 X91.495 Y110.198 E29.8947
G1 X91.007 Y110.153 E29.91634
G1 X90.975 Y110.15 E29.91755
G1 X89.597 Y110 E29.94383
G1 F3600 E24.94383
G0 F6000 X87.763 Y110
G0 X85.887 Y110
;TYPE:WALL-OUTER
G1 F3600 E29.94383
G1 F1200 X90.964 Y109.449 E30.19861
G1 X97.389 Y108.848 E30.52055
G1 X103.817 Y108.34 E30.84224
G1 X110.258 Y107.94 E31.16421
G1 X113.48 Y107.792 E31.32512
G1 X116.685 Y107.692 E31.4851
G1 X119.925 Y107.652 E31.64675
G1 X123.143 Y107.687 E31.80731
G1 X126.369 Y107.824 E31.9684
G1 X127.966 Y107.943 E32.0483
G1 X129.568 Y108.108 E32.12864
G1 X131.15 Y108.331 E32.20835
G1 X132.721 Y108.646 E32.28829
G1 X133.494 Y108.859 E32.32829
G1 X134.23 Y109.117 E32.3672
G1 X134.575 Y109.276 E32.38615
G1 X134.911 Y109.494 E32.40613
