;FLAVOR:Marlin
;TIME:2322
;Filament used: 1.16527m
;Layer height: 0.2
;MINX:72.077
;MINY:75.89
;MINZ:0.3
;MAXX:124.285
;MAXY:128.098
;MAXZ:9.1
;Generated with Creality Slicer 4.8.2-191
M140 S60
M105
M190 S60
M104 S220
M105
M109 S220
M82 ;absolute extrusion mode

G28 ;Home

G92 E0 ;Reset Extruder
G1 Z2.0 F3000 ;Move Z Axis up
G1 X10.1 Y20 Z0.28 F5000.0 ;Move to start position
G1 X10.1 Y200.0 Z0.28 F1500.0 E15 ;Draw the first line
G1 X10.4 Y200.0 Z0.28 F5000.0 ;Move to side a little
G1 X10.4 Y20 Z0.28 F1500.0 E30 ;Draw the second line
G92 E0 ;Reset Extruder
G1 Z2.0 F3000 ;Move Z Axis up

G92 E0
G92 E0
G1 F3600 E-5
;LAYER_COUNT:45
;LAYER:0
M107
G0 F6000 X79.89 Y83.365 Z0.3
;TYPE:SKIRT
G1 F3600 E0
G1 F1200 X80.483 Y82.803 E0.04076
G1 X81.143 Y82.221 E0.08466
G1 X81.372 Y82.024 E0.09973
G1 X81.758 Y81.702 E0.12481
G1 X82.02 Y81.49 E0.14163
G1 X82.237 Y81.32 E0.15538
G1 X82.768 Y80.929 E0.18828
G1 X83.061 Y80.727 E0.20603
G1 X83.39 Y80.492 E0.2262
G1 X83.661 Y80.305 E0.24263
G1 X84.174 Y79.962 E0.27342
G1 X84.745 Y79.604 E0.30704
G1 X84.889 Y79.52 E0.31536
G1 X85.109 Y79.396 E0.32796
G1 X85.657 Y79.093 E0.3592
G1 X85.873 Y78.976 E0.37145
G1 X86.472 Y78.662 E0.40519
G1 X86.886 Y78.455 E0.42829
G1 X87.17 Y78.321 E0.44395
G1 X87.478 Y78.181 E0.46083
G1 X87.768 Y78.054 E0.47663
G1 X88.113 Y77.909 E0.4953
G1 X88.845 Y77.615 E0.53465
G1 X89.159 Y77.495 E0.55142
G1 X89.433 Y77.395 E0.56598
G1 X90.037 Y77.194 E0.59773
G1 X90.562 Y77.036 E0.62509
G1 X90.756 Y76.975 E0.63523
G1 X91.087 Y76.876 E0.65247
G1 X91.66 Y76.715 E0.68216
G1 X92.167 Y76.586 E0.70826
G1 X92.358 Y76.542 E0.71804
G1 X92.747 Y76.459 E0.73789
G1 X93.339 Y76.345 E0.76796
G1 X93.564 Y76.304 E0.77937
G1 X94.248 Y76.187 E0.81399
G1 X94.722 Y76.116 E0.83791
G1 X95.024 Y76.078 E0.85309
G1 X95.355 Y76.041 E0.86971
G1 X95.633 Y76.014 E0.88364
G1 X96.232 Y75.964 E0.91363
G1 X96.654 Y75.936 E0.93473
G1 X97.04 Y75.917 E0.95401
G1 X97.747 Y75.895 E0.9893
G1 X98.156 Y75.89 E1.00971
G1 X98.505 Y75.894 E1.02712
G1 X99.048 Y75.908 E1.05422
G1 X99.816 Y75.939 E1.09257
G1 X100.409 Y75.979 E1.12222
G1 X100.652 Y76.002 E1.1344
G1 X101.004 Y76.041 E1.15207
G1 X101.554 Y76.111 E1.17973
G1 X102.34 Y76.224 E1.21934
G1 X102.67 Y76.277 E1.23602
G1 X102.953 Y76.327 E1.25036
G1 X103.203 Y76.374 E1.26305
G1 X103.507 Y76.435 E1.27852
G1 X103.926 Y76.528 E1.29993
G1 X104.389 Y76.64 E1.32369
G1 X104.828 Y76.752 E1.3463
G1 X105.172 Y76.846 E1.36409
G1 X105.779 Y77.022 E1.39562
G1 X106.167 Y77.142 E1.41588
G1 X106.599 Y77.287 E1.43862
G1 X107.095 Y77.463 E1.46487
G1 X107.779 Y77.715 E1.50124
G1 X108.371 Y77.953 E1.53307
G1 X108.527 Y78.021 E1.54156
G1 X108.812 Y78.15 E1.55717
G1 X109.38 Y78.417 E1.58848
G1 X110.242 Y78.841 E1.63641
G1 X110.959 Y79.228 E1.67706
G1 X111.688 Y79.658 E1.71928
G1 X111.975 Y79.834 E1.73608
G1 X112.464 Y80.143 E1.76494
G1 X112.712 Y80.304 E1.77969
G1 X112.9 Y80.43 E1.79098
G1 X113.413 Y80.796 E1.82242
G1 X113.827 Y81.109 E1.84831
G1 X114.006 Y81.241 E1.85941
G1 X114.309 Y81.473 E1.87845
G1 X114.821 Y81.878 E1.91102
G1 X115.263 Y82.246 E1.93971
G1 X115.396 Y82.363 E1.94855
G1 X115.608 Y82.555 E1.96282
G1 X115.923 Y82.848 E1.98428
G1 X116.337 Y83.241 E2.01276
G1 X116.811 Y83.705 E2.04585
G1 X117.357 Y84.28 E2.08541
G1 X117.945 Y84.945 E2.1297
G1 X118.153 Y85.187 E2.14562
G1 X118.464 Y85.56 E2.16985
G1 X118.659 Y85.801 E2.18532
G1 X118.84 Y86.031 E2.19992
G1 X119.246 Y86.581 E2.23402
G1 X119.448 Y86.874 E2.25178
G1 X119.683 Y87.203 E2.27195
G1 X119.868 Y87.47 E2.28815
G1 X120.21 Y87.981 E2.31883
G1 X120.574 Y88.565 E2.35316
G1 X120.783 Y88.929 E2.3741
G1 X121.188 Y89.666 E2.41606
G1 X121.508 Y90.275 E2.45038
G1 X121.72 Y90.699 E2.47403
G1 X121.848 Y90.969 E2.48894
G1 X121.968 Y91.232 E2.50336
G1 X122.084 Y91.496 E2.51775
G1 X122.217 Y91.809 E2.53471
G1 X122.306 Y92.026 E2.54642
G1 X122.578 Y92.706 E2.58295
G1 X122.711 Y93.054 E2.60154
G1 X122.793 Y93.281 E2.61358
G1 X122.981 Y93.851 E2.64353
G1 X123.139 Y94.376 E2.67088
G1 X123.2 Y94.57 E2.68103
G1 X123.298 Y94.897 E2.69806
G1 X123.457 Y95.462 E2.72734
G1 X123.59 Y95.984 E2.75421
G1 X123.648 Y96.237 E2.76716
G1 X123.712 Y96.538 E2.78252
G1 X123.779 Y96.876 E2.79971
G1 X123.893 Y97.488 E2.83077
G1 X123.966 Y97.922 E2.85272
G1 X124.022 Y98.31 E2.87228
G1 X124.126 Y99.138 E2.91391
G1 X124.169 Y99.533 E2.93374
G1 X124.191 Y99.78 E2.94611
G1 X124.211 Y100.046 E2.95942
G1 X124.242 Y100.525 E2.98336
G1 X124.26 Y100.891 E3.00165
G1 X124.28 Y101.53 E3.03354
G1 X124.285 Y101.931 E3.05355
G1 X124.281 Y102.318 E3.07286
G1 X124.267 Y102.861 E3.09996
G1 X124.236 Y103.629 E3.1383
G1 X124.196 Y104.222 E3.16796
G1 X124.173 Y104.465 E3.18013
G1 X124.134 Y104.815 E3.1977
G1 X124.041 Y105.537 E3.23402
G1 X123.943 Y106.215 E3.2682
G1 X123.874 Y106.636 E3.28948
G1 X123.814 Y106.961 E3.30597
G1 X123.755 Y107.252 E3.32078
G1 X123.632 Y107.804 E3.349
G1 X123.568 Y108.069 E3.3626
G1 X123.427 Y108.625 E3.39122
G1 X123.331 Y108.98 E3.40956
G1 X123.155 Y109.588 E3.44114
G1 X123.034 Y109.979 E3.46156
G1 X122.887 Y110.418 E3.48466
G1 X122.688 Y110.975 E3.51417
G1 X122.458 Y111.597 E3.54725
G1 X122.252 Y112.115 E3.57507
G1 X122.195 Y112.248 E3.58228
G1 X122.063 Y112.544 E3.59845
G1 X121.857 Y112.986 E3.62278
G1 X121.661 Y113.393 E3.64532
G1 X121.314 Y114.094 E3.68434
G1 X120.924 Y114.814 E3.7252
G1 X120.52 Y115.497 E3.76479
G1 X120.357 Y115.764 E3.78039
G1 X120.084 Y116.197 E3.80593
G1 X119.903 Y116.474 E3.82244
G1 X119.701 Y116.774 E3.84048
G1 X119.444 Y117.14 E3.86279
G1 X119.287 Y117.352 E3.87596
G1 X119.125 Y117.565 E3.88931
G1 X118.996 Y117.74 E3.90015
G1 X118.78 Y118.023 E3.91791
G1 X118.283 Y118.653 E3.95795
G1 X117.85 Y119.168 E3.99152
G1 X117.639 Y119.402 E4.00724
G1 X117.287 Y119.78 E4.033
G1 X116.951 Y120.131 E4.05725
G1 X116.447 Y120.647 E4.09323
G1 X115.994 Y121.085 E4.12467
G1 X115.799 Y121.263 E4.13784
G1 X115.603 Y121.438 E4.15095
G1 X115.257 Y121.739 E4.17383
G1 X115.07 Y121.898 E4.18608
G1 X114.589 Y122.298 E4.21729
G1 X114.354 Y122.488 E4.23236
G1 X114.139 Y122.657 E4.24601
G1 X113.594 Y123.059 E4.27979
G1 X113.322 Y123.247 E4.29629
G1 X112.977 Y123.493 E4.31743
G1 X112.708 Y123.679 E4.33375
G1 X112.194 Y124.023 E4.3646
G1 X111.61 Y124.387 E4.39893
G1 X111.253 Y124.592 E4.41947
G1 X110.705 Y124.895 E4.45071
G1 X110.489 Y125.012 E4.46297
G1 X109.89 Y125.326 E4.49671
G1 X109.476 Y125.533 E4.5198
G1 X109.192 Y125.667 E4.53547
G1 X108.928 Y125.787 E4.54994
G1 X108.392 Y126.019 E4.57908
G1 X108.141 Y126.123 E4.59263
G1 X107.462 Y126.394 E4.6291
G1 X107.152 Y126.513 E4.64567
G1 X106.96 Y126.583 E4.65587
G1 X106.388 Y126.774 E4.68595
G1 X105.805 Y126.951 E4.71635
G1 X105.621 Y127.009 E4.72597
G1 X105.291 Y127.108 E4.74316
G1 X104.672 Y127.282 E4.77524
G1 X104.069 Y127.433 E4.80626
G1 X103.647 Y127.523 E4.82778
G1 X103.217 Y127.608 E4.84965
G1 X102.792 Y127.685 E4.8712
G1 X102.104 Y127.803 E4.90602
G1 X101.66 Y127.87 E4.92843
G1 X101.353 Y127.909 E4.94387
G1 X101.022 Y127.946 E4.96048
G1 X100.772 Y127.971 E4.97302
G1 X100.4 Y128.004 E4.99165
G1 X100.124 Y128.025 E5.00546
G1 X99.635 Y128.056 E5.0299
G1 X99.283 Y128.073 E5.04749
G1 X98.644 Y128.093 E5.07938
G1 X98.245 Y128.098 E5.09929
G1 X97.827 Y128.094 E5.12014
G1 X97.276 Y128.079 E5.14764
G1 X96.576 Y128.052 E5.18259
G1 X95.945 Y128.009 E5.21415
G1 X95.49 Y127.963 E5.23696
G1 X95.077 Y127.913 E5.25772
G1 X94.613 Y127.851 E5.28107
G1 X94.022 Y127.765 E5.31087
G1 X93.692 Y127.712 E5.32754
G1 X93.409 Y127.662 E5.34188
G1 X93.159 Y127.615 E5.35457
G1 X92.855 Y127.554 E5.37004
G1 X92.441 Y127.463 E5.39119
G1 X92.02 Y127.36 E5.41281
G1 X91.248 Y127.161 E5.45259
G1 X90.613 Y126.976 E5.48558
G1 X89.901 Y126.746 E5.52291
G1 X89.619 Y126.651 E5.53776
G1 X89.263 Y126.525 E5.5566
G1 X88.616 Y126.288 E5.59097
G1 X87.957 Y126.022 E5.62643
G1 X87.615 Y125.868 E5.64514
G1 X87.158 Y125.656 E5.67028
G1 X86.775 Y125.472 E5.69147
G1 X86.096 Y125.136 E5.72927
G1 X85.384 Y124.75 E5.76968
G1 X84.686 Y124.338 E5.81011
G1 X84.4 Y124.164 E5.82682
G1 X83.919 Y123.86 E5.8552
G1 X83.619 Y123.663 E5.87311
G1 X83.367 Y123.492 E5.8883
G1 X82.885 Y123.146 E5.9179
G1 X82.039 Y122.504 E5.97089
G1 X81.541 Y122.111 E6.00254
G1 X81.047 Y121.698 E6.03466
G1 X80.736 Y121.417 E6.05557
G1 X80.423 Y121.125 E6.07693
G1 X80.041 Y120.761 E6.10325
G1 X79.564 Y120.296 E6.13649
G1 X78.993 Y119.696 E6.17781
G1 X78.409 Y119.034 E6.22185
G1 X78.213 Y118.805 E6.23689
G1 X77.89 Y118.418 E6.26204
G1 X77.659 Y118.132 E6.28038
G1 X77.493 Y117.919 E6.29385
G1 X77.127 Y117.421 E6.32469
G1 X76.979 Y117.207 E6.33767
G1 X76.684 Y116.794 E6.36299
G1 X76.5 Y116.527 E6.37917
G1 X76.167 Y116.03 E6.40901
G1 X75.807 Y115.456 E6.44282
G1 X75.589 Y115.079 E6.46454
G1 X75.366 Y114.678 E6.48744
G1 X75.161 Y114.298 E6.50898
G1 X74.848 Y113.702 E6.54256
G1 X74.64 Y113.286 E6.56577
G1 X74.501 Y112.992 E6.58199
G1 X74.359 Y112.678 E6.59918
G1 X74.242 Y112.409 E6.61382
G1 X74.086 Y112.038 E6.6339
G1 X73.798 Y111.32 E6.67249
G1 X73.705 Y111.08 E6.68533
G1 X73.612 Y110.83 E6.69864
G1 X73.387 Y110.159 E6.73395
G1 X73.221 Y109.605 E6.7628
G1 X73.162 Y109.419 E6.77254
G1 X73.057 Y109.067 E6.79086
G1 X72.881 Y108.436 E6.82355
G1 X72.732 Y107.837 E6.85434
G1 X72.641 Y107.406 E6.87632
G1 X72.567 Y107.027 E6.89558
G1 X72.468 Y106.494 E6.92263
G1 X72.426 Y106.252 E6.93488
G1 X72.337 Y105.705 E6.96253
G1 X72.273 Y105.259 E6.98501
G1 X72.224 Y104.814 E7.00735
G1 X72.169 Y104.195 E7.03835
G1 X72.143 Y103.85 E7.05561
G1 X72.119 Y103.474 E7.07441
G1 X72.102 Y103.107 E7.09274
G1 X72.082 Y102.448 E7.12563
G1 X72.077 Y102.065 E7.14474
G1 X72.082 Y101.582 E7.16884
G1 X72.095 Y101.136 E7.1911
G1 X72.125 Y100.371 E7.22929
G1 X72.167 Y99.75 E7.26035
G1 X72.194 Y99.469 E7.27443
G1 X72.235 Y99.111 E7.29241
G1 X72.325 Y98.426 E7.32688
G1 X72.406 Y97.864 E7.35521
G1 X72.456 Y97.544 E7.37136
G1 X72.509 Y97.24 E7.38676
G1 X72.565 Y96.944 E7.40179
G1 X72.625 Y96.648 E7.41686
G1 X72.714 Y96.25 E7.4372
G1 X72.826 Y95.787 E7.46097
G1 X72.938 Y95.348 E7.48357
G1 X73.032 Y95.004 E7.50136
G1 X73.208 Y94.397 E7.53289
G1 X73.323 Y94.024 E7.55237
G1 X73.475 Y93.57 E7.57625
G1 X73.62 Y93.16 E7.59795
G1 X73.907 Y92.384 E7.63923
G1 X74.134 Y91.818 E7.66965
G1 X74.197 Y91.673 E7.67754
G1 X74.314 Y91.414 E7.69172
G1 X74.525 Y90.96 E7.71669
G1 X74.694 Y90.609 E7.73613
G1 X75.03 Y89.928 E7.77402
G1 X75.429 Y89.191 E7.81583
G1 X75.857 Y88.468 E7.85774
G1 X76.02 Y88.202 E7.87331
G1 X76.326 Y87.717 E7.90192
G1 X76.491 Y87.463 E7.91703
G1 X76.617 Y87.275 E7.92832
G1 X76.888 Y86.889 E7.95185
G1 X77.043 Y86.68 E7.96483
G1 X77.314 Y86.323 E7.98719
G1 X77.428 Y86.169 E7.99675
G1 X77.66 Y85.866 E8.01579
G1 X78.065 Y85.354 E8.04836
G1 X78.433 Y84.912 E8.07706
G1 X78.55 Y84.779 E8.08589
G1 X78.752 Y84.556 E8.1009
G1 X79.105 Y84.177 E8.12674
G1 X79.421 Y83.845 E8.14961
G1 X79.89 Y83.365 E8.18309
G0 F6000 X80.176 Y83.645
G1 F1200 X80.747 Y83.103 E8.22237
G1 X81.407 Y82.521 E8.26627
G1 X81.628 Y82.331 E8.28081
G1 X82.014 Y82.009 E8.30589
G1 X82.267 Y81.805 E8.3221
G1 X82.484 Y81.635 E8.33586
G1 X82.995 Y81.258 E8.36754
G1 X83.313 Y81.038 E8.38683
G1 X83.622 Y80.818 E8.40575
G1 X83.883 Y80.637 E8.4216
G1 X84.396 Y80.294 E8.45239
G1 X84.947 Y79.95 E8.48479
G1 X85.303 Y79.746 E8.50526
G1 X85.851 Y79.443 E8.5365
G1 X86.059 Y79.331 E8.54829
G1 X86.658 Y79.017 E8.58203
G1 X86.919 Y78.884 E8.59665
G1 X87.062 Y78.814 E8.60459
G1 X87.336 Y78.685 E8.6197
G1 X87.644 Y78.545 E8.63658
G1 X87.923 Y78.423 E8.65177
G1 X88.438 Y78.208 E8.67961
G1 X88.993 Y77.986 E8.70943
G1 X89.296 Y77.87 E8.72562
G1 X89.57 Y77.77 E8.74017
G1 X90.152 Y77.577 E8.77076
G1 X90.669 Y77.422 E8.79769
G1 X90.877 Y77.356 E8.80858
G1 X91.196 Y77.261 E8.82518
G1 X91.769 Y77.1 E8.85488
G1 X92.256 Y76.976 E8.87995
G1 X92.447 Y76.932 E8.88973
G1 X92.823 Y76.852 E8.90891
G1 X93.415 Y76.738 E8.93898
G1 X94.316 Y76.582 E8.9846
G1 X94.635 Y76.532 E9.00071
G1 X94.778 Y76.512 E9.00792
G1 X95.068 Y76.476 E9.0225
G1 X95.399 Y76.439 E9.03911
G1 X95.667 Y76.412 E9.05255
G1 X96.258 Y76.363 E9.08214
G1 X96.68 Y76.335 E9.10324
G1 X97.052 Y76.317 E9.12182
G1 X97.759 Y76.295 E9.15711
G1 X98.153 Y76.29 E9.17677
G1 X98.496 Y76.294 E9.19388
G1 X99.032 Y76.308 E9.22063
G1 X99.8 Y76.339 E9.25898
G1 X100.371 Y76.377 E9.28753
G1 X100.614 Y76.4 E9.29971
G1 X100.953 Y76.438 E9.31672
G1 X101.691 Y76.533 E9.35385
G1 X102.282 Y76.619 E9.38364
G1 X102.6 Y76.671 E9.39972
G1 X103.124 Y76.766 E9.42629
G1 X103.428 Y76.827 E9.44176
G1 X103.832 Y76.916 E9.46239
G1 X104.29 Y77.028 E9.48592
G1 X104.729 Y77.14 E9.50852
G1 X105.061 Y77.23 E9.52568
G1 X105.668 Y77.406 E9.55721
G1 X106.041 Y77.522 E9.5767
G1 X106.466 Y77.665 E9.59907
G1 X106.956 Y77.839 E9.62501
G1 X107.64 Y78.091 E9.66138
G1 X108.212 Y78.32 E9.69212
G1 X108.368 Y78.388 E9.70061
G1 X108.641 Y78.512 E9.71557
G1 X109.395 Y78.868 E9.75717
G1 X110.065 Y79.199 E9.79445
G1 X110.755 Y79.573 E9.83361
G1 X111.484 Y80.003 E9.87583
G1 X111.761 Y80.172 E9.89202
G1 X112.25 Y80.481 E9.92088
G1 X112.489 Y80.637 E9.93512
G1 X112.677 Y80.763 E9.94641
G1 X113.172 Y81.115 E9.97671
G1 X113.589 Y81.431 E10.00282
G1 X113.769 Y81.563 E10.01395
G1 X114.061 Y81.786 E10.03228
G1 X114.573 Y82.191 E10.06485
G1 X114.998 Y82.546 E10.09248
G1 X115.336 Y82.848 E10.11509
G1 X115.648 Y83.139 E10.13638
G1 X116.057 Y83.527 E10.1645
G1 X116.531 Y83.991 E10.1976
G1 X117.057 Y84.545 E10.23571
G1 X117.645 Y85.21 E10.28
G1 X117.845 Y85.443 E10.29532
G1 X118.156 Y85.816 E10.31954
G1 X118.345 Y86.049 E10.33451
G1 X118.526 Y86.279 E10.34911
G1 X118.917 Y86.808 E10.38193
G1 X119.135 Y87.124 E10.40109
G1 X119.357 Y87.435 E10.42015
G1 X119.535 Y87.692 E10.43575
G1 X119.877 Y88.203 E10.46642
G1 X120.229 Y88.766 E10.49955
G1 X120.433 Y89.122 E10.52002
G1 X120.73 Y89.66 E10.55068
G1 X120.833 Y89.852 E10.56155
G1 X121.153 Y90.461 E10.59587
G1 X121.291 Y90.732 E10.61104
G1 X121.484 Y91.135 E10.63334
G1 X121.604 Y91.398 E10.64776
G1 X121.716 Y91.653 E10.66165
G1 X121.935 Y92.174 E10.68985
G1 X122.207 Y92.854 E10.72639
G1 X122.334 Y93.19 E10.74431
G1 X122.416 Y93.417 E10.75635
G1 X122.598 Y93.966 E10.78521
G1 X122.753 Y94.483 E10.81213
G1 X122.819 Y94.691 E10.82302
G1 X122.913 Y95.006 E10.83942
G1 X123.072 Y95.571 E10.8687
G1 X123.2 Y96.073 E10.89455
G1 X123.258 Y96.326 E10.9075
G1 X123.32 Y96.616 E10.92229
G1 X123.386 Y96.949 E10.93923
G1 X123.5 Y97.561 E10.97029
G1 X123.572 Y97.986 E10.99179
G1 X123.625 Y98.36 E11.01064
G1 X123.729 Y99.188 E11.05227
G1 X123.77 Y99.569 E11.07139
G1 X123.812 Y100.071 E11.09652
G1 X123.843 Y100.55 E11.12047
G1 X123.86 Y100.903 E11.1381
G1 X123.88 Y101.542 E11.17
G1 X123.885 Y101.929 E11.18931
G1 X123.881 Y102.309 E11.20827
G1 X123.867 Y102.845 E11.23502
G1 X123.836 Y103.613 E11.27336
G1 X123.798 Y104.184 E11.30191
G1 X123.775 Y104.427 E11.31409
G1 X123.737 Y104.765 E11.33106
G1 X123.645 Y105.479 E11.36698
G1 X123.547 Y106.157 E11.40115
G1 X123.48 Y106.568 E11.42193
G1 X123.422 Y106.881 E11.43781
G1 X123.363 Y107.172 E11.45262
G1 X123.31 Y107.417 E11.46513
G1 X123.242 Y107.716 E11.48043
G1 X123.181 Y107.971 E11.49351
G1 X123.04 Y108.527 E11.52213
G1 X122.947 Y108.868 E11.53976
G1 X122.771 Y109.476 E11.57134
G1 X122.654 Y109.854 E11.59108
G1 X122.509 Y110.284 E11.61372
G1 X122.313 Y110.836 E11.64294
G1 X122.083 Y111.458 E11.67603
G1 X121.884 Y111.958 E11.70288
G1 X121.827 Y112.091 E11.7101
G1 X121.7 Y112.375 E11.72562
G1 X121.496 Y112.814 E11.74977
G1 X121.303 Y113.215 E11.77197
G1 X120.956 Y113.916 E11.81099
G1 X120.579 Y114.611 E11.85044
G1 X120.175 Y115.294 E11.89003
G1 X120.019 Y115.55 E11.90499
G1 X119.746 Y115.983 E11.93052
G1 X119.572 Y116.25 E11.94642
G1 X119.37 Y116.55 E11.96447
G1 X119.12 Y116.906 E11.98617
G1 X118.969 Y117.11 E11.99883
G1 X118.797 Y117.336 E12.013
G1 X118.674 Y117.503 E12.02335
G1 X118.466 Y117.775 E12.04043
G1 X117.969 Y118.405 E12.08047
G1 X117.552 Y118.902 E12.11283
G1 X117.346 Y119.13 E12.12816
G1 X116.997 Y119.504 E12.15368
G1 X116.665 Y119.852 E12.17768
G1 X116.161 Y120.368 E12.21367
G1 X115.724 Y120.79 E12.24397
G1 X115.529 Y120.968 E12.25715
G1 X115.34 Y121.136 E12.26976
G1 X114.815 Y121.59 E12.30439
G1 X114.334 Y121.99 E12.3356
G1 X114.107 Y122.174 E12.35018
G1 X113.892 Y122.343 E12.36382
