;FLAVOR:Marlin
;TIME:10511
;Filament used: 5.3176m
;Layer height: 0.2
;MINX:72.061
;MINY:72.057
;MINZ:0.3
;MAXX:147.943
;MAXY:147.939
;MAXZ:42.1
;Generated with Creality Slicer 4.8.2-191
M140 S60
M105
M190 S60
M104 S220
M105
M109 S220
M82 ;absolute extrusion mode

G28 ;Home

G92 E0 ;Reset Extruder
G1 Z2.0 F3000 ;Move Z Axis up
G1 X10.1 Y20 Z0.28 F5000.0 ;Move to start position
G1 X10.1 Y200.0 Z0.28 F1500.0 E15 ;Draw the first line
G1 X10.4 Y200.0 Z0.28 F5000.0 ;Move to side a little
G1 X10.4 Y20 Z0.28 F1500.0 E30 ;Draw the second line
G92 E0 ;Reset Extruder
G1 Z2.0 F3000 ;Move Z Axis up

G92 E0
G92 E0
G1 F3600 E-5
;LAYER_COUNT:211
;LAYER:0
M107
G0 F6000 X78.675 Y79.094 Z0.3
;TYPE:SKIRT
G1 F3600 E0
G1 F1200 X79.579 Y78.195 E0.06361
G1 X79.874 Y77.934 E0.08326
G1 X80.092 Y77.746 E0.09762
G1 X80.803 Y77.151 E0.14387
G1 X81.355 Y76.703 E0.17934
G1 X82.37 Y75.971 E0.24177
G1 X82.685 Y75.77 E0.26042
G1 X82.945 Y75.609 E0.27567
G1 X83.715 Y75.149 E0.32042
G1 X84.365 Y74.772 E0.35791
G1 X85.48 Y74.207 E0.42027
G1 X85.702 Y74.11 E0.43236
G1 X85.975 Y73.995 E0.44714
G1 X86.924 Y73.612 E0.49819
G1 X87.587 Y73.354 E0.53369
G1 X88.811 Y72.958 E0.59787
G1 X89.119 Y72.878 E0.61375
G1 X89.403 Y72.809 E0.62833
G1 X90.378 Y72.584 E0.67825
G1 X91.078 Y72.434 E0.71396
G1 X92.312 Y72.242 E0.77627
G1 X92.68 Y72.206 E0.79472
G1 X92.992 Y72.18 E0.81034
G1 X93.729 Y72.129 E0.84719
G1 X94.63 Y72.079 E0.89221
G1 X94.947 Y72.066 E0.90804
G1 X95.358 Y72.058 E0.92855
G1 X95.868 Y72.057 E0.95399
G1 X124.673 Y72.324 E2.39114
G1 X125.515 Y72.343 E2.43316
G1 X125.819 Y72.354 E2.44834
G1 X126.258 Y72.38 E2.47028
G1 X126.814 Y72.423 E2.4981
G1 X127.575 Y72.491 E2.53622
G1 X128.265 Y72.563 E2.57083
G1 X129.473 Y72.758 E2.63188
G1 X129.784 Y72.826 E2.64776
G1 X130.114 Y72.904 E2.66468
G1 X131.049 Y73.139 E2.71277
G1 X131.712 Y73.314 E2.74699
G1 X132.89 Y73.697 E2.80878
G1 X133.173 Y73.807 E2.82393
G1 X133.478 Y73.931 E2.84036
G1 X134.371 Y74.31 E2.88876
G1 X135.038 Y74.604 E2.92512
G1 X136.181 Y75.19 E2.9892
G1 X136.497 Y75.376 E3.0075
G1 X136.748 Y75.529 E3.02216
G1 X137.587 Y76.055 E3.07157
G1 X138.146 Y76.417 E3.10479
G1 X139.142 Y77.144 E3.16631
G1 X139.392 Y77.349 E3.18244
G1 X139.62 Y77.541 E3.19731
G1 X140.204 Y78.047 E3.23586
G1 X140.906 Y78.675 E3.28286
G1 X141.794 Y79.566 E3.34562
G1 X142.015 Y79.815 E3.36223
G1 X142.006 Y79.823 E3.36283
G1 X142.229 Y80.06 E3.37906
G1 X142.849 Y80.803 E3.42734
G1 X143.297 Y81.355 E3.46281
G1 X144.004 Y82.331 E3.52293
G1 X144.165 Y82.581 E3.53777
G1 X144.347 Y82.873 E3.55494
G1 X144.837 Y83.691 E3.60251
G1 X145.224 Y84.357 E3.64094
G1 X145.793 Y85.48 E3.70374
G1 X145.89 Y85.702 E3.71583
G1 X146.005 Y85.975 E3.73061
G1 X146.391 Y86.932 E3.78209
G1 X146.648 Y87.594 E3.81752
G1 X147.034 Y88.786 E3.88003
G1 X147.115 Y89.095 E3.89597
G1 X147.191 Y89.403 E3.9118
G1 X147.416 Y90.378 E3.96172
G1 X147.566 Y91.078 E3.99743
G1 X147.757 Y92.309 E4.05958
G1 X147.793 Y92.676 E4.07798
G1 X147.82 Y92.992 E4.0938
G1 X147.88 Y93.876 E4.13801
G1 X147.921 Y94.612 E4.17478
G1 X147.935 Y94.954 E4.19186
G1 X147.942 Y95.358 E4.21202
G1 X147.943 Y95.869 E4.23751
G1 X147.673 Y124.91 E5.68644
G1 X147.656 Y125.723 E5.72701
G1 X147.644 Y126.048 E5.74323
G1 X147.63 Y126.325 E5.75707
G1 X147.581 Y126.945 E5.7881
G1 X147.481 Y127.876 E5.83481
G1 X147.438 Y128.226 E5.8524
G1 X147.341 Y128.919 E5.88732
G1 X147.17 Y129.845 E5.9343
G1 X147.067 Y130.29 E5.95708
G1 X146.992 Y130.588 E5.97241
G1 X146.833 Y131.185 E6.00324
G1 X146.641 Y131.872 E6.03882
G1 X146.397 Y132.637 E6.07889
G1 X146.334 Y132.812 E6.08816
G1 X146.192 Y133.183 E6.10798
G1 X146.025 Y133.598 E6.1303
G1 X145.819 Y134.092 E6.157
G1 X145.537 Y134.745 E6.19249
G1 X145.151 Y135.546 E6.23685
G1 X144.932 Y135.951 E6.25982
G1 X144.652 Y136.444 E6.28811
G1 X144.429 Y136.824 E6.31009
G1 X144.056 Y137.444 E6.34619
G1 X143.557 Y138.2 E6.39138
G1 X143.308 Y138.538 E6.41232
G1 X142.884 Y139.089 E6.44701
G1 X142.601 Y139.447 E6.46978
G1 X142.221 Y139.919 E6.50001
G1 X141.976 Y140.213 E6.5191
G1 X141.35 Y140.887 E6.56499
G1 X140.735 Y141.494 E6.6081
G1 X140.518 Y141.701 E6.62307
G1 X139.957 Y142.225 E6.66136
G1 X139.281 Y142.806 E6.70584
G1 X138.951 Y143.062 E6.72667
G1 X138.446 Y143.438 E6.75808
G1 X137.992 Y143.767 E6.78606
G1 X137.451 Y144.148 E6.81907
G1 X136.407 Y144.798 E6.88042
G1 X135.672 Y145.2 E6.92222
G1 X135.228 Y145.434 E6.94726
G1 X134.669 Y145.72 E6.97858
G1 X133.531 Y146.223 E7.04066
G1 X132.701 Y146.534 E7.08488
G1 X132.285 Y146.682 E7.10691
G1 X131.633 Y146.905 E7.14129
G1 X130.453 Y147.236 E7.20243
G1 X129.713 Y147.4 E7.24024
G1 X129.161 Y147.513 E7.26835
G1 X128.452 Y147.647 E7.30435
G1 X127.249 Y147.806 E7.36489
G1 X126.397 Y147.87 E7.40752
G1 X125.982 Y147.894 E7.42826
G1 X125.579 Y147.912 E7.44838
G1 X125.221 Y147.922 E7.46625
G1 X123.896 Y147.938 E7.53236
G1 X123.661 Y147.939 E7.54408
G1 X95.09 Y147.673 E8.96956
G1 X94.276 Y147.656 E9.01018
G1 X93.949 Y147.644 E9.0265
G1 X93.673 Y147.63 E9.04029
G1 X93.05 Y147.58 E9.07147
G1 X92.105 Y147.478 E9.11889
G1 X91.747 Y147.434 E9.13689
G1 X91.06 Y147.337 E9.1715
G1 X90.121 Y147.163 E9.21915
G1 X89.883 Y147.108 E9.23133
G1 X89.594 Y147.036 E9.24619
G1 X88.801 Y146.828 E9.28709
G1 X88.078 Y146.625 E9.32456
G1 X87.239 Y146.353 E9.36856
G1 X87.101 Y146.302 E9.3759
G1 X86.817 Y146.192 E9.3911
G1 X86.402 Y146.025 E9.41341
G1 X85.906 Y145.818 E9.44023
G1 X85.251 Y145.535 E9.47583
G1 X84.455 Y145.152 E9.5199
G1 X84.039 Y144.927 E9.54349
G1 X83.545 Y144.645 E9.57187
G1 X83.18 Y144.43 E9.593
G1 X82.561 Y144.058 E9.62903
G1 X81.8 Y143.557 E9.67449
G1 X81.462 Y143.308 E9.69543
G1 X80.911 Y142.884 E9.73012
G1 X80.553 Y142.601 E9.75289
G1 X80.081 Y142.221 E9.78312
G1 X79.703 Y141.903 E9.80776
G1 X79.106 Y141.343 E9.8486
G1 X78.506 Y140.735 E9.89122
G1 X78.3 Y140.519 E9.90611
G1 X77.774 Y139.956 E9.94455
G1 X77.17 Y139.252 E9.99083
G1 X76.934 Y138.946 E10.01011
G1 X76.529 Y138.402 E10.04394
G1 X76.228 Y137.984 E10.06964
G1 X75.848 Y137.444 E10.10258
G1 X75.197 Y136.4 E10.16396
G1 X74.8 Y135.672 E10.20533
G1 X74.555 Y135.206 E10.2316
G1 X74.263 Y134.632 E10.26373
G1 X73.769 Y133.51 E10.32489
G1 X73.457 Y132.675 E10.36936
G1 X73.316 Y132.278 E10.39038
G1 X73.091 Y131.619 E10.42512
G1 X72.758 Y130.431 E10.48668
G1 X72.561 Y129.53 E10.53269
G1 X72.487 Y129.158 E10.55161
G1 X72.353 Y128.448 E10.58766
G1 X72.194 Y127.249 E10.648
G1 X72.13 Y126.4 E10.69048
G1 X72.106 Y125.982 E10.71137
G1 X72.088 Y125.578 E10.73154
G1 X72.078 Y125.221 E10.74936
G1 X72.062 Y123.897 E10.81542
G1 X72.061 Y123.662 E10.82714
G1 X72.324 Y95.327 E12.24084
G1 X72.343 Y94.478 E12.28321
G1 X72.357 Y94.123 E12.30094
G1 X72.38 Y93.75 E12.31958
G1 X72.424 Y93.174 E12.3484
G1 X72.491 Y92.428 E12.38577
G1 X72.563 Y91.737 E12.42043
G1 X72.757 Y90.533 E12.48127
G1 X72.827 Y90.212 E12.49766
G1 X72.905 Y89.879 E12.51473
G1 X73.141 Y88.942 E12.56293
G1 X73.318 Y88.274 E12.59741
G1 X73.705 Y87.088 E12.65965
G1 X73.814 Y86.809 E12.67459
G1 X73.934 Y86.515 E12.69044
G1 X74.312 Y85.627 E12.73859
G1 X74.607 Y84.958 E12.77506
G1 X75.189 Y83.821 E12.83879
G1 X75.373 Y83.508 E12.8569
G1 X75.529 Y83.252 E12.87186
G1 X76.061 Y82.403 E12.92184
G1 X76.431 Y81.833 E12.95575
G1 X77.167 Y80.829 E13.01785
G1 X77.363 Y80.591 E13.03324
G1 X77.541 Y80.38 E13.04701
G1 X78.048 Y79.795 E13.08563
G1 X78.675 Y79.094 E13.13255
G0 F6000 X78.972 Y79.36
G1 F1200 X79.844 Y78.494 E13.19387
G1 X80.139 Y78.233 E13.21352
G1 X80.349 Y78.052 E13.22735
G1 X80.921 Y77.572 E13.2646
G1 X81.607 Y77.014 E13.30872
G1 X82.585 Y76.308 E13.3689
G1 X82.9 Y76.107 E13.38754
G1 X83.15 Y75.952 E13.40221
G1 X83.782 Y75.573 E13.43898
G1 X84.566 Y75.118 E13.4842
G1 X85.64 Y74.574 E13.54427
G1 X85.862 Y74.477 E13.55635
G1 X86.125 Y74.366 E13.5706
G1 X87.069 Y73.985 E13.62138
G1 X87.732 Y73.727 E13.65688
G1 X88.911 Y73.345 E13.71871
G1 X89.219 Y73.265 E13.73458
G1 X89.493 Y73.198 E13.74866
G1 X90.462 Y72.975 E13.79826
G1 X91.162 Y72.825 E13.83398
G1 X92.351 Y72.64 E13.89401
G1 X92.719 Y72.604 E13.91246
G1 X93.019 Y72.579 E13.92748
G1 X93.906 Y72.519 E13.97183
G1 X94.652 Y72.478 E14.00911
G1 X95.11 Y72.462 E14.03197
G1 X95.359 Y72.458 E14.04439
G1 X95.864 Y72.457 E14.06959
G1 X124.669 Y72.724 E15.50674
G1 X125.505 Y72.743 E15.54846
G1 X125.955 Y72.762 E15.57093
G1 X126.227 Y72.779 E15.58452
G1 X126.779 Y72.822 E15.61215
G1 X127.533 Y72.889 E15.64991
G1 X128.223 Y72.961 E15.68452
G1 X129.387 Y73.149 E15.74335
G1 X129.698 Y73.217 E15.75923
G1 X130.017 Y73.291 E15.77557
G1 X130.947 Y73.526 E15.82342
G1 X131.61 Y73.701 E15.85763
G1 X132.745 Y74.07 E15.91718
G1 X133.028 Y74.18 E15.93233
G1 X133.322 Y74.3 E15.94817
G1 X134.209 Y74.676 E15.99623
G1 X134.876 Y74.97 E16.0326
G1 X135.978 Y75.535 E16.09438
G1 X136.294 Y75.721 E16.11268
G1 X136.536 Y75.868 E16.1268
G1 X137.37 Y76.391 E16.17592
G1 X137.929 Y76.753 E16.20914
G1 X138.888 Y77.453 E16.26838
G1 X139.138 Y77.658 E16.28451
G1 X139.358 Y77.844 E16.29888
G1 X140.074 Y78.465 E16.34616
G1 X140.64 Y78.972 E16.38407
G1 X141.495 Y79.832 E16.44457
G1 X141.716 Y80.081 E16.46118
G1 X141.708 Y80.088 E16.46172
G1 X141.922 Y80.317 E16.47735
G1 X142.538 Y81.055 E16.52531
G1 X142.986 Y81.607 E16.56078
G1 X143.668 Y82.548 E16.61876
G1 X143.829 Y82.798 E16.63359
G1 X144.004 Y83.079 E16.65011
G1 X144.491 Y83.892 E16.69739
G1 X144.878 Y84.558 E16.73582
G1 X145.426 Y85.64 E16.79633
G1 X145.523 Y85.862 E16.80842
G1 X145.634 Y86.125 E16.82266
G1 X146.018 Y87.077 E16.87387
G1 X146.275 Y87.739 E16.9093
G1 X146.648 Y88.887 E16.96952
G1 X146.729 Y89.196 E16.98546
G1 X146.802 Y89.493 E17.00072
G1 X147.025 Y90.462 E17.05033
G1 X147.175 Y91.162 E17.08604
G1 X147.359 Y92.348 E17.14592
G1 X147.395 Y92.715 E17.16432
G1 X147.421 Y93.019 E17.17954
G1 X147.481 Y93.898 E17.22349
G1 X147.522 Y94.634 E17.26027
G1 X147.535 Y94.964 E17.27675
G1 X147.542 Y95.359 E17.29646
G1 X147.543 Y95.865 E17.3217
G1 X147.273 Y124.902 E18.77043
G1 X147.256 Y125.715 E18.811
G1 X147.244 Y126.028 E18.82662
G1 X147.23 Y126.305 E18.84046
G1 X147.183 Y126.902 E18.87034
G1 X147.083 Y127.833 E18.91705
G1 X147.042 Y128.17 E18.93399
G1 X146.945 Y128.863 E18.9689
G1 X146.781 Y129.756 E19.0142
G1 X146.679 Y130.193 E19.03658
G1 X146.605 Y130.486 E19.05166
G1 X146.448 Y131.077 E19.08217
G1 X146.256 Y131.764 E19.11776
G1 X146.02 Y132.501 E19.15636
G1 X145.957 Y132.676 E19.16564
G1 X145.821 Y133.034 E19.18475
G1 X145.656 Y133.444 E19.2068
G1 X145.451 Y133.934 E19.2333
G1 X145.169 Y134.587 E19.26879
G1 X144.798 Y135.359 E19.31152
G1 X144.584 Y135.754 E19.33393
G1 X144.306 Y136.242 E19.36195
G1 X144.086 Y136.617 E19.38364
G1 X143.713 Y137.237 E19.41974
G1 X143.232 Y137.967 E19.46335
G1 X142.99 Y138.295 E19.48369
G1 X142.57 Y138.841 E19.51806
G1 X142.29 Y139.196 E19.54061
G1 X141.91 Y139.668 E19.57084
G1 X141.672 Y139.954 E19.58941
G1 X141.068 Y140.603 E19.63364
G1 X140.458 Y141.205 E19.6764
G1 X140.245 Y141.408 E19.69108
G1 X139.684 Y141.932 E19.72938
G1 X139.033 Y142.493 E19.77225
G1 X138.712 Y142.742 E19.79252
G1 X138.332 Y143.026 E19.81619
G1 X137.761 Y143.44 E19.85137
G1 X137.22 Y143.821 E19.88438
G1 X136.215 Y144.448 E19.94348
G1 X135.628 Y144.77 E19.97688
G1 X135.046 Y145.078 E20.00974
G1 X134.487 Y145.364 E20.04106
G1 X133.391 Y145.848 E20.10084
G1 X132.566 Y146.157 E20.14479
G1 X132.155 Y146.304 E20.16657
G1 X131.503 Y146.527 E20.20094
G1 X130.367 Y146.846 E20.25981
G1 X129.627 Y147.01 E20.29763
G1 X129.087 Y147.12 E20.32512
G1 X128.378 Y147.254 E20.36112
G1 X127.218 Y147.407 E20.41949
G1 X126.372 Y147.471 E20.46182
G1 X125.964 Y147.494 E20.48221
G1 X125.561 Y147.512 E20.50233
G1 X125.216 Y147.522 E20.51955
G1 X123.891 Y147.538 E20.58566
G1 X123.665 Y147.539 E20.59694
G1 X95.099 Y147.273 E22.02216
G1 X94.285 Y147.256 E22.06278
G1 X93.969 Y147.244 E22.07856
G1 X93.693 Y147.23 E22.09235
G1 X93.092 Y147.183 E22.12242
G1 X92.147 Y147.081 E22.16984
G1 X91.803 Y147.038 E22.18714
G1 X91.116 Y146.941 E22.22175
G1 X90.211 Y146.773 E22.26767
G1 X89.973 Y146.718 E22.27986
G1 X89.694 Y146.649 E22.2942
G1 X89.109 Y146.497 E22.32435
G1 X88.91 Y146.443 E22.33464
G1 X88.187 Y146.24 E22.37211
G1 X87.378 Y145.978 E22.41453
G1 X87.24 Y145.927 E22.42187
G1 X86.966 Y145.821 E22.43653
G1 X86.556 Y145.656 E22.45858
G1 X86.065 Y145.451 E22.48512
G1 X85.41 Y145.168 E22.52072
G1 X84.643 Y144.799 E22.56319
G1 X84.237 Y144.579 E22.58622
G1 X83.747 Y144.299 E22.61438
G1 X83.386 Y144.088 E22.63524
G1 X82.767 Y143.716 E22.67127
G1 X82.033 Y143.232 E22.71513
G1 X81.705 Y142.99 E22.73547
G1 X81.159 Y142.57 E22.76984
G1 X80.804 Y142.29 E22.79239
G1 X80.332 Y141.91 E22.82263
G1 X79.966 Y141.602 E22.84649
G1 X79.39 Y141.062 E22.88588
G1 X78.916 Y140.583 E22.9195
G1 X78.592 Y140.245 E22.94286
G1 X78.066 Y139.682 E22.9813
G1 X77.484 Y139.004 E23.02588
G1 X77.254 Y138.706 E23.04466
G1 X76.853 Y138.167 E23.07818
G1 X76.555 Y137.754 E23.10358
G1 X76.175 Y137.214 E23.13653
G1 X75.548 Y136.208 E23.19567
G1 X75.228 Y135.624 E23.22889
G1 X74.911 Y135.024 E23.26274
G1 X74.619 Y134.45 E23.29487
G1 X74.143 Y133.369 E23.3538
G1 X73.833 Y132.54 E23.39796
G1 X73.695 Y132.149 E23.41864
G1 X73.47 Y131.49 E23.45339
G1 X73.149 Y130.345 E23.51271
G1 X72.953 Y129.45 E23.55842
G1 X72.88 Y129.084 E23.57704
G1 X72.746 Y128.374 E23.61309
G1 X72.593 Y127.219 E23.67122
G1 X72.529 Y126.375 E23.71344
G1 X72.506 Y125.964 E23.73398
G1 X72.488 Y125.56 E23.75416
G1 X72.478 Y125.216 E23.77133
G1 X72.462 Y123.892 E23.83739
G1 X72.461 Y123.666 E23.84866
G1 X72.724 Y95.331 E25.26236
G1 X72.743 Y94.487 E25.30448
G1 X72.756 Y94.145 E25.32155
G1 X72.779 Y93.78 E25.3398
G1 X72.823 Y93.209 E25.36837
G1 X72.889 Y92.469 E25.40544
G1 X72.961 Y91.778 E25.4401
G1 X73.147 Y90.619 E25.49866
G1 X73.217 Y90.298 E25.51505
G1 X73.293 Y89.976 E25.53156
G1 X73.528 Y89.044 E25.57951
G1 X73.705 Y88.376 E25.61399
G1 X74.078 Y87.234 E25.67392
G1 X74.187 Y86.955 E25.68887
G1 X74.302 Y86.671 E25.70415
G1 X74.678 Y85.788 E25.75203
G1 X74.973 Y85.119 E25.78851
G1 X75.534 Y84.024 E25.84989
G1 X75.718 Y83.711 E25.86801
G1 X75.868 Y83.464 E25.88242
G1 X76.397 Y82.621 E25.93208
G1 X76.767 Y82.051 E25.96598
G1 X77.476 Y81.084 E26.0258
G1 X77.672 Y80.846 E26.04118
G1 X77.844 Y80.642 E26.0545
G1 X78.465 Y79.926 E26.10178
G1 X78.972 Y79.36 E26.13969
G0 F6000 X79.27 Y79.627
G1 F1200 X80.109 Y78.794 E26.19868
G1 X80.404 Y78.533 E26.21833
G1 X80.606 Y78.359 E26.23163
G1 X81.307 Y77.772 E26.27724
G1 X81.859 Y77.324 E26.31271
G1 X82.8 Y76.645 E26.3706
G1 X83.115 Y76.444 E26.38925
G1 X83.356 Y76.295 E26.40338
G1 X84.116 Y75.841 E26.44755
G1 X84.766 Y75.464 E26.48504
G1 X85.8 Y74.94 E26.54287
G1 X86.022 Y74.843 E26.55496
G1 X86.275 Y74.737 E26.56864
G1 X87.214 Y74.357 E26.61918
G1 X87.877 Y74.099 E26.65467
G1 X89.012 Y73.733 E26.71417
G1 X89.32 Y73.653 E26.73005
G1 X89.583 Y73.588 E26.74356
G1 X90.546 Y73.366 E26.79287
G1 X91.246 Y73.216 E26.82858
G1 X92.39 Y73.038 E26.88634
G1 X92.758 Y73.002 E26.90479
G1 X93.047 Y72.978 E26.91926
G1 X93.928 Y72.918 E26.96331
G1 X94.674 Y72.877 E27.00059
G1 X94.967 Y72.865 E27.01522
G1 X95.36 Y72.858 E27.03483
G1 X95.861 Y72.857 E27.05982
G1 X124.666 Y73.124 E28.49697
G1 X125.496 Y73.143 E28.53839
G1 X125.778 Y73.153 E28.55247
G1 X126.197 Y73.178 E28.57341
G1 X126.744 Y73.22 E28.60078
G1 X127.492 Y73.287 E28.63825
G1 X128.182 Y73.359 E28.67286
G1 X129.302 Y73.539 E28.72945
G1 X129.613 Y73.607 E28.74534
G1 X129.919 Y73.679 E28.76102
G1 X130.845 Y73.913 E28.80867
G1 X131.508 Y74.088 E28.84288
G1 X132.6 Y74.443 E28.90017
G1 X132.883 Y74.553 E28.91531
G1 X133.166 Y74.668 E28.93055
G1 X134.048 Y75.042 E28.97835
G1 X134.715 Y75.336 E29.01472
G1 X135.775 Y75.88 E29.07416
G1 X136.091 Y76.066 E29.09245
G1 X136.324 Y76.207 E29.10604
G1 X137.152 Y76.726 E29.15479
G1 X137.711 Y77.088 E29.18802
G1 X138.635 Y77.763 E29.24511
G1 X138.885 Y77.968 E29.26124
G1 X139.096 Y78.146 E29.27501
G1 X139.807 Y78.763 E29.32197
G1 X140.373 Y79.27 E29.35988
G1 X141.196 Y80.097 E29.41809
G1 X141.417 Y80.346 E29.4347
G1 X141.409 Y80.353 E29.43523
G1 X141.615 Y80.574 E29.45031
G1 X142.228 Y81.307 E29.49798
G1 X142.676 Y81.859 E29.53345
G1 X143.332 Y82.764 E29.58921
G1 X143.493 Y83.014 E29.60405
G1 X143.661 Y83.285 E29.61995
