;FLAVOR:Marlin
;TIME:6043
;Filament used: 3.38564m
;Layer height: 0.2
;MINX:59.9
;MINY:96.316
;MINZ:0.3
;MAXX:159.603
;MAXY:125.451
;MAXZ:78.7
;Generated with Creality Slicer 4.8.2-191
M140 S60
M105
M190 S60
M104 S220
M105
M109 S220
M82 ;absolute extrusion mode

G28 ;Home

G92 E0 ;Reset Extruder
G1 Z2.0 F3000 ;Move Z Axis up
G1 X10.1 Y20 Z0.28 F5000.0 ;Move to start position
G1 X10.1 Y200.0 Z0.28 F1500.0 E15 ;Draw the first line
G1 X10.4 Y200.0 Z0.28 F5000.0 ;Move to side a little
G1 X10.4 Y20 Z0.28 F1500.0 E30 ;Draw the second line
G92 E0 ;Reset Extruder
G1 Z2.0 F3000 ;Move Z Axis up

G92 E0
G92 E0
G1 F3600 E-5
;LAYER_COUNT:393
;LAYER:0
M107
G0 F6000 X78.546 Y103.517 Z0.3
;TYPE:SKIRT
G1 F3600 E0
G1 F1200 X79.565 Y102.79 E0.06245
G1 X79.852 Y102.609 E0.07938
G1 X80.762 Y102.094 E0.13154
G1 X81.364 Y101.79 E0.16519
G1 X82.034 Y101.479 E0.20204
G1 X82.816 Y101.148 E0.24441
G1 X83.141 Y101.017 E0.26189
G1 X83.33 Y100.944 E0.272
G1 X83.652 Y100.825 E0.28912
G1 X83.957 Y100.718 E0.30525
G1 X84.245 Y100.621 E0.32041
G1 X84.795 Y100.445 E0.34922
G1 X85.618 Y100.195 E0.39213
G1 X85.907 Y100.111 E0.40715
G1 X86.569 Y99.93 E0.44139
G1 X86.934 Y99.837 E0.46018
G1 X88.795 Y99.396 E0.5556
G1 X89.139 Y99.321 E0.57316
G1 X90.603 Y99.025 E0.64768
G1 X90.864 Y98.977 E0.66092
G1 X92.491 Y98.697 E0.74328
G1 X94.305 Y98.414 E0.83488
G1 X95.971 Y98.182 E0.9188
G1 X98.046 Y97.925 E1.02311
G1 X99.392 Y97.775 E1.09068
G1 X101.774 Y97.539 E1.2101
G1 X102.661 Y97.46 E1.25453
G1 X105.223 Y97.253 E1.38276
G1 X106.002 Y97.196 E1.42173
G1 X108.562 Y97.028 E1.54973
G1 X109.432 Y96.979 E1.5932
G1 X115.192 Y96.693 E1.88092
G1 X116.034 Y96.658 E1.92296
G1 X121.871 Y96.467 E2.21433
G1 X122.626 Y96.449 E2.25201
G1 X128.462 Y96.344 E2.54321
G1 X129.329 Y96.335 E2.58647
G1 X134.651 Y96.316 E2.85199
G1 X135.506 Y96.325 E2.89465
G1 X136.442 Y96.376 E2.94141
G1 X137.371 Y96.506 E2.98821
G1 X138.285 Y96.715 E3.03499
G1 X139.179 Y97.001 E3.08182
G1 X140.044 Y97.363 E3.1286
G1 X140.876 Y97.796 E3.17539
G1 X141.667 Y98.299 E3.22216
G1 X142.413 Y98.868 E3.26897
G1 X143.108 Y99.498 E3.31577
G1 X143.746 Y100.185 E3.36254
G1 X144.324 Y100.924 E3.40935
G1 X144.837 Y101.709 E3.45613
G1 X145.281 Y102.535 E3.50292
G1 X145.653 Y103.396 E3.54971
G1 X145.95 Y104.285 E3.59647
G1 X146.17 Y105.197 E3.64328
G1 X146.272 Y105.804 E3.67399
G1 X146.284 Y105.89 E3.67832
G1 X146.374 Y106.823 E3.72508
G1 X146.384 Y107.761 E3.77188
G1 X146.315 Y108.696 E3.81866
G1 X146.165 Y109.622 E3.86546
G1 X145.938 Y110.532 E3.91225
G1 X145.633 Y111.419 E3.95904
G1 X145.255 Y112.277 E4.00582
G1 X144.804 Y113.1 E4.05264
G1 X144.285 Y113.881 E4.09942
G1 X143.702 Y114.615 E4.14619
G1 X143.058 Y115.297 E4.19299
G1 X142.358 Y115.922 E4.2398
G1 X141.607 Y116.484 E4.2866
G1 X140.812 Y116.981 E4.33338
G1 X139.977 Y117.408 E4.38017
G1 X139.109 Y117.762 E4.42693
G1 X137.961 Y118.105 E4.48671
G1 X137.034 Y118.327 E4.53427
G1 X131.827 Y119.489 E4.80043
G1 X130.924 Y119.683 E4.84651
G1 X125.237 Y120.864 E5.13629
G1 X124.609 Y120.99 E5.16825
G1 X118.81 Y122.108 E5.46289
G1 X117.924 Y122.27 E5.50782
G1 X112.356 Y123.248 E5.78986
G1 X111.473 Y123.395 E5.83452
G1 X108.84 Y123.811 E5.96751
G1 X108.172 Y123.912 E6.00122
G1 X105.667 Y124.272 E6.12748
G1 X104.558 Y124.42 E6.1833
G1 X102.344 Y124.695 E6.2946
G1 X101.041 Y124.841 E6.36002
G1 X99.007 Y125.046 E6.46201
G1 X97.26 Y125.193 E6.54947
G1 X95.603 Y125.308 E6.63234
G1 X93.746 Y125.406 E6.72512
G1 X93.42 Y125.418 E6.74139
G1 X92.041 Y125.449 E6.81021
G1 X91.678 Y125.451 E6.82832
G1 X89.784 Y125.431 E6.92281
G1 X89.428 Y125.422 E6.94058
G1 X88.729 Y125.392 E6.97549
G1 X88.401 Y125.373 E6.99188
G1 X87.634 Y125.316 E7.03025
G1 X87.203 Y125.278 E7.05184
G1 X86.568 Y125.215 E7.08367
G1 X86.276 Y125.182 E7.09833
G1 X85.983 Y125.145 E7.11307
G1 X85.47 Y125.068 E7.13895
G1 X85.195 Y125.02 E7.15287
G1 X84.852 Y124.955 E7.17029
G1 X84.013 Y124.781 E7.21304
G1 X83.008 Y124.522 E7.26482
G1 X82.414 Y124.339 E7.29583
G1 X81.531 Y124.025 E7.34258
G1 X80.875 Y123.735 E7.37836
G1 X80.525 Y123.563 E7.39782
G1 X80.295 Y123.446 E7.41069
G1 X79.478 Y122.986 E7.45747
G1 X78.906 Y122.606 E7.49173
G1 X78.809 Y122.537 E7.49767
G1 X78.407 Y122.237 E7.5227
G1 X78.237 Y122.104 E7.53346
G1 X77.524 Y121.495 E7.58025
G1 X76.865 Y120.827 E7.62706
G1 X76.391 Y120.269 E7.66359
G1 X76.216 Y120.048 E7.67765
G1 X75.666 Y119.288 E7.72446
G1 X75.182 Y118.485 E7.77123
G1 X74.769 Y117.643 E7.81802
G1 X74.429 Y116.769 E7.86481
G1 X74.137 Y115.756 E7.9174
G1 X74.073 Y115.486 E7.93125
G1 X73.895 Y114.565 E7.97805
G1 X73.797 Y113.632 E8.02485
G1 X73.779 Y112.695 E8.07161
G1 X73.841 Y111.759 E8.11841
G1 X73.982 Y110.832 E8.16519
G1 X74.201 Y109.92 E8.21198
G1 X74.349 Y109.446 E8.23675
G1 X74.436 Y109.187 E8.25038
G1 X74.772 Y108.312 E8.29715
G1 X75.181 Y107.468 E8.34394
G1 X75.661 Y106.662 E8.39074
G1 X76.097 Y106.045 E8.42843
G1 X76.263 Y105.826 E8.44214
G1 X77.011 Y104.94 E8.49999
G1 X77.212 Y104.726 E8.51464
G1 X77.883 Y104.071 E8.56142
G1 X78.343 Y103.68 E8.59154
G1 X78.546 Y103.517 E8.60453
G0 F6000 X78.796 Y103.829
G1 F1200 X79.779 Y103.128 E8.66476
G1 X80.066 Y102.947 E8.68169
G1 X80.942 Y102.451 E8.73191
G1 X81.544 Y102.147 E8.76556
G1 X82.19 Y101.847 E8.80109
G1 X82.972 Y101.516 E8.84346
G1 X83.285 Y101.39 E8.86029
G1 X83.474 Y101.317 E8.8704
G1 X83.784 Y101.203 E8.88688
G1 X84.089 Y101.096 E8.90301
G1 X84.367 Y101.002 E8.91765
G1 X84.917 Y100.826 E8.94646
G1 X85.734 Y100.578 E8.98905
G1 X86.012 Y100.497 E9.0035
G1 X86.674 Y100.316 E9.03774
G1 X87.026 Y100.227 E9.05585
G1 X88.887 Y99.786 E9.15127
G1 X89.219 Y99.713 E9.16823
G1 X90.676 Y99.418 E9.24239
G1 X90.932 Y99.372 E9.25537
G1 X92.731 Y99.063 E9.34644
G1 X94.367 Y98.809 E9.42904
G1 X96.026 Y98.578 E9.5126
G1 X98.218 Y98.307 E9.62279
G1 X99.432 Y98.173 E9.68373
G1 X101.809 Y97.937 E9.8029
G1 X102.693 Y97.859 E9.84718
G1 X105.253 Y97.652 E9.97531
G1 X106.028 Y97.595 E10.01408
G1 X108.585 Y97.427 E10.14192
G1 X109.452 Y97.378 E10.18525
G1 X115.209 Y97.092 E10.47282
G1 X116.047 Y97.058 E10.51466
G1 X121.881 Y96.867 E10.80588
G1 X122.633 Y96.849 E10.84341
G1 X128.466 Y96.744 E11.13446
G1 X129.33 Y96.735 E11.17757
G1 X134.652 Y96.716 E11.44309
G1 X135.501 Y96.725 E11.48545
G1 X136.421 Y96.775 E11.53141
G1 X137.332 Y96.906 E11.57733
G1 X138.229 Y97.114 E11.62327
G1 X139.104 Y97.4 E11.6692
G1 X139.951 Y97.761 E11.71513
G1 X140.763 Y98.194 E11.76104
G1 X141.535 Y98.696 E11.80698
G1 X142.261 Y99.262 E11.85291
G1 X142.934 Y99.89 E11.89884
G1 X143.551 Y100.574 E11.94479
G1 X144.106 Y101.308 E11.9907
G1 X144.595 Y102.088 E12.03663
G1 X145.014 Y102.908 E12.08257
G1 X145.361 Y103.761 E12.12852
G1 X145.633 Y104.64 E12.17442
G1 X145.876 Y105.859 E12.23643
G1 X145.888 Y105.945 E12.24077
G1 X145.976 Y106.862 E12.28672
G1 X145.983 Y107.782 E12.33263
G1 X145.911 Y108.7 E12.37857
G1 X145.76 Y109.608 E12.42449
G1 X145.53 Y110.5 E12.47045
G1 X145.223 Y111.368 E12.51638
G1 X144.843 Y112.206 E12.56228
G1 X144.391 Y113.008 E12.60821
G1 X143.871 Y113.768 E12.65416
G1 X143.288 Y114.48 E12.70007
G1 X142.644 Y115.139 E12.74604
G1 X141.946 Y115.739 E12.79196
G1 X141.199 Y116.277 E12.83788
G1 X140.408 Y116.747 E12.88379
G1 X139.578 Y117.147 E12.92976
G1 X138.718 Y117.474 E12.97566
G1 X137.867 Y117.716 E13.0198
G1 X136.947 Y117.936 E13.06699
G1 X131.743 Y119.098 E13.33301
G1 X130.843 Y119.292 E13.37895
G1 X125.158 Y120.472 E13.66862
G1 X124.533 Y120.597 E13.70042
G1 X118.738 Y121.715 E13.99486
G1 X117.854 Y121.876 E14.03969
G1 X112.29 Y122.853 E14.32152
G1 X111.41 Y123 E14.36604
G1 X108.78 Y123.416 E14.49888
G1 X108.115 Y123.516 E14.53243
G1 X105.614 Y123.875 E14.65848
G1 X104.509 Y124.023 E14.7141
G1 X102.299 Y124.297 E14.82521
G1 X101 Y124.443 E14.89042
G1 X98.973 Y124.647 E14.99206
G1 X97.232 Y124.794 E15.07923
G1 X95.575 Y124.909 E15.16209
G1 X93.725 Y125.007 E15.25452
G1 X93.411 Y125.018 E15.2702
G1 X92.032 Y125.049 E15.33901
G1 X91.682 Y125.051 E15.35647
G1 X89.788 Y125.031 E15.45097
G1 X89.445 Y125.022 E15.46809
G1 X88.746 Y124.992 E15.50299
G1 X88.43 Y124.974 E15.51879
G1 X87.668 Y124.918 E15.5569
G1 X87.242 Y124.88 E15.57824
G1 X86.607 Y124.817 E15.61008
G1 X86.326 Y124.785 E15.62419
G1 X86.033 Y124.748 E15.63892
G1 X85.538 Y124.674 E15.66389
G1 X85.263 Y124.626 E15.67782
G1 X84.933 Y124.563 E15.69458
G1 X84.094 Y124.389 E15.73733
G1 X83.126 Y124.14 E15.78719
G1 X82.532 Y123.957 E15.8182
G1 X81.665 Y123.648 E15.86412
G1 X81.048 Y123.375 E15.89778
G1 X80.706 Y123.207 E15.91679
G1 X80.476 Y123.09 E15.92967
G1 X79.674 Y122.637 E15.97562
G1 X79.138 Y122.28 E16.00775
G1 X79.041 Y122.211 E16.01369
G1 X78.653 Y121.922 E16.03783
G1 X78.483 Y121.789 E16.0486
G1 X77.784 Y121.19 E16.09452
G1 X77.138 Y120.534 E16.14045
G1 X76.705 Y120.02 E16.17398
G1 X76.53 Y119.799 E16.18805
G1 X75.99 Y119.054 E16.23395
G1 X75.517 Y118.264 E16.27989
G1 X75.115 Y117.436 E16.32581
G1 X74.786 Y116.576 E16.37175
G1 X74.526 Y115.664 E16.41906
G1 X74.462 Y115.394 E16.43291
G1 X74.289 Y114.49 E16.47883
G1 X74.194 Y113.574 E16.52477
G1 X74.18 Y112.653 E16.57072
G1 X74.246 Y111.735 E16.61664
G1 X74.391 Y110.826 E16.66256
G1 X74.728 Y109.574 E16.72725
G1 X74.815 Y109.315 E16.74088
G1 X75.146 Y108.456 E16.78681
G1 X75.55 Y107.628 E16.83277
G1 X76.024 Y106.839 E16.87869
G1 X76.416 Y106.287 E16.91247
G1 X76.582 Y106.068 E16.92618
G1 X77.303 Y105.214 E16.98194
G1 X77.504 Y105 E16.99659
G1 X78.163 Y104.357 E17.04252
G1 X78.593 Y103.992 E17.07066
G1 X78.796 Y103.829 E17.08365
G0 F6000 X79.047 Y104.141
G1 F1200 X79.992 Y103.466 E17.14159
G1 X80.279 Y103.285 E17.15852
G1 X81.122 Y102.808 E17.20684
G1 X81.724 Y102.504 E17.24049
G1 X82.346 Y102.216 E17.27468
G1 X83.128 Y101.885 E17.31705
G1 X83.429 Y101.763 E17.33325
G1 X83.618 Y101.69 E17.34336
G1 X83.916 Y101.58 E17.35921
G1 X84.221 Y101.473 E17.37533
G1 X84.489 Y101.383 E17.38944
G1 X85.19 Y101.16 E17.42614
G1 X85.85 Y100.96 E17.46054
G1 X86.118 Y100.883 E17.47446
G1 X86.78 Y100.702 E17.5087
G1 X87.118 Y100.616 E17.5261
G1 X88.979 Y100.175 E17.62151
G1 X89.299 Y100.104 E17.63787
G1 X90.568 Y99.846 E17.70247
G1 X91 Y99.766 E17.72439
G1 X92.792 Y99.459 E17.8151
G1 X94.59 Y99.181 E17.90587
G1 X96.236 Y98.954 E17.98876
G1 X98.263 Y98.705 E18.09065
G1 X99.471 Y98.571 E18.15129
G1 X101.845 Y98.336 E18.2703
G1 X102.725 Y98.257 E18.31438
G1 X105.282 Y98.051 E18.44237
G1 X106.055 Y97.994 E18.48104
G1 X108.608 Y97.826 E18.60868
G1 X109.472 Y97.778 E18.65185
G1 X115.225 Y97.492 E18.93923
G1 X116.06 Y97.457 E18.98092
G1 X121.891 Y97.267 E19.27199
G1 X122.64 Y97.249 E19.30936
G1 X128.47 Y97.144 E19.60027
G1 X129.332 Y97.135 E19.64328
G1 X134.654 Y97.116 E19.9088
G1 X135.497 Y97.125 E19.95086
G1 X136.398 Y97.175 E19.99588
G1 X137.292 Y97.305 E20.04095
G1 X138.171 Y97.514 E20.08602
G1 X139.027 Y97.799 E20.13103
G1 X139.856 Y98.159 E20.17612
G1 X140.649 Y98.591 E20.22118
G1 X141.401 Y99.092 E20.26626
G1 X142.105 Y99.657 E20.31129
G1 X142.757 Y100.282 E20.35635
G1 X143.351 Y100.962 E20.4014
G1 X143.882 Y101.692 E20.44643
G1 X144.347 Y102.467 E20.49153
G1 X144.742 Y103.279 E20.53658
G1 X145.063 Y104.123 E20.58163
G1 X145.308 Y104.992 E20.62667
G1 X145.48 Y105.914 E20.67346
G1 X145.492 Y106 E20.67779
G1 X145.577 Y106.899 E20.72285
G1 X145.582 Y107.803 E20.76795
G1 X145.508 Y108.703 E20.813
G1 X145.354 Y109.592 E20.85801
G1 X145.122 Y110.465 E20.90308
G1 X144.813 Y111.314 E20.94815
G1 X144.431 Y112.132 E20.99319
G1 X143.978 Y112.913 E21.03824
G1 X143.457 Y113.652 E21.08335
G1 X142.874 Y114.341 E21.12838
G1 X142.231 Y114.975 E21.17343
G1 X141.535 Y115.551 E21.2185
G1 X140.791 Y116.063 E21.26356
G1 X140.005 Y116.506 E21.30857
G1 X139.182 Y116.879 E21.35365
G1 X138.33 Y117.177 E21.39868
G1 X137.774 Y117.328 E21.42743
G1 X136.86 Y117.546 E21.47431
G1 X131.659 Y118.707 E21.74017
G1 X130.762 Y118.9 E21.78595
G1 X125.079 Y120.08 E22.07552
G1 X124.458 Y120.204 E22.10711
G1 X118.666 Y121.321 E22.4014
G1 X117.785 Y121.482 E22.44608
G1 X112.224 Y122.459 E22.72777
G1 X111.348 Y122.605 E22.77208
G1 X108.72 Y123.02 E22.90482
G1 X108.058 Y123.12 E22.93822
G1 X105.561 Y123.479 E23.06407
G1 X104.459 Y123.626 E23.11954
G1 X102.254 Y123.9 E23.23039
G1 X100.96 Y124.045 E23.29536
G1 X99.104 Y124.233 E23.38843
G1 X97.204 Y124.395 E23.48356
G1 X95.547 Y124.51 E23.56643
G1 X93.704 Y124.607 E23.6585
G1 X93.402 Y124.618 E23.67358
G1 X92.023 Y124.649 E23.7424
G1 X91.686 Y124.651 E23.75921
G1 X89.792 Y124.631 E23.85371
G1 X89.463 Y124.623 E23.87013
G1 X88.764 Y124.593 E23.90503
G1 X88.459 Y124.575 E23.92027
G1 X87.702 Y124.519 E23.95814
G1 X87.282 Y124.482 E23.97918
G1 X86.647 Y124.419 E24.01101
G1 X86.376 Y124.389 E24.02462
G1 X86.083 Y124.352 E24.03935
G1 X85.607 Y124.28 E24.06337
G1 X85.332 Y124.232 E24.0773
G1 X85.015 Y124.171 E24.0934
G1 X84.176 Y123.997 E24.13615
G1 X83.244 Y123.758 E24.18415
G1 X82.65 Y123.575 E24.21516
G1 X81.799 Y123.271 E24.26025
G1 X81.222 Y123.014 E24.29176
G1 X80.887 Y122.85 E24.31037
G1 X80.657 Y122.733 E24.32324
G1 X79.871 Y122.289 E24.36828
G1 X79.37 Y121.954 E24.39835
G1 X79.273 Y121.885 E24.40429
G1 X78.9 Y121.607 E24.42749
G1 X78.73 Y121.474 E24.43826
G1 X78.044 Y120.886 E24.48334
G1 X77.413 Y120.24 E24.52839
G1 X77.018 Y119.772 E24.55895
G1 X76.843 Y119.551 E24.57301
G1 X76.315 Y118.819 E24.61804
G1 X75.853 Y118.043 E24.6631
G1 X75.461 Y117.229 E24.70817
G1 X75.143 Y116.384 E24.75321
G1 X74.915 Y115.572 E24.79529
G1 X74.851 Y115.302 E24.80913
G1 X74.682 Y114.414 E24.85423
G1 X74.592 Y113.516 E24.89926
G1 X74.582 Y112.613 E24.94431
G1 X74.651 Y111.712 E24.98939
G1 X74.8 Y110.822 E25.03441
G1 X75.107 Y109.701 E25.0924
G1 X75.194 Y109.442 E25.10603
G1 X75.519 Y108.6 E25.15106
G1 X75.918 Y107.789 E25.19615
G1 X76.386 Y107.017 E25.24119
G1 X76.734 Y106.529 E25.2711
G1 X76.9 Y106.31 E25.28481
G1 X77.594 Y105.488 E25.33848
G1 X77.795 Y105.274 E25.35312
G1 X78.442 Y104.644 E25.39818
G1 X78.844 Y104.304 E25.42445
G1 X79.047 Y104.141 E25.43743
G1 F3600 E20.43743
;MESH:Canard.STL
G0 F6000 X116.001 Y107.002
G0 X116.054 Y108.083
G0 X130.362 Y107.931
;TYPE:WALL-INNER
G1 F3600 E25.43743
G1 F1200 X129.016 Y108.231 E25.50623
G1 X128.985 Y108.238 E25.50782
G1 X128.489 Y108.341 E25.53309
G1 X122.669 Y109.55 E25.82965
G1 X116.337 Y110.771 E26.15138
G1 X110.028 Y111.879 E26.47095
G1 X106.815 Y112.387 E26.63324
G1 X103.642 Y112.844 E26.79317
G1 X100.44 Y113.243 E26.95416
G1 X97.245 Y113.565 E27.11437
G1 X94.045 Y113.787 E27.2744
G1 X92.439 Y113.847 E27.35458
G1 X90.861 Y113.861 E27.43331
G1 X89.268 Y113.813 E27.51282
G1 X87.7 Y113.68 E27.59133
G1 X86.939 Y113.558 E27.62978
G1 X86.211 Y113.392 E27.66703
G1 X85.891 Y113.286 E27.68385
G1 X85.601 Y113.141 E27.70002
G1 X85.596 Y113.139 E27.70029
G1 X85.393 Y112.967 E27.71357
G1 X85.564 Y112.75 E27.72735
G1 X85.568 Y112.747 E27.7276
G1 X85.814 Y112.543 E27.74354
G1 X86.086 Y112.379 E27.75939
G1 X86.773 Y112.049 E27.79741
G1 X87.478 Y111.767 E27.8353
G1 X88.994 Y111.283 E27.91469
G1 X90.519 Y110.888 E27.99328
G1 X92.076 Y110.552 E28.07275
G1 X93.656 Y110.254 E28.15297
G1 X96.81 Y109.765 E28.3122
G1 X100.006 Y109.372 E28.47285
G1 X103.202 Y109.054 E28.63309
G1 X106.411 Y108.795 E28.79371
G1 X109.621 Y108.584 E28.9542
G1 X116.064 Y108.264 E29.27604
G1 X122.505 Y108.053 E29.59755
G1 X128.444 Y107.945 E29.8939
G1 X128.95 Y107.936 E29.91615
G1 X128.983 Y107.936 E29.9178
G1 X130.362 Y107.931 E29.94357
G1 F3600 E24.94357
G0 F6000 X132.184 Y107.727
G0 X134.044 Y107.519
;TYPE:WALL-OUTER
G1 F3600 E29.94357
G1 F1200 X129.066 Y108.63 E30.19803
G1 X122.745 Y109.943 E30.52012
G1 X116.413 Y111.164 E30.84185
G1 X110.097 Y112.273 E31.16177
G1 X106.872 Y112.783 E31.32467
G1 X103.699 Y113.24 E31.4846
G1 X100.485 Y113.64 E31.64619
G1 X97.28 Y113.964 E31.8069
G1 X94.06 Y114.187 E31.96793
G1 X92.454 Y114.247 E32.04811
G1 X90.852 Y114.261 E32.12804
G1 X89.24 Y114.213 E32.2085
G1 X87.658 Y114.078 E32.28771
G1 X86.862 Y113.951 E32.32793
G1 X86.1 Y113.777 E32.36692
G1 X85.742 Y113.658 E32.38574
G1 X85.384 Y113.48 E32.40569
G1 X85.151 Y113.305 E32.42023
G1 X85.008 Y113.125 E32.4317
G1 X84.974 Y112.962 E32.44
G1 X85.037 Y112.773 E32.44994
G1 X85.274 Y112.471 E32.4691
G1 X85.581 Y112.217 E32.48897
G1 X85.9 Y112.024 E32.50758
