;FLAVOR:Marlin
;TIME:546
;Filament used: 0.175198m
;Layer height: 0.2
;MINX:91.881
;MINY:95.443
;MINZ:0.3
;MAXX:128.121
;MAXY:124.57
;MAXZ:10.9
;Generated with Creality Slicer 4.8.2-191
M140 S60
M105
M190 S60
M104 S220
M105
M109 S220
M82 ;absolute extrusion mode

G28 ;Home

G92 E0 ;Reset Extruder
G1 Z2.0 F3000 ;Move Z Axis up
G1 X10.1 Y20 Z0.28 F5000.0 ;Move to start position
G1 X10.1 Y200.0 Z0.28 F1500.0 E15 ;Draw the first line
G1 X10.4 Y200.0 Z0.28 F5000.0 ;Move to side a little
G1 X10.4 Y20 Z0.28 F1500.0 E30 ;Draw the second line
G92 E0 ;Reset Extruder
G1 Z2.0 F3000 ;Move Z Axis up

G92 E0
G92 E0
G1 F3600 E-5
;LAYER_COUNT:54
;LAYER:0
M107
G0 F6000 X97.241 Y100.694 Z0.3
;TYPE:SKIRT
G1 F3600 E0
G1 F1200 X97.724 Y100.229 E0.03345
G1 X97.861 Y100.105 E0.04267
G1 X98.213 Y99.8 E0.0659
G1 X98.627 Y99.456 E0.09276
G1 X99.065 Y99.11 E0.12061
G1 X99.236 Y98.982 E0.13126
G1 X99.679 Y98.667 E0.15838
G1 X100.075 Y98.4 E0.18221
G1 X100.593 Y98.072 E0.2128
G1 X100.791 Y97.954 E0.2243
G1 X101.251 Y97.694 E0.25066
G1 X101.711 Y97.449 E0.27666
G1 X102.286 Y97.164 E0.30868
G1 X102.473 Y97.078 E0.31895
G1 X102.865 Y96.907 E0.34028
G1 X103.322 Y96.718 E0.36496
G1 X103.897 Y96.499 E0.39565
G1 X104.103 Y96.427 E0.40654
G1 X104.598 Y96.267 E0.43249
G1 X105.096 Y96.119 E0.45841
G1 X105.682 Y95.962 E0.48868
G1 X105.871 Y95.917 E0.49837
G1 X106.364 Y95.812 E0.52352
G1 X106.874 Y95.715 E0.54942
G1 X107.478 Y95.617 E0.57995
G1 X107.711 Y95.586 E0.59168
G1 X108.218 Y95.531 E0.61712
G1 X108.659 Y95.493 E0.6392
G1 X109.206 Y95.459 E0.66654
G1 X109.483 Y95.449 E0.68037
G1 X110.041 Y95.443 E0.70821
G1 X110.52 Y95.45 E0.73211
G1 X111.127 Y95.476 E0.76242
G1 X111.37 Y95.493 E0.77458
G1 X111.882 Y95.541 E0.80023
G1 X112.377 Y95.599 E0.8251
G1 X112.984 Y95.687 E0.8557
G1 X113.185 Y95.722 E0.86588
G1 X113.67 Y95.818 E0.89054
G1 X114.159 Y95.926 E0.91553
G1 X114.809 Y96.09 E0.94897
G1 X115.04 Y96.156 E0.96096
G1 X115.47 Y96.289 E0.98341
G1 X115.942 Y96.445 E1.00821
G1 X116.494 Y96.644 E1.03749
G1 X116.691 Y96.721 E1.04804
G1 X117.173 Y96.922 E1.07409
G1 X117.623 Y97.123 E1.09868
G1 X118.199 Y97.401 E1.13059
G1 X118.417 Y97.514 E1.14284
G1 X118.834 Y97.742 E1.16655
G1 X119.264 Y97.989 E1.19129
G1 X119.785 Y98.307 E1.22175
G1 X119.974 Y98.43 E1.233
G1 X120.414 Y98.732 E1.25962
G1 X120.799 Y99.01 E1.28331
G1 X121.267 Y99.367 E1.31268
G1 X121.469 Y99.53 E1.32563
G1 X121.842 Y99.846 E1.35002
G1 X122.184 Y100.148 E1.37278
G1 X122.681 Y100.615 E1.4068
G1 X122.873 Y100.807 E1.42035
G1 X123.174 Y101.12 E1.44202
G1 X123.49 Y101.462 E1.46525
G1 X123.897 Y101.928 E1.49611
G1 X124.043 Y102.105 E1.50756
G1 X124.362 Y102.511 E1.53332
G1 X124.663 Y102.913 E1.55838
G1 X124.995 Y103.38 E1.58696
G1 X125.113 Y103.556 E1.59753
G1 X125.408 Y104.023 E1.62509
G1 X125.666 Y104.453 E1.65011
G1 X125.954 Y104.963 E1.67933
G1 X126.061 Y105.165 E1.69073
G1 X126.3 Y105.643 E1.7174
G1 X126.512 Y106.095 E1.7423
G1 X126.743 Y106.623 E1.77106
G1 X126.83 Y106.837 E1.78258
G1 X127.001 Y107.284 E1.80646
G1 X127.169 Y107.755 E1.83141
G1 X127.375 Y108.396 E1.865
G1 X127.436 Y108.607 E1.87596
G1 X127.561 Y109.076 E1.90017
G1 X127.673 Y109.539 E1.92394
G1 X127.783 Y110.049 E1.94997
G1 X127.827 Y110.278 E1.9616
G1 X127.922 Y110.854 E1.99072
G1 X127.967 Y111.181 E2.00719
G1 X128.041 Y111.878 E2.04216
G1 X128.095 Y112.616 E2.07908
G1 X128.116 Y113.006 E2.09856
G1 X128.121 Y113.139 E2.1052
G1 X128.116 Y114.077 E2.152
G1 X128.032 Y115.011 E2.19879
G1 X127.868 Y115.934 E2.24556
G1 X127.626 Y116.84 E2.29234
G1 X127.308 Y117.722 E2.33912
G1 X126.916 Y118.574 E2.38591
G1 X126.452 Y119.39 E2.43274
G1 X125.921 Y120.163 E2.47953
G1 X125.326 Y120.888 E2.52632
G1 X124.671 Y121.559 E2.5731
G1 X123.962 Y122.173 E2.61989
G1 X123.203 Y122.723 E2.66666
G1 X122.399 Y123.207 E2.71348
G1 X121.558 Y123.621 E2.76024
G1 X120.684 Y123.962 E2.80705
G1 X119.784 Y124.227 E2.85385
G1 X118.865 Y124.414 E2.90064
G1 X117.934 Y124.523 E2.94741
G1 X117.338 Y124.55 E2.97717
G1 X116.391 Y124.568 E3.02443
G1 X116.182 Y124.57 E3.03486
G1 X115.153 Y124.569 E3.08619
G1 X114.44 Y124.559 E3.12177
G1 X114.126 Y124.55 E3.13744
G1 X113.883 Y124.54 E3.14957
G1 X111.245 Y124.465 E3.28124
G1 X108.756 Y124.465 E3.40541
G1 X106.714 Y124.53 E3.50734
G1 X104.678 Y124.568 E3.60894
G1 X104.473 Y124.57 E3.61916
G1 X103.423 Y124.569 E3.67155
G1 X102.734 Y124.56 E3.70593
G1 X101.798 Y124.508 E3.75269
G1 X100.869 Y124.376 E3.79951
G1 X99.955 Y124.166 E3.8463
G1 X99.063 Y123.878 E3.89306
G1 X98.198 Y123.516 E3.93984
G1 X97.367 Y123.081 E3.98664
G1 X96.576 Y122.577 E4.03343
G1 X95.831 Y122.007 E4.08023
G1 X95.137 Y121.376 E4.12702
G1 X94.499 Y120.688 E4.17384
G1 X93.923 Y119.949 E4.22058
G1 X93.411 Y119.163 E4.26738
G1 X92.968 Y118.336 E4.31419
G1 X92.598 Y117.474 E4.36099
G1 X92.302 Y116.584 E4.40778
G1 X92.083 Y115.672 E4.45457
G1 X91.942 Y114.745 E4.50135
G1 X91.881 Y113.809 E4.54815
G1 X91.884 Y113.195 E4.57878
G1 X91.902 Y112.654 E4.60579
G1 X91.918 Y112.33 E4.62197
G1 X91.929 Y112.155 E4.63072
G1 X91.989 Y111.505 E4.66329
G1 X92.016 Y111.285 E4.67435
G1 X92.085 Y110.806 E4.69849
G1 X92.169 Y110.305 E4.72383
G1 X92.29 Y109.695 E4.75486
G1 X92.338 Y109.483 E4.7657
G1 X92.455 Y109.012 E4.78992
G1 X92.581 Y108.551 E4.81376
G1 X92.769 Y107.935 E4.84589
G1 X92.853 Y107.686 E4.859
G1 X93.025 Y107.213 E4.88411
G1 X93.204 Y106.753 E4.90874
G1 X93.438 Y106.198 E4.93879
G1 X93.531 Y105.993 E4.95002
G1 X93.741 Y105.555 E4.97425
G1 X93.962 Y105.12 E4.99859
G1 X94.29 Y104.521 E5.03266
G1 X94.406 Y104.324 E5.04407
G1 X94.641 Y103.942 E5.06645
G1 X94.91 Y103.525 E5.0912
G1 X95.262 Y103.012 E5.12224
G1 X95.396 Y102.828 E5.1336
G1 X95.685 Y102.449 E5.15738
G1 X95.979 Y102.08 E5.18092
G1 X96.41 Y101.572 E5.21415
G1 X96.583 Y101.38 E5.22705
G1 X96.89 Y101.053 E5.24942
G1 X97.241 Y100.694 E5.27447
G0 F6000 X97.527 Y100.974
G1 F1200 X97.993 Y100.525 E5.30676
G1 X98.13 Y100.401 E5.31598
G1 X98.469 Y100.107 E5.33836
G1 X98.883 Y99.763 E5.36522
G1 X99.305 Y99.43 E5.39204
G1 X99.476 Y99.302 E5.40269
G1 X99.902 Y98.999 E5.42877
G1 X100.298 Y98.732 E5.4526
G1 X100.797 Y98.415 E5.4821
G1 X100.995 Y98.297 E5.49359
G1 X101.439 Y98.047 E5.51902
G1 X101.899 Y97.802 E5.54502
G1 X102.453 Y97.528 E5.57585
G1 X102.64 Y97.442 E5.58612
G1 X103.018 Y97.277 E5.6067
G1 X103.475 Y97.088 E5.63137
G1 X104.029 Y96.877 E5.66095
G1 X104.235 Y96.805 E5.67183
G1 X104.712 Y96.65 E5.69686
G1 X105.21 Y96.502 E5.72278
G1 X105.775 Y96.351 E5.75195
G1 X105.964 Y96.306 E5.76165
G1 X106.438 Y96.205 E5.78582
G1 X106.948 Y96.108 E5.81172
G1 X107.531 Y96.014 E5.84119
G1 X107.764 Y95.983 E5.85291
G1 X108.252 Y95.929 E5.87741
G1 X108.693 Y95.891 E5.89949
G1 X109.221 Y95.859 E5.92588
G1 X109.498 Y95.849 E5.93971
G1 X110.035 Y95.843 E5.9665
G1 X110.514 Y95.85 E5.9904
G1 X111.099 Y95.875 E6.01962
G1 X111.342 Y95.892 E6.03177
G1 X111.836 Y95.938 E6.05652
G1 X112.331 Y95.996 E6.08139
G1 X112.915 Y96.081 E6.11083
G1 X113.116 Y96.116 E6.12101
G1 X113.584 Y96.208 E6.1448
G1 X114.073 Y96.316 E6.16979
G1 X114.699 Y96.475 E6.20201
G1 X114.93 Y96.541 E6.214
G1 X115.344 Y96.668 E6.2356
G1 X115.816 Y96.824 E6.2604
G1 X116.349 Y97.016 E6.28867
G1 X116.546 Y97.093 E6.29922
G1 X117.01 Y97.288 E6.32433
G1 X117.46 Y97.489 E6.34892
G1 X118.015 Y97.756 E6.37964
G1 X118.233 Y97.869 E6.39189
G1 X118.635 Y98.088 E6.41473
G1 X119.065 Y98.335 E6.43947
G1 X119.567 Y98.643 E6.46886
G1 X119.756 Y98.766 E6.48011
G1 X120.179 Y99.056 E6.50569
G1 X120.564 Y99.334 E6.52938
G1 X121.016 Y99.679 E6.55775
G1 X121.218 Y99.842 E6.5707
G1 X121.577 Y100.145 E6.59414
G1 X121.919 Y100.447 E6.6169
G1 X122.398 Y100.898 E6.64973
G1 X122.59 Y101.09 E6.66327
G1 X122.88 Y101.391 E6.68412
G1 X123.196 Y101.733 E6.70736
G1 X123.588 Y102.182 E6.73709
G1 X123.734 Y102.359 E6.74854
G1 X124.042 Y102.751 E6.77341
G1 X124.343 Y103.153 E6.79847
G1 X124.662 Y103.603 E6.82598
G1 X124.78 Y103.779 E6.83656
G1 X125.065 Y104.228 E6.86309
G1 X125.323 Y104.658 E6.88811
G1 X125.601 Y105.15 E6.9163
G1 X125.708 Y105.352 E6.9277
G1 X125.938 Y105.813 E6.95341
G1 X126.15 Y106.265 E6.97832
G1 X126.373 Y106.774 E7.00604
G1 X126.46 Y106.988 E7.01756
G1 X126.624 Y107.419 E7.04057
G1 X126.792 Y107.89 E7.06552
G1 X126.991 Y108.507 E7.09786
G1 X127.052 Y108.718 E7.10882
G1 X127.172 Y109.17 E7.13215
G1 X127.284 Y109.633 E7.15592
G1 X127.391 Y110.125 E7.18104
G1 X127.435 Y110.354 E7.19267
G1 X127.526 Y110.909 E7.22073
G1 X127.571 Y111.236 E7.2372
G1 X127.642 Y111.907 E7.27086
G1 X127.696 Y112.645 E7.30778
G1 X127.717 Y113.021 E7.32657
G1 X127.722 Y113.154 E7.33321
G1 X127.716 Y114.074 E7.37911
G1 X127.631 Y114.991 E7.42505
G1 X127.466 Y115.897 E7.471
G1 X127.224 Y116.785 E7.51691
G1 X126.905 Y117.649 E7.56286
G1 X126.513 Y118.482 E7.60879
G1 X126.05 Y119.277 E7.65469
G1 X125.519 Y120.03 E7.70066
G1 X124.926 Y120.733 E7.74655
G1 X124.273 Y121.383 E7.79251
G1 X123.567 Y121.973 E7.83842
G1 X122.812 Y122.5 E7.88435
G1 X122.014 Y122.959 E7.93028
G1 X121.179 Y123.348 E7.97624
G1 X120.314 Y123.662 E8.02215
G1 X119.424 Y123.9 E8.06811
G1 X118.518 Y124.061 E8.11402
G1 X117.33 Y124.15 E8.17345
G1 X116.383 Y124.168 E8.22071
G1 X116.182 Y124.17 E8.23074
G1 X115.158 Y124.169 E8.28182
G1 X114.445 Y124.159 E8.3174
G1 X114.143 Y124.15 E8.33247
G1 X113.912 Y124.14 E8.34401
G1 X111.256 Y124.065 E8.47657
G1 X108.743 Y124.065 E8.60194
G1 X106.707 Y124.13 E8.70357
G1 X104.671 Y124.168 E8.80517
G1 X104.473 Y124.17 E8.81505
G1 X103.429 Y124.169 E8.86713
G1 X102.74 Y124.16 E8.90151
G1 X101.82 Y124.108 E8.94748
G1 X100.909 Y123.977 E8.9934
G1 X100.013 Y123.766 E9.03932
G1 X99.138 Y123.479 E9.08526
G1 X98.292 Y123.117 E9.13117
G1 X97.48 Y122.683 E9.17711
G1 X96.708 Y122.181 E9.22305
G1 X95.984 Y121.613 E9.26896
G1 X95.311 Y120.984 E9.31492
G1 X94.696 Y120.299 E9.36084
G1 X94.142 Y119.564 E9.40676
G1 X93.654 Y118.783 E9.45271
G1 X93.235 Y117.963 E9.49865
G1 X92.89 Y117.11 E9.54455
G1 X92.619 Y116.23 E9.59049
G1 X92.427 Y115.33 E9.6364
G1 X92.313 Y114.416 E9.68236
G1 X92.284 Y113.209 E9.74259
G1 X92.302 Y112.668 E9.7696
G1 X92.317 Y112.355 E9.78523
G1 X92.328 Y112.18 E9.79398
G1 X92.386 Y111.554 E9.82534
G1 X92.413 Y111.334 E9.8364
G1 X92.48 Y110.872 E9.85969
G1 X92.564 Y110.371 E9.88504
G1 X92.68 Y109.783 E9.91494
G1 X92.728 Y109.571 E9.92578
G1 X92.841 Y109.117 E9.94912
G1 X92.967 Y108.656 E9.97297
G1 X93.148 Y108.063 E10.0039
G1 X93.232 Y107.814 E10.01701
G1 X93.398 Y107.358 E10.04122
G1 X93.577 Y106.898 E10.06585
G1 X93.802 Y106.363 E10.0948
G1 X93.895 Y106.158 E10.10603
G1 X94.098 Y105.736 E10.12939
G1 X94.319 Y105.301 E10.15374
G1 X94.635 Y104.724 E10.18656
G1 X94.751 Y104.527 E10.19796
G1 X94.978 Y104.159 E10.21954
G1 X95.247 Y103.742 E10.24429
G1 X95.585 Y103.248 E10.27416
G1 X95.719 Y103.064 E10.28551
G1 X95.998 Y102.699 E10.30843
G1 X96.292 Y102.33 E10.33197
G1 X96.707 Y101.839 E10.36404
G1 X96.88 Y101.647 E10.37694
G1 X97.176 Y101.333 E10.39847
G1 X97.527 Y100.974 E10.42352
G0 F6000 X97.813 Y101.253
G1 F1200 X98.261 Y100.822 E10.45453
G1 X98.398 Y100.698 E10.46375
G1 X98.724 Y100.415 E10.48529
G1 X99.138 Y100.071 E10.51214
G1 X99.545 Y99.75 E10.538
G1 X99.716 Y99.622 E10.54866
G1 X100.126 Y99.331 E10.57374
G1 X100.522 Y99.064 E10.59757
G1 X101.002 Y98.759 E10.62594
G1 X101.2 Y98.641 E10.63744
G1 X101.627 Y98.4 E10.6619
G1 X102.087 Y98.155 E10.68791
G1 X102.62 Y97.891 E10.71758
G1 X102.807 Y97.805 E10.72785
G1 X103.171 Y97.646 E10.74767
G1 X103.628 Y97.457 E10.77234
G1 X104.161 Y97.254 E10.80079
G1 X104.367 Y97.182 E10.81168
G1 X104.826 Y97.034 E10.83574
G1 X105.324 Y96.886 E10.86166
G1 X105.867 Y96.74 E10.88971
G1 X106.056 Y96.695 E10.89941
G1 X106.513 Y96.598 E10.92271
G1 X107.023 Y96.501 E10.94861
G1 X107.584 Y96.41 E10.97697
G1 X107.817 Y96.379 E10.98869
G1 X108.286 Y96.328 E11.01223
G1 X108.727 Y96.29 E11.03431
G1 X109.235 Y96.259 E11.05971
G1 X109.512 Y96.249 E11.07353
G1 X110.029 Y96.243 E11.09933
G1 X110.508 Y96.25 E11.12323
G1 X111.071 Y96.274 E11.15134
G1 X111.314 Y96.291 E11.1635
G1 X111.789 Y96.335 E11.18729
G1 X112.284 Y96.393 E11.21216
G1 X112.847 Y96.475 E11.24054
G1 X113.048 Y96.51 E11.25072
G1 X113.498 Y96.599 E11.27361
G1 X113.987 Y96.707 E11.29859
G1 X114.589 Y96.859 E11.32957
G1 X114.82 Y96.925 E11.34155
G1 X115.219 Y97.048 E11.36239
G1 X115.691 Y97.204 E11.38719
G1 X116.203 Y97.389 E11.41435
G1 X116.4 Y97.466 E11.4249
G1 X116.847 Y97.653 E11.44907
G1 X117.297 Y97.854 E11.47366
G1 X117.831 Y98.111 E11.50323
G1 X118.049 Y98.224 E11.51548
G1 X118.436 Y98.435 E11.53747
G1 X118.866 Y98.682 E11.56221
G1 X119.349 Y98.978 E11.59047
G1 X119.538 Y99.101 E11.60172
G1 X119.945 Y99.381 E11.62637
G1 X120.33 Y99.659 E11.65006
G1 X120.764 Y99.99 E11.67729
G1 X120.966 Y100.153 E11.69024
G1 X121.312 Y100.445 E11.71283
G1 X121.654 Y100.747 E11.73559
G1 X122.115 Y101.181 E11.76718
G1 X122.307 Y101.373 E11.78072
G1 X122.587 Y101.663 E11.80084
G1 X122.903 Y102.005 E11.82407
G1 X123.28 Y102.437 E11.85267
G1 X123.426 Y102.614 E11.86412
G1 X123.722 Y102.991 E11.88803
G1 X124.023 Y103.393 E11.91309
G1 X124.33 Y103.826 E11.93957
G1 X124.448 Y104.002 E11.95014
G1 X124.722 Y104.434 E11.97566
G1 X124.98 Y104.864 E12.00068
G1 X125.248 Y105.337 E12.0278
G1 X125.355 Y105.539 E12.03921
G1 X125.576 Y105.983 E12.06395
G1 X125.788 Y106.435 E12.08886
G1 X126.002 Y106.925 E12.11553
G1 X126.089 Y107.139 E12.12706
G1 X126.247 Y107.553 E12.14917
G1 X126.415 Y108.024 E12.17412
G1 X126.607 Y108.618 E12.20526
G1 X126.668 Y108.829 E12.21622
G1 X126.783 Y109.264 E12.23867
G1 X126.895 Y109.727 E12.26243
G1 X126.998 Y110.2 E12.28658
G1 X127.042 Y110.429 E12.29822
G1 X127.13 Y110.963 E12.32522
G1 X127.175 Y111.29 E12.34168
G1 X127.243 Y111.937 E12.37414
G1 X127.297 Y112.675 E12.41106
G1 X127.317 Y113.036 E12.4291
G1 X127.322 Y113.169 E12.43574
G1 X127.316 Y114.072 E12.48079
G1 X127.23 Y114.971 E12.52584
G1 X127.065 Y115.859 E12.57091
G1 X126.822 Y116.729 E12.61597
G1 X126.503 Y117.573 E12.66099
G1 X126.11 Y118.387 E12.70608
G1 X125.647 Y119.162 E12.75112
G1 X125.118 Y119.894 E12.79618
G1 X124.526 Y120.576 E12.84123
G1 X123.875 Y121.202 E12.88629
G1 X123.172 Y121.769 E12.93135
G1 X122.422 Y122.271 E12.97638
G1 X121.63 Y122.705 E13.02143
G1 X120.802 Y123.068 E13.06654
G1 X119.946 Y123.355 E13.11158
G1 X119.068 Y123.566 E13.15663
G1 X118.175 Y123.698 E13.20167
G1 X117.323 Y123.75 E13.24425
G1 X116.182 Y123.77 E13.30119
G1 X115.164 Y123.769 E13.35198
G1 X114.451 Y123.759 E13.38755
G1 X114.16 Y123.751 E13.40207
G1 X113.871 Y123.739 E13.41651
G1 X111.267 Y123.665 E13.54647
G1 X108.762 Y123.665 E13.67145
G1 X106.699 Y123.73 E13.77442
G1 X104.473 Y123.77 E13.88549
G1 X103.434 Y123.769 E13.93733
G1 X102.745 Y123.76 E13.97171
G1 X101.843 Y123.708 E14.01678
G1 X100.95 Y123.577 E14.06181
G1 X100.071 Y123.367 E14.1069
G1 X99.215 Y123.081 E14.15193
G1 X98.387 Y122.719 E14.19701
G1 X97.595 Y122.286 E14.24204
G1 X96.844 Y121.785 E14.28708
G1 X96.14 Y121.219 E14.33215
G1 X95.489 Y120.593 E14.37721
G1 X94.896 Y119.911 E14.4223
G1 X94.366 Y119.18 E14.46734
G1 X93.902 Y118.406 E14.51237
G1 X93.509 Y117.593 E14.55742
G1 X93.189 Y116.748 E14.6025
G1 X92.945 Y115.878 E14.64757
G1 X92.779 Y114.991 E14.6926
G1 X92.692 Y114.092 E14.73766
G1 X92.684 Y113.222 E14.78106
G1 X92.702 Y112.681 E14.80807
G1 X92.716 Y112.38 E14.8231
G1 X92.727 Y112.205 E14.83185
G1 X92.783 Y111.603 E14.86201
G1 X92.81 Y111.383 E14.87307
G1 X92.874 Y110.938 E14.8955
G1 X92.958 Y110.437 E14.92084
G1 X93.07 Y109.872 E14.94958
G1 X93.118 Y109.66 E14.96043
G1 X93.227 Y109.223 E14.9829
G1 X93.353 Y108.762 E15.00674
G1 X93.527 Y108.191 E15.03652
G1 X93.611 Y107.942 E15.04963
G1 X93.77 Y107.503 E15.07292
G1 X93.949 Y107.043 E15.09755
G1 X94.166 Y106.528 E15.12543
G1 X94.259 Y106.323 E15.13666
G1 X94.454 Y105.917 E15.15913
G1 X94.675 Y105.482 E15.18347
G1 X94.98 Y104.926 E15.21511
G1 X95.096 Y104.729 E15.22652
G1 X95.314 Y104.376 E15.24722
G1 X95.583 Y103.959 E15.27197
G1 X95.909 Y103.483 E15.30076
G1 X96.043 Y103.299 E15.31211
G1 X96.31 Y102.948 E15.33412
G1 X96.604 Y102.579 E15.35765
G1 X97.004 Y102.107 E15.38852
G1 X97.177 Y101.915 E15.40142
G1 X97.462 Y101.612 E15.42217
G1 X97.813 Y101.253 E15.44722
G1 F3600 E10.44722
;MESH:Spacer.STL
G0 F6000 X106.516 Y106.589
