;FLAVOR:Marlin
;TIME:3500
;Filament used: 1.7825m
;Layer height: 0.2
;MINX:57.922
;MINY:57.94
;MINZ:0.3
;MAXX:183.655
;MAXY:162.088
;MAXZ:27.9
;Generated with Creality Slicer 4.8.2-191
M140 S60
M105
M190 S60
M104 S220
M105
M109 S220
M82 ;absolute extrusion mode

G28 ;Home

G92 E0 ;Reset Extruder
G1 Z2.0 F3000 ;Move Z Axis up
G1 X10.1 Y20 Z0.28 F5000.0 ;Move to start position
G1 X10.1 Y200.0 Z0.28 F1500.0 E15 ;Draw the first line
G1 X10.4 Y200.0 Z0.28 F5000.0 ;Move to side a little
G1 X10.4 Y20 Z0.28 F1500.0 E30 ;Draw the second line
G92 E0 ;Reset Extruder
G1 Z2.0 F3000 ;Move Z Axis up

G92 E0
G92 E0
G1 F3600 E-5
;LAYER_COUNT:139
;LAYER:0
M107
G0 F6000 X73.366 Y72.977 Z0.3
;TYPE:SKIRT
G1 F3600 E0
G1 F1200 X73.786 Y72.56 E0.02953
G1 X74.151 Y72.22 E0.05441
G1 X74.377 Y72.018 E0.06954
G1 X76.835 Y69.86 E0.23272
G1 X77.368 Y69.406 E0.26765
G1 X77.836 Y69.029 E0.29763
G1 X78.203 Y68.753 E0.32054
G1 X78.493 Y68.542 E0.33844
G1 X81.143 Y66.66 E0.50059
G1 X81.736 Y66.252 E0.53651
G1 X82.272 Y65.905 E0.56836
G1 X82.61 Y65.703 E0.58801
G1 X82.911 Y65.528 E0.60538
G1 X85.718 Y63.941 E0.76625
G1 X86.266 Y63.641 E0.79742
G1 X86.863 Y63.338 E0.83082
G1 X87.717 Y62.936 E0.87791
G1 X87.994 Y62.81 E0.89309
G1 X90.45 Y61.737 E1.02681
G1 X91.099 Y61.465 E1.06191
G1 X91.455 Y61.323 E1.08104
G1 X91.587 Y61.273 E1.08808
G1 X91.979 Y61.133 E1.10885
G1 X92.871 Y60.835 E1.15576
G1 X95.611 Y59.962 E1.29923
G1 X96.361 Y59.734 E1.33834
G1 X96.959 Y59.57 E1.36928
G1 X97.148 Y59.524 E1.37898
G1 X97.427 Y59.46 E1.39326
G1 X97.762 Y59.388 E1.41036
G1 X100.88 Y58.737 E1.56927
G1 X101.578 Y58.602 E1.60474
G1 X102.123 Y58.511 E1.63231
G1 X102.391 Y58.473 E1.64581
G1 X102.8 Y58.423 E1.66637
G1 X106.175 Y58.074 E1.83565
G1 X106.895 Y58.009 E1.87171
G1 X107.32 Y57.978 E1.89297
G1 X107.573 Y57.965 E1.90561
G1 X108.007 Y57.952 E1.92727
G1 X108.976 Y57.941 E1.97562
G1 X110.947 Y57.94 E2.07395
G1 X111.954 Y57.952 E2.1242
G1 X112.271 Y57.961 E2.14002
G1 X112.583 Y57.974 E2.1556
G1 X112.865 Y57.989 E2.16969
G1 X113.043 Y58.001 E2.17859
G1 X113.335 Y58.025 E2.1932
G1 X113.732 Y58.062 E2.2131
G1 X116.766 Y58.376 E2.36527
G1 X117.629 Y58.478 E2.40863
G1 X117.934 Y58.518 E2.42397
G1 X118.841 Y58.652 E2.46971
G1 X119.883 Y58.82 E2.52237
G1 X122.378 Y59.15 E2.64793
G1 X124.855 Y59.407 E2.77217
G1 X127.389 Y59.599 E2.89896
G1 X129.896 Y59.716 E3.02417
G1 X132.43 Y59.763 E3.15061
G1 X134.91 Y59.74 E3.27434
G1 X137.443 Y59.643 E3.40081
G1 X139.956 Y59.476 E3.52646
G1 X142.479 Y59.237 E3.6529
G1 X144.972 Y58.93 E3.77821
G1 X147.29 Y58.579 E3.89518
G1 X148.325 Y58.409 E3.9475
G1 X148.634 Y58.363 E3.96309
G1 X148.87 Y58.331 E3.97497
G1 X149.364 Y58.275 E3.99978
G1 X149.843 Y58.232 E4.02377
G1 X150.202 Y58.206 E4.04173
G1 X150.325 Y58.199 E4.04787
G1 X150.825 Y58.182 E4.07283
G1 X151.177 Y58.178 E4.0904
G1 X151.74 Y58.186 E4.11849
G1 X151.991 Y58.196 E4.13102
G1 X152.419 Y58.221 E4.15241
G1 X152.685 Y58.242 E4.16572
G1 X153.102 Y58.283 E4.18662
G1 X153.579 Y58.339 E4.21059
G1 X154.201 Y58.43 E4.24195
G1 X154.4 Y58.465 E4.25203
G1 X154.906 Y58.566 E4.27777
G1 X155.409 Y58.679 E4.30349
G1 X156.027 Y58.837 E4.33531
G1 X156.226 Y58.894 E4.34564
G1 X156.695 Y59.04 E4.37015
G1 X157.175 Y59.201 E4.39541
G1 X157.73 Y59.404 E4.42489
G1 X157.947 Y59.49 E4.43654
G1 X158.447 Y59.703 E4.46365
G1 X158.9 Y59.909 E4.48848
G1 X159.451 Y60.178 E4.51907
G1 X159.64 Y60.277 E4.52971
G1 X160.093 Y60.528 E4.55555
G1 X160.515 Y60.775 E4.57994
G1 X161.011 Y61.083 E4.60907
G1 X161.228 Y61.226 E4.62204
G1 X161.68 Y61.541 E4.64952
G1 X162.04 Y61.805 E4.6718
G1 X162.54 Y62.194 E4.7034
G1 X162.764 Y62.379 E4.7179
G1 X163.148 Y62.712 E4.74325
G1 X163.513 Y63.043 E4.76784
G1 X163.932 Y63.443 E4.79674
G1 X164.06 Y63.572 E4.8058
G1 X164.43 Y63.964 E4.8327
G1 X164.77 Y64.342 E4.85806
G1 X164.99 Y64.593 E4.87471
G1 X165.131 Y64.761 E4.88565
G1 X166.693 Y66.653 E5.00806
G1 X168.343 Y68.542 E5.13319
G1 X170.081 Y70.422 E5.26092
G1 X171.818 Y72.196 E5.38479
G1 X173.634 Y73.95 E5.51075
G1 X175.505 Y75.657 E5.63711
G1 X177.402 Y77.29 E5.76199
G1 X178.063 Y77.833 E5.80466
G1 X178.551 Y78.245 E5.83653
G1 X179.241 Y78.88 E5.88331
G1 X179.875 Y79.571 E5.9301
G1 X180.447 Y80.314 E5.97688
G1 X180.954 Y81.103 E6.02367
G1 X181.392 Y81.933 E6.07049
G1 X181.758 Y82.796 E6.11725
G1 X182.049 Y83.688 E6.16406
G1 X182.263 Y84.601 E6.21085
G1 X182.398 Y85.529 E6.25763
G1 X182.453 Y86.457 E6.30401
G1 X182.47 Y87.507 E6.35641
G1 X182.47 Y115.293 E7.74265
G1 X182.507 Y117.902 E7.87283
G1 X182.614 Y120.424 E7.99877
G1 X182.791 Y122.918 E8.12351
G1 X183.04 Y125.426 E8.24925
G1 X183.369 Y127.995 E8.37846
G1 X183.548 Y129.243 E8.44136
G1 X183.641 Y130.176 E8.48814
G1 X183.655 Y131.114 E8.53494
G1 X183.588 Y132.05 E8.58176
G1 X183.443 Y132.976 E8.62852
G1 X183.218 Y133.887 E8.67534
G1 X182.918 Y134.775 E8.7221
G1 X182.542 Y135.635 E8.76892
G1 X182.095 Y136.459 E8.81569
G1 X181.592 Y137.224 E8.86137
G1 X181.042 Y137.988 E8.90834
G1 X179.995 Y139.402 E8.99611
G1 X179.543 Y139.996 E9.03335
G1 X179.538 Y139.992 E9.03367
G1 X179.326 Y140.276 E9.05135
G1 X178.705 Y140.978 E9.09811
G1 X178.025 Y141.625 E9.14494
G1 X177.293 Y142.211 E9.19172
G1 X176.514 Y142.733 E9.23851
G1 X175.693 Y143.186 E9.28529
G1 X174.836 Y143.568 E9.3321
G1 X173.95 Y143.876 E9.3789
G1 X173.041 Y144.107 E9.42569
G1 X171.875 Y144.286 E9.48454
G1 X170.397 Y144.433 E9.55864
G1 X170.145 Y144.456 E9.57127
G1 X167.621 Y144.749 E9.69804
G1 X165.121 Y145.111 E9.82406
G1 X162.65 Y145.541 E9.94919
G1 X160.173 Y146.044 E10.07529
G1 X157.766 Y146.604 E10.19859
G1 X155.286 Y147.256 E10.32652
G1 X152.883 Y147.961 E10.45146
G1 X150.487 Y148.738 E10.57712
G1 X148.11 Y149.584 E10.703
G1 X145.799 Y150.481 E10.82668
G1 X143.44 Y151.475 E10.95439
G1 X141.155 Y152.513 E11.0796
G1 X138.897 Y153.617 E11.20499
G1 X136.594 Y154.827 E11.33478
G1 X135.263 Y155.549 E11.41033
G1 X134.822 Y155.778 E11.43512
G1 X131.888 Y157.244 E11.59875
G1 X131.235 Y157.559 E11.63492
G1 X130.656 Y157.818 E11.66657
G1 X130.223 Y157.994 E11.68989
G1 X129.818 Y158.15 E11.71154
G1 X126.942 Y159.233 E11.86486
G1 X126.222 Y159.493 E11.90305
G1 X125.609 Y159.694 E11.93524
G1 X125.157 Y159.826 E11.95873
G1 X124.865 Y159.905 E11.97382
G1 X121.732 Y160.729 E12.13544
G1 X121.005 Y160.908 E12.1728
G1 X120.436 Y161.032 E12.20185
G1 X119.997 Y161.113 E12.22412
G1 X119.637 Y161.173 E12.24233
G1 X116.664 Y161.635 E12.39243
G1 X115.757 Y161.764 E12.43814
G1 X115.144 Y161.834 E12.46892
G1 X114.672 Y161.871 E12.49254
G1 X114.305 Y161.892 E12.51088
G1 X111.148 Y162.054 E12.66859
G1 X110.408 Y162.082 E12.70554
G1 X109.776 Y162.088 E12.73707
G1 X109.294 Y162.076 E12.76112
G1 X109.019 Y162.064 E12.77486
G1 X105.785 Y161.896 E12.93642
G1 X105.062 Y161.849 E12.97256
G1 X104.442 Y161.791 E13.00363
G1 X104.18 Y161.759 E13.0168
G1 X103.754 Y161.7 E13.03826
G1 X100.452 Y161.185 E13.20498
G1 X99.761 Y161.068 E13.23995
G1 X99.109 Y160.937 E13.27313
G1 X98.842 Y160.875 E13.2868
G1 X98.533 Y160.798 E13.30269
G1 X95.185 Y159.917 E13.47541
G1 X94.585 Y159.75 E13.50648
G1 X93.982 Y159.563 E13.53798
G1 X93.102 Y159.262 E13.58438
G1 X91.914 Y158.834 E13.64738
G1 X91.457 Y158.666 E13.67167
G1 X91.19 Y158.565 E13.68591
G1 X89.773 Y158.002 E13.76198
G1 X89.114 Y157.714 E13.79786
G1 X87.944 Y157.158 E13.86249
G1 X87.749 Y157.063 E13.87331
G1 X85.377 Y155.877 E14.00562
G1 X84.7 Y155.527 E14.04364
G1 X84.126 Y155.208 E14.0764
G1 X83.726 Y154.968 E14.09968
G1 X83.461 Y154.802 E14.11528
G1 X80.733 Y153.064 E14.27665
G1 X80.173 Y152.697 E14.31005
G1 X79.653 Y152.335 E14.34166
G1 X79.429 Y152.169 E14.35557
G1 X79.156 Y151.96 E14.37273
G1 X76.479 Y149.842 E14.54303
G1 X75.922 Y149.388 E14.57888
G1 X75.47 Y148.999 E14.60863
G1 X75.282 Y148.828 E14.62131
G1 X74.964 Y148.529 E14.64309
G1 X72.552 Y146.178 E14.81113
G1 X72.05 Y145.674 E14.84662
G1 X71.63 Y145.227 E14.87722
G1 X71.467 Y145.044 E14.88945
G1 X71.239 Y144.78 E14.90685
G1 X69.067 Y142.178 E15.07595
G1 X68.584 Y141.583 E15.11418
G1 X68.179 Y141.052 E15.1475
G1 X68.038 Y140.855 E15.15958
G1 X67.859 Y140.597 E15.17525
G1 X65.942 Y137.748 E15.34657
G1 X65.542 Y137.134 E15.38313
G1 X65.237 Y136.637 E15.41222
G1 X65.141 Y136.471 E15.42179
G1 X64.989 Y136.199 E15.43733
G1 X64.829 Y135.903 E15.45412
G1 X63.315 Y133.058 E15.6149
G1 X62.997 Y132.438 E15.64967
G1 X62.735 Y131.89 E15.67997
G1 X62.538 Y131.44 E15.70448
G1 X62.411 Y131.135 E15.72096
G1 X61.215 Y128.194 E15.87936
G1 X60.943 Y127.498 E15.91664
G1 X60.727 Y126.895 E15.94859
G1 X60.578 Y126.429 E15.973
G1 X60.495 Y126.152 E15.98743
G1 X59.6 Y123.068 E16.14764
G1 X59.405 Y122.36 E16.18428
G1 X59.26 Y121.77 E16.21459
G1 X59.151 Y121.254 E16.2409
G1 X59.087 Y120.917 E16.25801
G1 X58.539 Y117.912 E16.4104
G1 X58.4 Y117.085 E16.45224
G1 X58.318 Y116.499 E16.48176
G1 X58.292 Y116.267 E16.49341
G1 X58.243 Y115.733 E16.52016
G1 X57.991 Y112.464 E16.68374
G1 X57.946 Y111.758 E16.71903
G1 X57.924 Y111.14 E16.74988
G1 X57.922 Y110.873 E16.7632
G1 X57.926 Y110.513 E16.78117
G1 X58.014 Y107.059 E16.95354
G1 X58.043 Y106.357 E16.9886
G1 X58.088 Y105.727 E17.02011
G1 X58.134 Y105.285 E17.04228
G1 X58.175 Y104.947 E17.05926
G1 X58.59 Y101.745 E17.22035
G1 X58.692 Y101.04 E17.25589
G1 X58.796 Y100.44 E17.28627
G1 X58.88 Y100.031 E17.3071
G1 X58.949 Y99.725 E17.32275
G1 X59.712 Y96.501 E17.48804
G1 X59.885 Y95.817 E17.52324
G1 X60.06 Y95.199 E17.55528
G1 X60.176 Y94.832 E17.57448
G1 X60.275 Y94.533 E17.5902
G1 X61.324 Y91.517 E17.74951
G1 X61.609 Y90.737 E17.79094
G1 X61.838 Y90.161 E17.82186
G1 X62.035 Y89.711 E17.84637
G1 X62.211 Y89.328 E17.8674
G1 X63.518 Y86.54 E18.02102
G1 X63.849 Y85.859 E18.05879
G1 X64.144 Y85.295 E18.09055
G1 X64.36 Y84.912 E18.11249
G1 X64.501 Y84.671 E18.12642
G1 X66.112 Y81.988 E18.28255
G1 X66.56 Y81.264 E18.32503
G1 X66.932 Y80.703 E18.35861
G1 X67.204 Y80.323 E18.38192
G1 X67.407 Y80.049 E18.39894
G1 X69.275 Y77.561 E18.55415
G1 X69.742 Y76.955 E18.59232
G1 X70.158 Y76.447 E18.62508
G1 X70.455 Y76.11 E18.64749
G1 X70.702 Y75.838 E18.66582
G1 X72.876 Y73.491 E18.82543
G1 X73.366 Y72.977 E18.86086
G0 F6000 X73.656 Y73.253
G1 F1200 X74.06 Y72.851 E18.88929
G1 X74.232 Y72.689 E18.90108
G1 X74.556 Y72.394 E18.92294
G1 X76.972 Y70.271 E19.0834
G1 X77.628 Y69.711 E19.12643
G1 X78.078 Y69.347 E19.15531
G1 X78.439 Y69.076 E19.17783
G1 X78.724 Y68.868 E19.19543
G1 X81.37 Y66.989 E19.35734
G1 X81.963 Y66.581 E19.39325
G1 X82.479 Y66.248 E19.42389
G1 X82.811 Y66.048 E19.44322
G1 X83.108 Y65.877 E19.46032
G1 X85.91 Y64.292 E19.62093
G1 X86.458 Y63.992 E19.6521
G1 X87.033 Y63.699 E19.6843
G1 X87.887 Y63.297 E19.73139
G1 X88.154 Y63.176 E19.74601
G1 X90.454 Y62.17 E19.87125
G1 X91.254 Y61.834 E19.91454
G1 X91.596 Y61.697 E19.93292
G1 X91.728 Y61.647 E19.93997
G1 X92.106 Y61.512 E19.95999
G1 X92.838 Y61.266 E19.99852
G1 X95.727 Y60.344 E20.14981
G1 X96.477 Y60.116 E20.18892
G1 X97.053 Y59.959 E20.21871
G1 X97.242 Y59.913 E20.22841
G1 X97.512 Y59.851 E20.24223
G1 X97.844 Y59.779 E20.25918
G1 X100.8 Y59.161 E20.40984
G1 X101.654 Y58.995 E20.45325
G1 X102.179 Y58.907 E20.47981
G1 X102.447 Y58.869 E20.49331
G1 X102.841 Y58.821 E20.51311
G1 X106.211 Y58.472 E20.68214
G1 X106.931 Y58.407 E20.71821
G1 X107.34 Y58.378 E20.73867
G1 X107.593 Y58.365 E20.7513
G1 X108.012 Y58.352 E20.77222
G1 X108.977 Y58.341 E20.82037
G1 X110.948 Y58.34 E20.9187
G1 X111.949 Y58.352 E20.96864
G1 X112.254 Y58.36 E20.98386
G1 X112.566 Y58.373 E20.99944
G1 X113.016 Y58.4 E21.02193
G1 X113.298 Y58.423 E21.03605
G1 X113.691 Y58.46 E21.05574
G1 X116.725 Y58.774 E21.20792
G1 X117.582 Y58.875 E21.25097
G1 X117.876 Y58.914 E21.26577
G1 X118.777 Y59.047 E21.31121
G1 X119.834 Y59.217 E21.36462
G1 X122.321 Y59.547 E21.48978
G1 X124.82 Y59.806 E21.61512
G1 X127.375 Y59.999 E21.74296
G1 X129.871 Y60.116 E21.86762
G1 X132.391 Y60.163 E21.99337
G1 X134.964 Y60.138 E22.12174
G1 X137.449 Y60.043 E22.24581
G1 X139.983 Y59.875 E22.37251
G1 X142.532 Y59.634 E22.50024
G1 X145.003 Y59.329 E22.62446
G1 X147.423 Y58.963 E22.74656
G1 X148.39 Y58.804 E22.79546
G1 X148.688 Y58.759 E22.81049
G1 X148.924 Y58.727 E22.82237
G1 X149.4 Y58.673 E22.84627
G1 X149.879 Y58.63 E22.87027
G1 X150.348 Y58.598 E22.89372
G1 X150.83 Y58.582 E22.91778
G1 X151.182 Y58.578 E22.93534
G1 X151.724 Y58.585 E22.96239
G1 X151.975 Y58.595 E22.97492
G1 X152.387 Y58.62 E22.99551
G1 X152.653 Y58.641 E23.00882
G1 X153.055 Y58.68 E23.02897
G1 X153.532 Y58.736 E23.05293
G1 X154.132 Y58.824 E23.08319
G1 X154.331 Y58.859 E23.09327
G1 X154.818 Y58.957 E23.11805
G1 X155.321 Y59.07 E23.14377
G1 X155.917 Y59.222 E23.17446
G1 X156.116 Y59.279 E23.18479
G1 X156.568 Y59.419 E23.20839
G1 X157.048 Y59.58 E23.23365
G1 X157.582 Y59.776 E23.26203
G1 X157.799 Y59.862 E23.27368
G1 X158.282 Y60.067 E23.29985
G1 X158.735 Y60.273 E23.32468
G1 X159.265 Y60.532 E23.35411
G1 X159.454 Y60.631 E23.36476
G1 X159.891 Y60.873 E23.38968
G1 X160.313 Y61.12 E23.41407
G1 X160.791 Y61.417 E23.44215
G1 X161.008 Y61.56 E23.45511
G1 X161.443 Y61.863 E23.48156
G1 X161.803 Y62.127 E23.50384
G1 X162.285 Y62.502 E23.5343
G1 X162.509 Y62.687 E23.5488
G1 X162.88 Y63.008 E23.57327
G1 X163.245 Y63.339 E23.59786
G1 X163.648 Y63.725 E23.6257
G1 X163.776 Y63.854 E23.63476
G1 X164.133 Y64.231 E23.66067
G1 X164.473 Y64.609 E23.68603
G1 X164.686 Y64.853 E23.70219
G1 X164.823 Y65.015 E23.71277
G1 X166.416 Y66.946 E23.83766
G1 X168.05 Y68.816 E23.96156
G1 X169.767 Y70.672 E24.0877
G1 X171.538 Y72.48 E24.21396
G1 X173.371 Y74.251 E24.34112
G1 X175.238 Y75.955 E24.46723
G1 X177.151 Y77.602 E24.59317
G1 X177.805 Y78.139 E24.63539
G1 X178.293 Y78.551 E24.66725
G1 X178.97 Y79.174 E24.71315
G1 X179.59 Y79.855 E24.7591
G1 X180.149 Y80.586 E24.80501
G1 X180.643 Y81.364 E24.85099
G1 X181.067 Y82.181 E24.89691
G1 X181.418 Y83.032 E24.94284
G1 X181.695 Y83.91 E24.98877
G1 X181.894 Y84.809 E25.03471
G1 X182.014 Y85.721 E25.0806
G1 X182.053 Y86.464 E25.11772
G1 X182.07 Y87.507 E25.16976
G1 X182.07 Y115.299 E26.55631
G1 X182.107 Y117.924 E26.68728
G1 X182.214 Y120.433 E26.81257
G1 X182.392 Y122.949 E26.93841
G1 X182.64 Y125.449 E27.06375
G1 X182.983 Y128.125 E27.19834
G1 X183.152 Y129.3 E27.25757
G1 X183.243 Y130.216 E27.30349
G1 X183.254 Y131.137 E27.34945
G1 X183.185 Y132.055 E27.39537
G1 X183.037 Y132.964 E27.44132
G1 X182.81 Y133.856 E27.48724
G1 X182.507 Y134.725 E27.53316
G1 X182.13 Y135.565 E27.57909
G1 X181.681 Y136.369 E27.62503
G1 X181.267 Y136.99 E27.66227
G1 X180.72 Y137.75 E27.70899
G1 X179.676 Y139.16 E27.79651
G1 X179.224 Y139.754 E27.83375
G1 X179.218 Y139.75 E27.83411
G1 X178.93 Y140.128 E27.85782
G1 X178.31 Y140.809 E27.90377
G1 X177.634 Y141.434 E27.9497
G1 X176.906 Y141.997 E27.99561
G1 X176.131 Y142.495 E28.04157
G1 X175.317 Y142.924 E28.08748
G1 X174.468 Y143.281 E28.13343
G1 X173.592 Y143.563 E28.17934
G1 X172.694 Y143.767 E28.22528
G1 X171.836 Y143.888 E28.26851
G1 X170.36 Y144.034 E28.34251
G1 X170.106 Y144.057 E28.35523
G1 X167.584 Y144.35 E28.4819
G1 X165.072 Y144.713 E28.60853
G1 X162.567 Y145.15 E28.73539
G1 X160.116 Y145.647 E28.86016
G1 X157.638 Y146.223 E28.98709
G1 X155.21 Y146.862 E29.11234
G1 X152.762 Y147.58 E29.23962
G1 X150.367 Y148.357 E29.36524
G1 X147.949 Y149.218 E29.49329
G1 X145.623 Y150.12 E29.61776
G1 X143.311 Y151.094 E29.74292
G1 X140.979 Y152.154 E29.87072
G1 X138.714 Y153.262 E29.99652
G1 X136.367 Y154.494 E30.12876
G1 X135.072 Y155.197 E30.20227
G1 X134.849 Y155.315 E30.21486
G1 X134.547 Y155.469 E30.23177
G1 X131.714 Y156.883 E30.38974
G1 X131.061 Y157.198 E30.42591
G1 X130.504 Y157.448 E30.45637
G1 X130.079 Y157.621 E30.47926
G1 X129.677 Y157.776 E30.50076
G1 X126.806 Y158.857 E30.65381
G1 X126.086 Y159.117 E30.692
G1 X125.496 Y159.311 E30.72299
G1 X125.051 Y159.44 E30.7461
G1 X124.763 Y159.518 E30.76099
G1 X121.636 Y160.341 E30.92231
G1 X120.909 Y160.52 E30.95966
G1 X120.361 Y160.639 E30.98764
G1 X119.931 Y160.719 E31.00946
G1 X119.576 Y160.777 E31.0274
G1 X116.462 Y161.26 E31.18462
G1 X115.7 Y161.368 E31.22302
G1 X115.11 Y161.435 E31.25264
G1 X114.898 Y161.453 E31.26326
G1 X114.385 Y161.487 E31.28891
G1 X111.278 Y161.648 E31.44412
G1 X110.393 Y161.682 E31.48831
G1 X109.784 Y161.688 E31.51869
G1 X109.529 Y161.683 E31.53142
