;FLAVOR:Marlin
;TIME:1111
;Filament used: 0.276214m
;Layer height: 0.2
;MINX:94.231
;MINY:94.865
;MINZ:0.3
;MAXX:125.764
;MAXY:126.248
;MAXZ:27.9
;Generated with Creality Slicer 4.8.2-191
M140 S60
M105
M190 S60
M104 S220
M105
M109 S220
M82 ;absolute extrusion mode

G28 ;Home

G92 E0 ;Reset Extruder
G1 Z2.0 F3000 ;Move Z Axis up
G1 X10.1 Y20 Z0.28 F5000.0 ;Move to start position
G1 X10.1 Y200.0 Z0.28 F1500.0 E15 ;Draw the first line
G1 X10.4 Y200.0 Z0.28 F5000.0 ;Move to side a little
G1 X10.4 Y20 Z0.28 F1500.0 E30 ;Draw the second line
G92 E0 ;Reset Extruder
G1 Z2.0 F3000 ;Move Z Axis up

G92 E0
G92 E0
G1 F3600 E-5
;LAYER_COUNT:139
;LAYER:0
M107
G0 F6000 X98.727 Y99.535 Z0.3
;TYPE:SKIRT
G1 F3600 E0
G1 F1200 X99.118 Y99.146 E0.02752
G1 X99.228 Y99.042 E0.03507
G1 X99.677 Y98.64 E0.06514
G1 X99.951 Y98.408 E0.08305
G1 X100.447 Y98.012 E0.11471
G1 X100.564 Y97.924 E0.12202
G1 X100.996 Y97.615 E0.14852
G1 X101.317 Y97.397 E0.16787
G1 X102.015 Y96.96 E0.20896
G1 X102.142 Y96.887 E0.21627
G1 X102.476 Y96.703 E0.23529
G1 X102.78 Y96.542 E0.25245
G1 X103.746 Y96.089 E0.30568
G1 X104.072 Y95.955 E0.32327
G1 X104.653 Y95.735 E0.35426
G1 X104.982 Y95.621 E0.37163
G1 X105.796 Y95.374 E0.41407
G1 X105.88 Y95.352 E0.41841
G1 X106.424 Y95.224 E0.44629
G1 X106.64 Y95.179 E0.4573
G1 X107.01 Y95.108 E0.47609
G1 X107.537 Y95.026 E0.5027
G1 X107.766 Y94.996 E0.51422
G1 X108.21 Y94.947 E0.53651
G1 X108.493 Y94.922 E0.55068
G1 X108.787 Y94.9 E0.56539
G1 X109.297 Y94.873 E0.59087
G1 X109.509 Y94.867 E0.60145
G1 X110.036 Y94.865 E0.62774
G1 X110.595 Y94.876 E0.65564
G1 X110.991 Y94.891 E0.67541
G1 X111.368 Y94.912 E0.69425
G1 X112.101 Y94.978 E0.73096
G1 X112.385 Y95.013 E0.74524
G1 X112.919 Y95.092 E0.77217
G1 X112.994 Y95.105 E0.77597
G1 X113.783 Y95.271 E0.81619
G1 X114.147 Y95.362 E0.83491
G1 X115.078 Y95.64 E0.88339
G1 X115.387 Y95.747 E0.8997
G1 X116.178 Y96.055 E0.94205
G1 X116.433 Y96.166 E0.95593
G1 X117.045 Y96.455 E0.98969
G1 X117.282 Y96.576 E1.00297
G1 X117.878 Y96.904 E1.03691
G1 X118.152 Y97.066 E1.05279
G1 X118.668 Y97.391 E1.08321
G1 X118.834 Y97.502 E1.09317
G1 X119.277 Y97.814 E1.12021
G1 X119.506 Y97.984 E1.13444
G1 X119.919 Y98.306 E1.16056
G1 X120.118 Y98.469 E1.1734
G1 X120.536 Y98.829 E1.20092
G1 X120.643 Y98.926 E1.20812
G1 X121.079 Y99.344 E1.23826
G1 X121.331 Y99.599 E1.25614
G1 X121.755 Y100.053 E1.28714
G1 X121.845 Y100.155 E1.29392
G1 X122.184 Y100.558 E1.3202
G1 X122.421 Y100.854 E1.33911
G1 X122.762 Y101.304 E1.36728
G1 X122.839 Y101.411 E1.37386
G1 X123.173 Y101.901 E1.40344
G1 X123.371 Y102.21 E1.42175
G1 X123.66 Y102.687 E1.44958
G1 X123.728 Y102.806 E1.45642
G1 X124.027 Y103.368 E1.48818
G1 X124.198 Y103.712 E1.50734
G1 X124.404 Y104.149 E1.53144
G1 X124.451 Y104.255 E1.53723
G1 X124.702 Y104.871 E1.57041
G1 X124.79 Y105.107 E1.58298
G1 X125.01 Y105.758 E1.61726
G1 X125.151 Y106.223 E1.64151
G1 X125.304 Y106.782 E1.67042
G1 X125.322 Y106.855 E1.67417
G1 X125.444 Y107.412 E1.70262
G1 X125.508 Y107.745 E1.71954
G1 X125.607 Y108.346 E1.74992
G1 X125.643 Y108.612 E1.76332
G1 X125.705 Y109.181 E1.79187
G1 X125.715 Y109.302 E1.79793
G1 X125.743 Y109.759 E1.82077
G1 X125.757 Y110.102 E1.8379
G1 X125.764 Y110.78 E1.87173
G1 X125.761 Y110.924 E1.87891
G1 X125.737 Y111.444 E1.90488
G1 X125.72 Y111.693 E1.91733
G1 X125.656 Y112.349 E1.95022
G1 X125.596 Y112.815 E1.97366
G1 X125.46 Y113.629 E2.01483
G1 X125.398 Y113.93 E2.03016
G1 X125.194 Y114.757 E2.07266
G1 X125.094 Y115.104 E2.09068
G1 X124.906 Y115.692 E2.12147
G1 X124.871 Y115.792 E2.12676
G1 X124.685 Y116.286 E2.15309
G1 X124.536 Y116.654 E2.1729
G1 X124.304 Y117.187 E2.2019
G1 X124.246 Y117.311 E2.20873
G1 X123.986 Y117.83 E2.23769
G1 X123.812 Y118.156 E2.25613
G1 X123.318 Y118.991 E2.30453
G1 X123.141 Y119.262 E2.32068
G1 X122.625 Y119.986 E2.36504
G1 X122.27 Y120.444 E2.39395
G1 X121.702 Y121.119 E2.43796
G1 X121.525 Y121.313 E2.45106
G1 X121.002 Y121.848 E2.48839
G1 X120.749 Y122.09 E2.50585
G1 X120.174 Y122.603 E2.5443
G1 X120.056 Y122.701 E2.55195
G1 X119.707 Y122.98 E2.57424
G1 X119.423 Y123.197 E2.59207
G1 X118.934 Y123.549 E2.62213
G1 X118.815 Y123.63 E2.62931
G1 X118.36 Y123.924 E2.65634
G1 X118.067 Y124.103 E2.67347
G1 X117.488 Y124.433 E2.70672
G1 X117.341 Y124.511 E2.71502
G1 X116.881 Y124.741 E2.74068
G1 X116.559 Y124.893 E2.75844
G1 X115.984 Y125.145 E2.78977
G1 X115.114 Y125.459 E2.83591
G1 X114.563 Y125.632 E2.86472
G1 X113.59 Y125.889 E2.91493
G1 X113.326 Y125.946 E2.92841
G1 X112.686 Y126.065 E2.96088
G1 X112.602 Y126.078 E2.96512
G1 X112.076 Y126.146 E2.99158
G1 X111.792 Y126.176 E3.00583
G1 X111.275 Y126.218 E3.03171
G1 X111.086 Y126.229 E3.04116
G1 X110.416 Y126.248 E3.0746
G1 X109.698 Y126.246 E3.11042
G1 X109.271 Y126.236 E3.13173
G1 X108.911 Y126.221 E3.1497
G1 X108.24 Y126.173 E3.18326
G1 X107.988 Y126.147 E3.1959
G1 X107.531 Y126.09 E3.21888
G1 X107.332 Y126.061 E3.22891
G1 X106.687 Y125.947 E3.26159
G1 X106.518 Y125.912 E3.2702
G1 X105.826 Y125.746 E3.3057
G1 X105.543 Y125.668 E3.32035
G1 X104.579 Y125.353 E3.37095
G1 X104.076 Y125.163 E3.39777
G1 X102.978 Y124.679 E3.45764
G1 X102.858 Y124.618 E3.46435
G1 X102.498 Y124.426 E3.48471
G1 X102.185 Y124.252 E3.50257
G1 X101.751 Y123.998 E3.52766
G1 X101.636 Y123.927 E3.5344
G1 X101.096 Y123.571 E3.56667
G1 X100.925 Y123.451 E3.5771
G1 X100.407 Y123.064 E3.60935
G1 X99.976 Y122.722 E3.6368
G1 X99.298 Y122.137 E3.68148
G1 X99.096 Y121.948 E3.69528
G1 X98.523 Y121.372 E3.73582
G1 X98.287 Y121.116 E3.75319
G1 X97.853 Y120.615 E3.78626
G1 X97.742 Y120.479 E3.79501
G1 X97.425 Y120.072 E3.82075
G1 X97.222 Y119.798 E3.83776
G1 X96.791 Y119.171 E3.87572
G1 X96.692 Y119.016 E3.8849
G1 X96.491 Y118.689 E3.90405
G1 X96.315 Y118.391 E3.92132
G1 X95.962 Y117.745 E3.95804
G1 X95.894 Y117.61 E3.96558
G1 X95.683 Y117.168 E3.99002
G1 X95.542 Y116.854 E4.00719
G1 X95.312 Y116.301 E4.03707
G1 X95.255 Y116.153 E4.04498
G1 X95.068 Y115.63 E4.07269
G1 X94.962 Y115.307 E4.08965
G1 X94.754 Y114.592 E4.12681
G1 X94.7 Y114.38 E4.13772
G1 X94.597 Y113.938 E4.16036
G1 X94.533 Y113.635 E4.17581
G1 X94.409 Y112.936 E4.21123
G1 X94.385 Y112.77 E4.2196
G1 X94.326 Y112.288 E4.24382
G1 X94.29 Y111.927 E4.26192
G1 X94.246 Y111.309 E4.29283
G1 X94.241 Y111.193 E4.29863
G1 X94.231 Y110.661 E4.32517
G1 X94.233 Y110.279 E4.34423
G1 X94.258 Y109.6 E4.37813
G1 X94.268 Y109.451 E4.38558
G1 X94.313 Y108.95 E4.41068
G1 X94.354 Y108.588 E4.42885
G1 X94.475 Y107.784 E4.46941
G1 X94.516 Y107.567 E4.48043
G1 X94.616 Y107.094 E4.50455
G1 X94.686 Y106.796 E4.51982
G1 X94.821 Y106.278 E4.54653
G1 X94.858 Y106.149 E4.55323
G1 X95.024 Y105.623 E4.58074
G1 X95.143 Y105.275 E4.59909
G1 X95.448 Y104.484 E4.64139
G1 X95.541 Y104.268 E4.65312
G1 X95.673 Y103.973 E4.66924
G1 X95.782 Y103.739 E4.68212
G1 X96.027 Y103.245 E4.70963
G1 X96.092 Y103.122 E4.71657
G1 X96.412 Y102.558 E4.74893
G1 X96.623 Y102.21 E4.76923
G1 X97.017 Y101.605 E4.80525
G1 X97.087 Y101.505 E4.81134
G1 X97.346 Y101.151 E4.83322
G1 X97.569 Y100.858 E4.85159
G1 X98.007 Y100.318 E4.88628
G1 X98.117 Y100.191 E4.89466
G1 X98.484 Y99.789 E4.92182
G1 X98.727 Y99.535 E4.93936
G0 F6000 X99.016 Y99.811
G1 F1200 X99.393 Y99.437 E4.96585
G1 X99.503 Y99.333 E4.9734
G1 X99.935 Y98.945 E5.00237
G1 X100.209 Y98.713 E5.02029
G1 X100.687 Y98.332 E5.05078
G1 X100.804 Y98.244 E5.05809
G1 X101.221 Y97.946 E5.08366
G1 X101.542 Y97.728 E5.10301
G1 X102.215 Y97.307 E5.14262
G1 X102.342 Y97.234 E5.14993
G1 X102.663 Y97.057 E5.16822
G1 X102.967 Y96.896 E5.18538
G1 X103.898 Y96.459 E5.23669
G1 X104.224 Y96.325 E5.25427
G1 X104.783 Y96.113 E5.2841
G1 X105.112 Y95.999 E5.30147
G1 X105.897 Y95.761 E5.34239
G1 X105.981 Y95.739 E5.34673
G1 X106.505 Y95.616 E5.37358
G1 X106.721 Y95.571 E5.38459
G1 X107.081 Y95.502 E5.40287
G1 X107.589 Y95.423 E5.42852
G1 X107.818 Y95.393 E5.44005
G1 X108.131 Y95.356 E5.45577
G1 X108.523 Y95.321 E5.47541
G1 X108.817 Y95.299 E5.49011
G1 X109.308 Y95.273 E5.51464
G1 X109.52 Y95.267 E5.52523
G1 X110.029 Y95.265 E5.55062
G1 X110.588 Y95.276 E5.57851
G1 X110.969 Y95.29 E5.59753
G1 X111.346 Y95.311 E5.61637
G1 X112.053 Y95.375 E5.65179
G1 X112.337 Y95.41 E5.66607
G1 X112.85 Y95.486 E5.69194
G1 X112.925 Y95.499 E5.69574
G1 X113.686 Y95.659 E5.73453
G1 X114.05 Y95.75 E5.75325
G1 X114.947 Y96.018 E5.79996
G1 X115.256 Y96.125 E5.81627
G1 X116.019 Y96.422 E5.85712
G1 X116.274 Y96.533 E5.87099
G1 X116.863 Y96.811 E5.90349
G1 X117.1 Y96.932 E5.91676
G1 X117.675 Y97.249 E5.94952
G1 X117.949 Y97.411 E5.9654
G1 X118.446 Y97.723 E5.99468
G1 X118.612 Y97.834 E6.00464
G1 X119.038 Y98.135 E6.03067
G1 X119.267 Y98.305 E6.04489
G1 X119.666 Y98.616 E6.07013
G1 X119.865 Y98.779 E6.08297
G1 X120.267 Y99.126 E6.10946
G1 X120.374 Y99.223 E6.11667
G1 X120.795 Y99.625 E6.14571
G1 X121.047 Y99.88 E6.16359
G1 X121.455 Y100.318 E6.19346
G1 X121.545 Y100.42 E6.20024
G1 X121.871 Y100.808 E6.22553
G1 X122.108 Y101.104 E6.24444
G1 X122.438 Y101.537 E6.27161
G1 X122.515 Y101.644 E6.27818
G1 X122.836 Y102.117 E6.3067
G1 X123.034 Y102.426 E6.32501
G1 X123.312 Y102.886 E6.35183
G1 X123.38 Y103.005 E6.35866
G1 X123.669 Y103.546 E6.38926
G1 X123.84 Y103.89 E6.40843
G1 X124.038 Y104.311 E6.43164
G1 X124.085 Y104.417 E6.43743
G1 X124.327 Y105.011 E6.46942
G1 X124.415 Y105.247 E6.48199
G1 X124.627 Y105.874 E6.51501
G1 X124.768 Y106.339 E6.53925
G1 X124.916 Y106.877 E6.56709
G1 X124.934 Y106.95 E6.57084
G1 X125.051 Y107.487 E6.59826
G1 X125.115 Y107.82 E6.61518
G1 X125.21 Y108.399 E6.64445
G1 X125.246 Y108.665 E6.65784
G1 X125.306 Y109.214 E6.6854
G1 X125.316 Y109.335 E6.69145
G1 X125.343 Y109.776 E6.7135
G1 X125.357 Y110.119 E6.73062
G1 X125.364 Y110.772 E6.7632
G1 X125.361 Y110.916 E6.77039
G1 X125.338 Y111.417 E6.79541
G1 X125.321 Y111.666 E6.80786
G1 X125.259 Y112.298 E6.83954
G1 X125.199 Y112.764 E6.86299
G1 X125.068 Y113.548 E6.90264
G1 X125.006 Y113.849 E6.91797
G1 X124.809 Y114.646 E6.95893
G1 X124.709 Y114.993 E6.97695
G1 X124.529 Y115.56 E7.00663
G1 X124.494 Y115.66 E7.01191
G1 X124.314 Y116.136 E7.0373
G1 X124.165 Y116.504 E7.05711
G1 X123.942 Y117.017 E7.08502
G1 X123.884 Y117.141 E7.09185
G1 X123.633 Y117.641 E7.11976
G1 X123.459 Y117.967 E7.1382
G1 X122.983 Y118.772 E7.18485
G1 X122.806 Y119.043 E7.201
G1 X122.309 Y119.741 E7.24375
G1 X121.954 Y120.199 E7.27266
G1 X121.407 Y120.849 E7.31504
G1 X121.23 Y121.043 E7.32815
G1 X120.726 Y121.559 E7.36413
G1 X120.473 Y121.801 E7.3816
G1 X119.918 Y122.295 E7.41867
G1 X119.8 Y122.393 E7.42632
G1 X119.464 Y122.662 E7.44779
G1 X119.18 Y122.879 E7.46562
G1 X118.709 Y123.219 E7.49461
G1 X118.59 Y123.3 E7.50179
G1 X118.151 Y123.583 E7.52785
G1 X117.858 Y123.762 E7.54498
G1 X117.3 Y124.079 E7.57699
G1 X117.153 Y124.157 E7.58529
G1 X116.71 Y124.38 E7.61004
G1 X116.388 Y124.532 E7.6278
G1 X115.833 Y124.775 E7.65803
G1 X114.994 Y125.077 E7.70252
G1 X114.443 Y125.25 E7.73133
G1 X113.505 Y125.498 E7.77973
G1 X113.241 Y125.555 E7.79321
G1 X112.625 Y125.669 E7.82446
G1 X112.541 Y125.682 E7.8287
G1 X112.034 Y125.748 E7.85421
G1 X111.75 Y125.778 E7.86846
G1 X111.252 Y125.819 E7.89339
G1 X111.063 Y125.83 E7.90283
G1 X110.417 Y125.848 E7.93508
G1 X109.699 Y125.846 E7.9709
G1 X109.288 Y125.837 E7.99141
G1 X108.928 Y125.822 E8.00938
G1 X108.281 Y125.775 E8.04175
G1 X108.029 Y125.749 E8.05439
G1 X107.588 Y125.694 E8.07656
G1 X107.389 Y125.665 E8.08659
G1 X106.768 Y125.556 E8.11805
G1 X106.599 Y125.521 E8.12666
G1 X105.932 Y125.36 E8.16089
G1 X105.649 Y125.282 E8.17553
G1 X104.72 Y124.979 E8.22429
G1 X104.217 Y124.789 E8.25111
G1 X103.16 Y124.322 E8.30876
G1 X103.04 Y124.261 E8.31548
G1 X102.693 Y124.077 E8.33507
G1 X102.38 Y123.903 E8.35294
G1 X101.961 Y123.657 E8.37718
G1 X101.846 Y123.586 E8.38392
G1 X101.326 Y123.244 E8.41497
G1 X101.155 Y123.124 E8.4254
G1 X100.655 Y122.75 E8.45655
G1 X100.224 Y122.408 E8.484
G1 X99.571 Y121.845 E8.52701
G1 X99.369 Y121.656 E8.54081
G1 X98.817 Y121.101 E8.57987
G1 X98.581 Y120.845 E8.59724
G1 X98.163 Y120.362 E8.62911
G1 X98.052 Y120.226 E8.63786
G1 X97.747 Y119.834 E8.66264
G1 X97.544 Y119.56 E8.67966
G1 X97.128 Y118.956 E8.71624
G1 X97.029 Y118.801 E8.72542
G1 X96.835 Y118.485 E8.74392
G1 X96.659 Y118.187 E8.76119
G1 X96.319 Y117.565 E8.79655
G1 X96.251 Y117.43 E8.80409
G1 X96.048 Y117.004 E8.82764
G1 X95.907 Y116.69 E8.84481
G1 X95.685 Y116.158 E8.87357
G1 X95.628 Y116.01 E8.88148
G1 X95.448 Y115.505 E8.90823
G1 X95.342 Y115.182 E8.92519
G1 X95.142 Y114.493 E8.96098
G1 X95.088 Y114.281 E8.9719
G1 X94.989 Y113.856 E8.99367
G1 X94.925 Y113.553 E9.00912
G1 X94.805 Y112.879 E9.04327
G1 X94.781 Y112.713 E9.05164
G1 X94.724 Y112.248 E9.07501
G1 X94.688 Y111.887 E9.09311
G1 X94.646 Y111.291 E9.12292
G1 X94.641 Y111.175 E9.12871
G1 X94.631 Y110.664 E9.15421
G1 X94.633 Y110.282 E9.17327
G1 X94.657 Y109.627 E9.20597
G1 X94.667 Y109.478 E9.21342
G1 X94.71 Y108.995 E9.23761
G1 X94.751 Y108.633 E9.25579
G1 X94.868 Y107.858 E9.29489
G1 X94.909 Y107.641 E9.30591
G1 X95.006 Y107.185 E9.32917
G1 X95.076 Y106.887 E9.34444
G1 X95.206 Y106.389 E9.37012
G1 X95.243 Y106.26 E9.37681
G1 X95.402 Y105.752 E9.40337
G1 X95.521 Y105.404 E9.42172
G1 X95.815 Y104.642 E9.46247
G1 X95.908 Y104.426 E9.4742
G1 X96.035 Y104.142 E9.48972
G1 X96.144 Y103.908 E9.5026
G1 X96.381 Y103.431 E9.52917
G1 X96.446 Y103.308 E9.53611
G1 X96.754 Y102.765 E9.56726
G1 X96.965 Y102.417 E9.58756
G1 X97.345 Y101.834 E9.62228
G1 X97.415 Y101.734 E9.62837
G1 X97.664 Y101.393 E9.64944
G1 X97.887 Y101.1 E9.66781
G1 X98.31 Y100.58 E9.70125
G1 X98.42 Y100.453 E9.70963
G1 X98.773 Y100.065 E9.7358
G1 X99.016 Y99.811 E9.75334
G0 F6000 X99.305 Y100.088
G1 F1200 X99.667 Y99.727 E9.77884
G1 X99.777 Y99.623 E9.7864
G1 X100.194 Y99.251 E9.81428
G1 X100.468 Y99.019 E9.83219
G1 X100.928 Y98.651 E9.86158
G1 X101.045 Y98.563 E9.86888
G1 X101.445 Y98.277 E9.89341
G1 X101.766 Y98.059 E9.91277
G1 X102.414 Y97.654 E9.9509
G1 X102.541 Y97.581 E9.9582
G1 X102.85 Y97.41 E9.97582
G1 X103.154 Y97.249 E9.99299
G1 X104.05 Y96.829 E10.04235
G1 X104.376 Y96.695 E10.05994
G1 X104.914 Y96.491 E10.08864
G1 X105.243 Y96.377 E10.10602
G1 X105.999 Y96.148 E10.14543
G1 X106.083 Y96.126 E10.14976
G1 X106.587 Y96.007 E10.17559
G1 X106.803 Y95.962 E10.1866
G1 X107.152 Y95.896 E10.20432
G1 X107.641 Y95.819 E10.22902
G1 X107.87 Y95.789 E10.24054
G1 X108.291 Y95.742 E10.26167
G1 X108.553 Y95.719 E10.2748
G1 X108.847 Y95.697 E10.28951
G1 X109.319 Y95.673 E10.31308
G1 X109.531 Y95.667 E10.32366
G1 X110.021 Y95.665 E10.34811
G1 X110.58 Y95.676 E10.37601
G1 X110.946 Y95.69 E10.39428
G1 X111.323 Y95.711 E10.41312
G1 X112.004 Y95.772 E10.44723
G1 X112.288 Y95.807 E10.4615
G1 X112.782 Y95.88 E10.48642
G1 X112.857 Y95.893 E10.49021
G1 X113.589 Y96.048 E10.52754
G1 X113.953 Y96.139 E10.54626
G1 X114.817 Y96.396 E10.59123
G1 X115.126 Y96.503 E10.60755
G1 X115.859 Y96.789 E10.6468
G1 X116.114 Y96.9 E10.66068
G1 X116.681 Y97.167 E10.69195
G1 X116.918 Y97.288 E10.70522
G1 X117.471 Y97.593 E10.73673
G1 X117.745 Y97.755 E10.75261
G1 X118.224 Y98.056 E10.78083
G1 X118.39 Y98.167 E10.7908
G1 X118.8 Y98.456 E10.81582
G1 X119.029 Y98.626 E10.83005
G1 X119.412 Y98.925 E10.85429
G1 X119.611 Y99.088 E10.86712
G1 X119.999 Y99.422 E10.89267
G1 X120.106 Y99.519 E10.89987
G1 X120.51 Y99.906 E10.92778
G1 X120.762 Y100.161 E10.94567
G1 X121.155 Y100.582 E10.9744
G1 X121.245 Y100.684 E10.98119
G1 X121.559 Y101.058 E11.00555
G1 X121.796 Y101.354 E11.02447
G1 X122.113 Y101.771 E11.0506
G1 X122.19 Y101.878 E11.05718
G1 X122.499 Y102.333 E11.08462
G1 X122.697 Y102.642 E11.10293
G1 X122.965 Y103.084 E11.12872
G1 X123.033 Y103.203 E11.13556
G1 X123.311 Y103.724 E11.16502
G1 X123.482 Y104.068 E11.18418
G1 X123.673 Y104.474 E11.20657
G1 X123.72 Y104.58 E11.21235
G1 X123.952 Y105.15 E11.24305
G1 X124.04 Y105.386 E11.25562
G1 X124.244 Y105.99 E11.28743
G1 X124.385 Y106.455 E11.31167
G1 X124.527 Y106.973 E11.33847
G1 X124.545 Y107.046 E11.34222
G1 X124.659 Y107.563 E11.36863
G1 X124.723 Y107.896 E11.38555
G1 X124.814 Y108.453 E11.4137
G1 X124.85 Y108.719 E11.4271
G1 X124.907 Y109.247 E11.45359
G1 X124.917 Y109.368 E11.45965
G1 X124.944 Y109.792 E11.48084
G1 X124.958 Y110.135 E11.49797
G1 X124.964 Y110.763 E11.5293
G1 X124.961 Y110.907 E11.53649
